;Generated with Pancakes - © 2019 Lieven Libberecht, William Thenaers

;Setup
M140 S50
M104 S200
M105
M190 S50
M109 S200
M82
G21
M201 X500.0 Y500.0 Z100.0 E5000.0
M203 X500.0 Y500.0 Z10.0 E50.0
M204 P500.0 R1000.0 T500.0
M205 X8.0 Y8.0 Z0.4 E5.0
M220 S100.0
M221 S100.0
G28
G92 E0
G1 Z2.0 F3000
G1 X10.1 Y20.0 Z0.28 F5000
G1 X10.1 Y200.0 Z0.28 E15 F1500
G1 X10.4 Y200.0 Z0.28 F5000
G1 X10.4 Y20.0 Z0.28 E30 F1500
G92 E0
G1 Z2.0 F3000
G92 E0
G1 E-5 F2700
M107
G1 E0 F1500

;Print

;LAYER 0 of 101
M106 S85
G0 X108.522 Y114.544 Z0.18 F6000
G1 E0 F2700
G1 F1200
G1 X107.609 Y114.137 E0.05331
G1 X106.804 Y113.552 E0.10639
G1 X106.132 Y112.807 E0.15989
G1 X105.634 Y111.943 E0.21308
G1 X105.325 Y110.994 E0.26631
G1 X105.221 Y110 E0.31961
G1 X105.325 Y109.005 E0.37297
G1 X105.634 Y108.056 E0.42620
G1 X106.132 Y107.192 E0.47938
G1 X106.804 Y106.447 E0.53289
G1 X107.609 Y105.862 E0.58597
G1 X108.522 Y105.455 E0.63928
G1 X109.502 Y105.247 E0.69271
G1 X110.497 Y105.247 E0.74578
G1 X111.477 Y105.455 E0.79921
G1 X112.388 Y105.861 E0.85240
G1 X113.197 Y106.449 E0.90574
G1 X113.867 Y107.192 E0.95910
G1 X114.365 Y108.056 E1.01228
G1 X114.674 Y109.005 E1.06551
G1 X114.779 Y110.003 E1.11903
G1 X114.674 Y110.994 E1.17218
G1 X114.365 Y111.943 E1.22541
G1 X113.867 Y112.807 E1.27860
G1 X113.197 Y113.55 E1.33196
G1 X112.388 Y114.138 E1.38530
G1 X111.477 Y114.544 E1.43849
G1 X110.497 Y114.752 E1.49192
G1 X109.502 Y114.752 E1.54499
G1 X108.522 Y114.544 E1.59842
G0 X109.543 Y114.352 F6000
G1 F1200
G1 X108.646 Y114.162 E1.64732
G1 X107.812 Y113.79 E1.69602
G1 X107.072 Y113.252 E1.74482
G1 X106.459 Y112.572 E1.79365
G1 X106 Y111.776 E1.84265
G1 X105.719 Y110.913 E1.89106
G1 X105.623 Y110 E1.94002
G1 X105.719 Y109.086 E1.98903
G1 X106 Y108.223 E2.03744
G1 X106.459 Y107.427 E2.08644
G1 X107.072 Y106.747 E2.13527
G1 X107.812 Y106.209 E2.18407
G1 X108.646 Y105.837 E2.23277
G1 X109.543 Y105.647 E2.28167
G1 X110.456 Y105.647 E2.33036
G1 X111.353 Y105.837 E2.37927
G1 X112.185 Y106.208 E2.42785
G1 X112.929 Y106.749 E2.47691
G1 X113.54 Y107.427 E2.52559
G1 X113.999 Y108.223 E2.57460
G1 X114.28 Y109.086 E2.62300
G1 X114.377 Y110.003 E2.67218
G1 X114.28 Y110.912 E2.72093
G1 X113.999 Y111.776 E2.76939
G1 X113.54 Y112.572 E2.81840
G1 X112.929 Y113.25 E2.86707
G1 X112.185 Y113.791 E2.91613
G1 X111.353 Y114.162 E2.96472
G1 X110.456 Y114.352 E3.01362
G1 X109.543 Y114.352 E3.06231
G0 X108.188 Y106.48 F6000
G1 F1200
G1 X108.771 Y106.22 E3.09636
G1 X109.588 Y106.047 E3.14090
G1 X110.411 Y106.047 E3.18479
G1 X111.228 Y106.22 E3.22933
G1 X111.812 Y106.48 E3.26343
G1 X108.188 Y106.48 E3.45671
G0 X106.728 Y107.76 F6000
G1 F1200
G1 X106.783 Y107.665 E3.46256
G1 X107.274 Y107.12 E3.50168
G1 X112.725 Y107.12 E3.79240
G1 X113.216 Y107.665 E3.83153
G1 X113.271 Y107.76 E3.83738
G1 X106.728 Y107.76 E4.18634
G0 X106.155 Y109.04 F6000
G1 F1200
G1 X106.364 Y108.4 E4.22225
G1 X113.635 Y108.4 E4.61004
G1 X113.844 Y109.04 E4.64594
G1 X106.155 Y109.04 E5.05602
G0 X106.059 Y110.32 F6000
G1 F1200
G1 X106.026 Y110 E5.07318
G1 X106.059 Y109.68 E5.09034
G1 X113.94 Y109.68 E5.51066
G1 X113.974 Y110 E5.52782
G1 X113.94 Y110.32 E5.54498
G1 X106.059 Y110.32 E5.96530
G0 X106.364 Y111.6 F6000
G1 F1200
G1 X106.156 Y110.96 E6.00119
G1 X113.843 Y110.96 E6.41117
G1 X113.635 Y111.6 E6.44706
G1 X106.364 Y111.6 E6.83484
G0 X107.275 Y112.88 F6000
G1 F1200
G1 X106.783 Y112.334 E6.87404
G1 X106.729 Y112.24 E6.87982
G1 X113.27 Y112.24 E7.22868
G1 X113.216 Y112.334 E7.23446
G1 X112.724 Y112.88 E7.27366
G1 X107.275 Y112.88 E7.56427
G0 X109.588 Y113.952 F6000
G1 F1200
G1 X108.771 Y113.779 E7.60881
G1 X108.19 Y113.52 E7.64274
G1 X111.809 Y113.52 E7.83575
G1 X111.228 Y113.779 E7.86968
G1 X110.411 Y113.952 E7.91422
G1 X109.588 Y113.952 E7.95811
G92 E0
G1 Z0.4 F3000
G92 E0
G1 E-5 F2400
M106 S170

;LAYER 1 of 101
G0 X108.533 Y114.506 Z0.38 F6000
G1 E0 F2700
G1 F1200
G1 X107.632 Y114.105 E0.05260
G1 X106.826 Y113.518 E0.10578
G1 X106.165 Y112.783 E0.15850
G1 X105.671 Y111.928 E0.21116
G1 X105.364 Y110.985 E0.26405
G1 X105.261 Y110 E0.31687
G1 X105.364 Y109.011 E0.36990
G1 X105.671 Y108.072 E0.42259
G1 X106.163 Y107.217 E0.47520
G1 X106.828 Y106.478 E0.52822
G1 X107.631 Y105.895 E0.58115
G1 X108.537 Y105.492 E0.63403
G1 X109.503 Y105.287 E0.68670
G1 X110.493 Y105.287 E0.73950
G1 X111.466 Y105.493 E0.79254
G1 X112.369 Y105.895 E0.84526
G1 X113.173 Y106.481 E0.89832
G1 X113.834 Y107.216 E0.95104
G1 X114.328 Y108.071 E1.00371
G1 X114.635 Y109.014 E1.05660
G1 X114.739 Y110 E1.10948
G1 X114.635 Y110.988 E1.16246
G1 X114.328 Y111.927 E1.21515
G1 X113.836 Y112.782 E1.26776
G1 X113.171 Y113.521 E1.32078
G1 X112.367 Y114.105 E1.37378
G1 X111.462 Y114.507 E1.42659
G1 X110.496 Y114.712 E1.47926
G1 X109.506 Y114.712 E1.53206
G1 X108.533 Y114.506 E1.58511
G0 X109.546 Y114.312 F6000
G1 F1200
G1 X108.657 Y114.124 E1.63357
G1 X107.832 Y113.756 E1.68175
G1 X107.095 Y113.22 E1.73035
G1 X106.491 Y112.548 E1.77854
G1 X106.038 Y111.765 E1.82678
G1 X105.758 Y110.904 E1.87507
G1 X105.663 Y109.999 E1.92360
G1 X105.758 Y109.093 E1.97219
G1 X106.037 Y108.239 E2.02010
G1 X106.49 Y107.451 E2.06858
G1 X107.096 Y106.778 E2.11688
G1 X107.834 Y106.242 E2.16553
G1 X108.661 Y105.874 E2.21380
G1 X109.544 Y105.687 E2.26194
G1 X110.453 Y105.687 E2.31042
G1 X111.342 Y105.875 E2.35888
G1 X112.166 Y106.242 E2.40699
G1 X112.906 Y106.781 E2.45582
G1 X113.508 Y107.451 E2.50385
G1 X113.961 Y108.234 E2.55210
G1 X114.241 Y109.096 E2.60044
G1 X114.337 Y110 E2.64892
G1 X114.241 Y110.906 E2.69751
G1 X113.962 Y111.76 E2.74543
G1 X113.509 Y112.548 E2.79390
G1 X112.902 Y113.221 E2.84224
G1 X112.166 Y113.756 E2.89077
G1 X111.335 Y114.125 E2.93926
G1 X110.455 Y114.312 E2.98724
G1 X109.546 Y114.312 E3.03572
G0 X112.88 Y112.648 F6000
G1 F1200
G1 X112.88 Y107.352 E3.31818
G1 X113.183 Y107.689 E3.34235
G1 X113.52 Y108.272 E3.37826
G1 X113.52 Y111.727 E3.56253
G1 X113.186 Y112.308 E3.59827
G1 X112.88 Y112.648 E3.62266
G0 X111.6 Y113.571 F6000
G1 F1200
G1 X111.6 Y106.428 E4.00362
G1 X111.965 Y106.591 E4.02494
G1 X112.24 Y106.792 E4.04311
G1 X112.24 Y113.209 E4.38535
G1 X111.966 Y113.408 E4.40341
G1 X111.6 Y113.571 E4.42478
G0 X110.32 Y113.912 F6000
G1 F1200
G1 X110.32 Y106.087 E4.84211
G1 X110.407 Y106.087 E4.84675
G1 X110.96 Y106.204 E4.87690
G1 X110.96 Y113.795 E5.28175
G1 X110.41 Y113.912 E5.31174
G1 X110.32 Y113.912 E5.31654
G0 X109.592 Y113.912 F6000
G1 F1200
G1 X109.04 Y113.795 E5.34664
G1 X109.04 Y106.204 E5.75149
G1 X109.589 Y106.087 E5.78143
G1 X109.68 Y106.087 E5.78628
G1 X109.68 Y113.912 E6.20361
G1 X109.592 Y113.912 E6.20831
G0 X108.4 Y113.571 F6000
G1 F1200
G1 X108.036 Y113.409 E6.22956
G1 X107.76 Y113.208 E6.24777
G1 X107.76 Y106.789 E6.59011
G1 X108.032 Y106.592 E6.60803
G1 X108.4 Y106.429 E6.62949
G1 X108.4 Y113.571 E7.01040
G0 X107.12 Y112.648 F6000
G1 F1200
G1 X106.816 Y112.31 E7.03464
G1 X106.48 Y111.729 E7.07044
G1 X106.48 Y108.27 E7.25492
G1 X106.813 Y107.691 E7.29054
G1 X107.12 Y107.35 E7.31501
G1 X107.12 Y112.648 E7.59757
G92 E0
G1 Z0.6 F3000
G92 E0
G1 E-5 F2400

;LAYER 2 of 101
G0 X108.547 Y114.469 Z0.58 F6000
G1 E0 F2700
G1 F1200
G1 X107.653 Y114.07 E0.05221
G1 X106.856 Y113.491 E0.10475
G1 X106.196 Y112.76 E0.15728
G1 X105.706 Y111.91 E0.20961
G1 X105.404 Y110.979 E0.26181
G1 X105.301 Y110 E0.31431
G1 X105.404 Y109.02 E0.36686
G1 X105.709 Y108.084 E0.41937
G1 X106.199 Y107.237 E0.47155
G1 X106.855 Y106.509 E0.52382
G1 X107.651 Y105.93 E0.57631
G1 X108.546 Y105.531 E0.62858
G1 X109.51 Y105.326 E0.68114
G1 X110.489 Y105.326 E0.73335
G1 X111.452 Y105.53 E0.78585
G1 X112.348 Y105.929 E0.83816
G1 X113.143 Y106.508 E0.89062
G1 X113.803 Y107.239 E0.94314
G1 X114.293 Y108.089 E0.99547
G1 X114.594 Y109.015 E1.04740
G1 X114.699 Y110 E1.10023
G1 X114.596 Y110.974 E1.15247
G1 X114.29 Y111.915 E1.20524
G1 X113.8 Y112.762 E1.25743
G1 X113.144 Y113.49 E1.30969
G1 X112.349 Y114.069 E1.36215
G1 X111.453 Y114.468 E1.41446
G1 X110.489 Y114.673 E1.46702
G1 X109.51 Y114.673 E1.51923
G1 X108.547 Y114.469 E1.57173
G0 X109.551 Y114.273 F6000
G1 F1200
G1 X108.671 Y114.087 E1.61970
G1 X107.856 Y113.723 E1.66731
G1 X107.124 Y113.191 E1.71557
G1 X106.523 Y112.525 E1.76341
G1 X106.071 Y111.742 E1.81163
G1 X105.798 Y110.899 E1.85889
G1 X105.703 Y110 E1.90710
G1 X105.798 Y109.102 E1.95526
G1 X106.076 Y108.247 E2.00321
G1 X106.523 Y107.475 E2.05079
G1 X107.126 Y106.806 E2.09883
G1 X107.851 Y106.279 E2.14663
G1 X108.67 Y105.913 E2.19447
G1 X109.551 Y105.726 E2.24251
G1 X110.448 Y105.726 E2.29035
G1 X111.328 Y105.912 E2.33832
G1 X112.148 Y106.278 E2.38621
G1 X112.872 Y106.805 E2.43397
G1 X113.476 Y107.474 E2.48204
G1 X113.927 Y108.256 E2.53018
G1 X114.2 Y109.097 E2.57734
G1 X114.297 Y110 E2.62578
G1 X114.202 Y110.893 E2.67367
G1 X113.923 Y111.752 E2.72184
G1 X113.476 Y112.524 E2.76942
G1 X112.873 Y113.193 E2.81745
G1 X112.149 Y113.72 E2.86521
G1 X111.329 Y114.086 E2.91311
G1 X110.448 Y114.273 E2.96114
G1 X109.551 Y114.273 E3.00898
G0 X113.02 Y112.432 F6000
G1 F1200
G1 X109.403 Y106.167 E3.39480
G1 X109.596 Y106.126 E3.40532
G1 X110.403 Y106.126 E3.44836
G1 X111.205 Y106.296 E3.49209
G1 X111.944 Y106.625 E3.53523
G1 X112.605 Y107.107 E3.57886
G1 X113.152 Y107.712 E3.62236
G1 X113.558 Y108.416 E3.66570
G1 X113.808 Y109.185 E3.70883
G1 X113.895 Y109.996 E3.75233
G1 X113.809 Y110.808 E3.79588
G1 X113.555 Y111.589 E3.83968
G1 X113.15 Y112.288 E3.88277
G1 X113.02 Y112.432 E3.89311
G0 X109.596 Y113.873 F6000
G1 F1200
G1 X108.796 Y113.704 E3.93672
G1 X108.053 Y113.372 E3.98012
G1 X107.395 Y112.894 E4.02350
G1 X106.847 Y112.287 E4.06711
G1 X106.441 Y111.583 E4.11046
G1 X106.191 Y110.813 E4.15363
G1 X106.106 Y110 E4.19723
G1 X106.191 Y109.188 E4.24077
G1 X106.445 Y108.409 E4.28447
G1 X106.849 Y107.711 E4.32749
G1 X106.979 Y107.566 E4.33787
G1 X110.596 Y113.832 E4.72374
G1 X110.403 Y113.873 E4.73426
G1 X109.596 Y113.873 E4.77730
G0 X109.596 Y113.873 F6000
G1 F1200
G1 X109.403 Y113.832 E4.78783
G1 X113.021 Y107.567 E5.17367
G1 X113.152 Y107.712 E5.18410
G1 X113.558 Y108.416 E5.22744
G1 X113.808 Y109.185 E5.27056
G1 X113.895 Y109.996 E5.31407
G1 X113.809 Y110.808 E5.35762
G1 X113.555 Y111.589 E5.40142
G1 X113.15 Y112.288 E5.44450
G1 X112.606 Y112.892 E5.48785
G1 X111.945 Y113.373 E5.53145
G1 X111.206 Y113.702 E5.57460
G1 X110.403 Y113.873 E5.61838
G1 X109.596 Y113.873 E5.66142
G0 X106.979 Y112.433 F6000
G1 F1200
G1 X106.847 Y112.287 E5.67192
G1 X106.441 Y111.583 E5.71526
G1 X106.191 Y110.813 E5.75844
G1 X106.106 Y110 E5.80204
G1 X106.191 Y109.188 E5.84558
G1 X106.445 Y108.409 E5.88928
G1 X106.849 Y107.711 E5.93229
G1 X107.393 Y107.107 E5.97565
G1 X108.053 Y106.627 E6.01917
G1 X108.795 Y106.296 E6.06250
G1 X109.596 Y106.126 E6.10617
G1 X110.403 Y106.126 E6.14921
G1 X110.597 Y106.167 E6.15979
G1 X106.979 Y112.433 E6.54568
G0 X109.596 Y113.873 F6000
G1 F1200
G1 X108.796 Y113.704 E6.58929
G1 X108.053 Y113.372 E6.63269
G1 X107.395 Y112.894 E6.67607
G1 X107.309 Y112.799 E6.68290
G1 X112.69 Y112.799 E6.96989
G1 X112.606 Y112.892 E6.97657
G1 X111.945 Y113.373 E7.02017
G1 X111.206 Y113.702 E7.06332
G1 X110.403 Y113.873 E7.10710
G1 X109.596 Y113.873 E7.15014
G0 X106.106 Y110 F6000
G1 F1200
G1 X106.191 Y109.188 E7.19369
G1 X106.445 Y108.409 E7.23739
G1 X106.849 Y107.711 E7.28040
G1 X107.309 Y107.2 E7.31707
G1 X112.689 Y107.2 E7.60400
G1 X113.152 Y107.712 E7.64082
G1 X113.558 Y108.416 E7.68416
G1 X113.808 Y109.185 E7.72729
G1 X113.895 Y109.996 E7.77079
G1 X113.895 Y110 E7.77100
G1 X106.106 Y110 E8.18641
G92 E0
G1 Z0.8 F3000
G92 E0
G1 E-5 F2400

;LAYER 3 of 101
G0 X108.559 Y114.43 Z0.78 F6000
G1 E0 F2700
G1 F1200
G1 X107.67 Y114.034 E0.05190
G1 X106.886 Y113.464 E0.10360
G1 X106.23 Y112.737 E0.15583
G1 X105.744 Y111.897 E0.20758
G1 X105.443 Y110.971 E0.25951
G1 X105.341 Y110.003 E0.31143
G1 X105.443 Y109.031 E0.36355
G1 X105.742 Y108.107 E0.41535
G1 X106.228 Y107.265 E0.46720
G1 X106.881 Y106.539 E0.51928
G1 X107.669 Y105.966 E0.57124
G1 X108.561 Y105.568 E0.62333
G1 X109.513 Y105.366 E0.67524
G1 X110.485 Y105.366 E0.72708
G1 X111.44 Y105.569 E0.77915
G1 X112.327 Y105.964 E0.83093
G1 X113.115 Y106.537 E0.88290
G1 X113.769 Y107.262 E0.93497
G1 X114.255 Y108.102 E0.98673
G1 X114.556 Y109.028 E1.03866
G1 X114.659 Y110.002 E1.09089
G1 X114.556 Y110.968 E1.14271
G1 X114.258 Y111.89 E1.19438
G1 X113.771 Y112.734 E1.24635
G1 X113.119 Y113.459 E1.29836
G1 X112.33 Y114.034 E1.35043
G1 X111.44 Y114.43 E1.40238
G1 X110.486 Y114.633 E1.45440
G1 X109.514 Y114.633 E1.50624
G1 X108.559 Y114.43 E1.55831
G0 X109.555 Y114.233 F6000
G1 F1200
G1 X108.683 Y114.048 E1.60585
G1 X107.873 Y113.687 E1.65315
G1 X107.154 Y113.164 E1.70057
G1 X106.554 Y112.499 E1.74834
G1 X106.111 Y111.734 E1.79548
G1 X105.837 Y110.89 E1.84281
G1 X105.743 Y110.003 E1.89038
G1 X105.837 Y109.115 E1.93800
G1 X106.111 Y108.267 E1.98553
G1 X106.554 Y107.5 E2.03277
G1 X107.147 Y106.84 E2.08009
G1 X107.872 Y106.313 E2.12790
G1 X108.685 Y105.95 E2.17538
G1 X109.554 Y105.766 E2.22276
G1 X110.444 Y105.766 E2.27022
G1 X111.316 Y105.951 E2.31777
G1 X112.124 Y106.311 E2.36494
G1 X112.847 Y106.837 E2.41263
G1 X113.445 Y107.5 E2.46025
G1 X113.888 Y108.265 E2.50739
G1 X114.162 Y109.109 E2.55472
G1 X114.257 Y110.002 E2.60261
G1 X114.163 Y110.884 E2.64992
G1 X113.889 Y111.73 E2.69735
G1 X113.445 Y112.499 E2.74471
G1 X112.852 Y113.158 E2.79199
G1 X112.128 Y113.687 E2.83981
G1 X111.316 Y114.048 E2.88720
G1 X110.445 Y114.233 E2.93469
G1 X109.555 Y114.233 E2.98216
G0 X112.999 Y112.395 F6000
G1 F1200
G1 X109.424 Y106.203 E3.36349
G1 X109.599 Y106.166 E3.37303
G1 X110.399 Y106.166 E3.41570
G1 X111.193 Y106.335 E3.45899
G1 X111.926 Y106.661 E3.50178
G1 X112.576 Y107.134 E3.54465
G1 X113.12 Y107.737 E3.58796
G1 X113.52 Y108.428 E3.63055
G1 X113.769 Y109.194 E3.67350
G1 X113.855 Y110.006 E3.71705
G1 X113.77 Y110.8 E3.75964
G1 X113.524 Y111.562 E3.80235
G1 X113.12 Y112.261 E3.84541
G1 X112.999 Y112.395 E3.85503
G0 X109.6 Y113.833 F6000
G1 F1200
G1 X108.808 Y113.665 E3.89821
G1 X108.069 Y113.336 E3.94136
G1 X107.425 Y112.867 E3.98385
G1 X106.879 Y112.262 E4.02731
G1 X106.479 Y111.571 E4.06989
G1 X106.23 Y110.805 E4.11285
G1 X106.146 Y110.002 E4.15591
G1 X106.23 Y109.195 E4.19918
G1 X106.476 Y108.435 E4.24179
G1 X106.879 Y107.738 E4.28473
G1 X107 Y107.603 E4.29440
G1 X110.576 Y113.796 E4.67580
G1 X110.404 Y113.833 E4.68518
G1 X109.6 Y113.833 E4.72806
G0 X109.6 Y113.833 F6000
G1 F1200
G1 X109.424 Y113.796 E4.73765
G1 X112.999 Y107.603 E5.11903
G1 X113.12 Y107.737 E5.12866
G1 X113.52 Y108.428 E5.17124
G1 X113.769 Y109.194 E5.21420
G1 X113.855 Y110.006 E5.25775
G1 X113.77 Y110.8 E5.30034
G1 X113.524 Y111.562 E5.34304
G1 X113.12 Y112.261 E5.38610
G1 X112.58 Y112.861 E5.42915
G1 X111.926 Y113.338 E5.47232
G1 X111.19 Y113.666 E5.51530
G1 X110.404 Y113.833 E5.55815
G1 X109.6 Y113.833 E5.60103
G0 X107 Y112.396 F6000
G1 F1200
G1 X106.879 Y112.262 E5.61066
G1 X106.479 Y111.571 E5.65325
G1 X106.23 Y110.805 E5.69620
G1 X106.146 Y110.002 E5.73926
G1 X106.23 Y109.195 E5.78254
G1 X106.476 Y108.435 E5.82514
G1 X106.879 Y107.738 E5.86808
G1 X107.421 Y107.135 E5.91132
G1 X108.069 Y106.664 E5.95405
G1 X108.81 Y106.333 E5.99733
G1 X109.599 Y106.166 E6.04034
G1 X110.399 Y106.166 E6.08301
G1 X110.576 Y106.204 E6.09266
G1 X107 Y112.396 E6.47402
G0 X109.6 Y113.833 F6000
G1 F1200
G1 X108.808 Y113.665 E6.51720
G1 X108.069 Y113.336 E6.56034
G1 X107.425 Y112.867 E6.60283
G1 X107.364 Y112.799 E6.60771
G1 X112.636 Y112.799 E6.88888
G1 X112.58 Y112.861 E6.89333
G1 X111.926 Y113.338 E6.93651
G1 X111.19 Y113.666 E6.97948
G1 X110.404 Y113.833 E7.02234
G1 X109.6 Y113.833 E7.06522
G0 X106.146 Y110 F6000
G1 F1200
G1 X106.23 Y109.195 E7.10838
G1 X106.476 Y108.435 E7.15099
G1 X106.879 Y107.738 E7.19393
G1 X107.363 Y107.2 E7.23252
G1 X112.636 Y107.2 E7.51375
G1 X113.12 Y107.737 E7.55231
G1 X113.52 Y108.428 E7.59489
G1 X113.769 Y109.194 E7.63785
G1 X113.854 Y110 E7.68107
G1 X106.146 Y110 E8.09216
G92 E0
G1 Z1 F3000
G92 E0
G1 E-5 F2400

;LAYER 4 of 101
G0 X108.572 Y114.393 Z0.98 F6000
G1 E0 F2700
G1 F1200
G1 X107.693 Y114.001 E0.05133
G1 X106.909 Y113.432 E0.10300
G1 X106.262 Y112.713 E0.15458
G1 X105.78 Y111.878 E0.20600
G1 X105.482 Y110.961 E0.25743
G1 X105.381 Y110.004 E0.30875
