;Generated with Pancakes - © 2019 Lieven Libberecht, William Thenaers

;Setup
M140 S50
M104 S200
M105
M190 S50
M109 S200
M82
G21
M201 X500.0 Y500.0 Z100.0 E5000.0
M203 X500.0 Y500.0 Z10.0 E50.0
M204 P500.0 R1000.0 T500.0
M205 X8.0 Y8.0 Z0.4 E5.0
M220 S100.0
M221 S100.0
G28
G92 E0
G1 Z2.0 F3000
G1 X10.1 Y20.0 Z0.28 F5000
G1 X10.1 Y200.0 Z0.28 E15 F1500
G1 X10.4 Y200.0 Z0.28 F5000
G1 X10.4 Y20.0 Z0.28 E30 F1500
G92 E0
G1 Z2.0 F3000
G92 E0
G1 E-5 F2700
M107
G1 E0 F1500

;Print

;LAYER 0 of 101
M106 S85
G0 X108.522 Y114.544 Z0.18 F6000
G1 E0 F2700
G1 F1200
G1 X107.609 Y114.137 E0.04570
G1 X106.804 Y113.552 E0.09119
G1 X106.132 Y112.807 E0.13705
G1 X105.634 Y111.943 E0.18264
G1 X105.325 Y110.994 E0.22827
G1 X105.221 Y110 E0.27395
G1 X105.325 Y109.005 E0.31969
G1 X105.634 Y108.056 E0.36531
G1 X106.132 Y107.192 E0.41090
G1 X106.804 Y106.447 E0.45677
G1 X107.609 Y105.862 E0.50226
G1 X108.522 Y105.455 E0.54795
G1 X109.502 Y105.247 E0.59375
G1 X110.497 Y105.247 E0.63924
G1 X111.477 Y105.455 E0.68503
G1 X112.388 Y105.861 E0.73063
G1 X113.197 Y106.449 E0.77635
G1 X113.867 Y107.192 E0.82208
G1 X114.365 Y108.056 E0.86767
G1 X114.674 Y109.005 E0.91330
G1 X114.779 Y110.003 E0.95917
G1 X114.674 Y110.994 E1.00473
G1 X114.365 Y111.943 E1.05035
G1 X113.867 Y112.807 E1.09594
G1 X113.197 Y113.55 E1.14168
G1 X112.388 Y114.138 E1.18740
G1 X111.477 Y114.544 E1.23299
G1 X110.497 Y114.752 E1.27879
G1 X109.502 Y114.752 E1.32427
G1 X108.522 Y114.544 E1.37007
G0 X109.543 Y114.352 F6000
G1 F1200
G1 X108.646 Y114.162 E1.41199
G1 X107.812 Y113.79 E1.45373
G1 X107.072 Y113.252 E1.49556
G1 X106.459 Y112.572 E1.53741
G1 X106 Y111.776 E1.57942
G1 X105.719 Y110.913 E1.62091
G1 X105.623 Y110 E1.66287
G1 X105.719 Y109.086 E1.70489
G1 X106 Y108.223 E1.74638
G1 X106.459 Y107.427 E1.78838
G1 X107.072 Y106.747 E1.83023
G1 X107.812 Y106.209 E1.87206
G1 X108.646 Y105.837 E1.91380
G1 X109.543 Y105.647 E1.95572
G1 X110.456 Y105.647 E1.99746
G1 X111.353 Y105.837 E2.03937
G1 X112.185 Y106.208 E2.08102
G1 X112.929 Y106.749 E2.12307
G1 X113.54 Y107.427 E2.16479
G1 X113.999 Y108.223 E2.20680
G1 X114.28 Y109.086 E2.24829
G1 X114.377 Y110.003 E2.29044
G1 X114.28 Y110.912 E2.33223
G1 X113.999 Y111.776 E2.37376
G1 X113.54 Y112.572 E2.41577
G1 X112.929 Y113.25 E2.45749
G1 X112.185 Y113.791 E2.49954
G1 X111.353 Y114.162 E2.54119
G1 X110.456 Y114.352 E2.58310
G1 X109.543 Y114.352 E2.62484
G0 X108.188 Y106.48 F6000
G1 F1200
G1 X108.771 Y106.22 E2.65402
G1 X109.588 Y106.047 E2.69220
G1 X110.411 Y106.047 E2.72982
G1 X111.228 Y106.22 E2.76800
G1 X111.812 Y106.48 E2.79722
G1 X108.188 Y106.48 E2.96289
G0 X106.728 Y107.76 F6000
G1 F1200
G1 X106.783 Y107.665 E2.96791
G1 X107.274 Y107.12 E3.00144
G1 X112.725 Y107.12 E3.25063
G1 X113.216 Y107.665 E3.28417
G1 X113.271 Y107.76 E3.28918
G1 X106.728 Y107.76 E3.58829
G0 X106.155 Y109.04 F6000
G1 F1200
G1 X106.364 Y108.4 E3.61907
G1 X113.635 Y108.4 E3.95146
G1 X113.844 Y109.04 E3.98224
G1 X106.155 Y109.04 E4.33373
G0 X106.059 Y110.32 F6000
G1 F1200
G1 X106.026 Y110 E4.34844
G1 X106.059 Y109.68 E4.36315
G1 X113.94 Y109.68 E4.72342
G1 X113.974 Y110 E4.73813
G1 X113.94 Y110.32 E4.75284
G1 X106.059 Y110.32 E5.11312
G0 X106.364 Y111.6 F6000
G1 F1200
G1 X106.156 Y110.96 E5.14388
G1 X113.843 Y110.96 E5.49529
G1 X113.635 Y111.6 E5.52605
G1 X106.364 Y111.6 E5.85844
G0 X107.275 Y112.88 F6000
G1 F1200
G1 X106.783 Y112.334 E5.89204
G1 X106.729 Y112.24 E5.89699
G1 X113.27 Y112.24 E6.19601
G1 X113.216 Y112.334 E6.20096
G1 X112.724 Y112.88 E6.23456
G1 X107.275 Y112.88 E6.48366
G0 X109.588 Y113.952 F6000
G1 F1200
G1 X108.771 Y113.779 E6.52184
G1 X108.19 Y113.52 E6.55092
G1 X111.809 Y113.52 E6.71636
G1 X111.228 Y113.779 E6.74544
G1 X110.411 Y113.952 E6.78361
G1 X109.588 Y113.952 E6.82124
G92 E0
G1 Z0.4 F3000
G92 E0
G1 E-5 F2400
M106 S170

;LAYER 1 of 101
G0 X108.533 Y114.506 Z0.38 F6000
G1 E0 F2700
G1 F1200
G1 X107.632 Y114.105 E0.04508
G1 X106.826 Y113.518 E0.09067
G1 X106.165 Y112.783 E0.13585
G1 X105.671 Y111.928 E0.18099
G1 X105.364 Y110.985 E0.22633
G1 X105.261 Y110 E0.27160
G1 X105.364 Y109.011 E0.31706
G1 X105.671 Y108.072 E0.36222
G1 X106.163 Y107.217 E0.40732
G1 X106.828 Y106.478 E0.45276
G1 X107.631 Y105.895 E0.49813
G1 X108.537 Y105.492 E0.54346
G1 X109.503 Y105.287 E0.58860
G1 X110.493 Y105.287 E0.63386
G1 X111.466 Y105.493 E0.67932
G1 X112.369 Y105.895 E0.72451
G1 X113.173 Y106.481 E0.76999
G1 X113.834 Y107.216 E0.81518
G1 X114.328 Y108.071 E0.86032
G1 X114.635 Y109.014 E0.90566
G1 X114.739 Y110 E0.95098
G1 X114.635 Y110.988 E0.99639
G1 X114.328 Y111.927 E1.04156
G1 X113.836 Y112.782 E1.08665
G1 X113.171 Y113.521 E1.13210
G1 X112.367 Y114.105 E1.17753
G1 X111.462 Y114.507 E1.22280
G1 X110.496 Y114.712 E1.26794
G1 X109.506 Y114.712 E1.31320
G1 X108.533 Y114.506 E1.35866
G0 X109.546 Y114.312 F6000
G1 F1200
G1 X108.657 Y114.124 E1.40020
G1 X107.832 Y113.756 E1.44150
G1 X107.095 Y113.22 E1.48316
G1 X106.491 Y112.548 E1.52446
G1 X106.038 Y111.765 E1.56581
G1 X105.758 Y110.904 E1.60720
G1 X105.663 Y109.999 E1.64880
G1 X105.758 Y109.093 E1.69045
G1 X106.037 Y108.239 E1.73152
G1 X106.49 Y107.451 E1.77307
G1 X107.096 Y106.778 E1.81447
G1 X107.834 Y106.242 E1.85616
G1 X108.661 Y105.874 E1.89754
G1 X109.544 Y105.687 E1.93880
G1 X110.453 Y105.687 E1.98036
G1 X111.342 Y105.875 E2.02190
G1 X112.166 Y106.242 E2.06313
G1 X112.906 Y106.781 E2.10498
G1 X113.508 Y107.451 E2.14616
G1 X113.961 Y108.234 E2.18751
G1 X114.241 Y109.096 E2.22895
G1 X114.337 Y110 E2.27050
G1 X114.241 Y110.906 E2.31215
G1 X113.962 Y111.76 E2.35322
G1 X113.509 Y112.548 E2.39478
G1 X112.902 Y113.221 E2.43621
G1 X112.166 Y113.756 E2.47780
G1 X111.335 Y114.125 E2.51937
G1 X110.455 Y114.312 E2.56049
G1 X109.546 Y114.312 E2.60205
G0 X112.88 Y112.648 F6000
G1 F1200
G1 X112.88 Y107.352 E2.84415
G1 X113.183 Y107.689 E2.86487
G1 X113.52 Y108.272 E2.89565
G1 X113.52 Y111.727 E3.05359
G1 X113.186 Y112.308 E3.08423
G1 X112.88 Y112.648 E3.10514
G0 X111.6 Y113.571 F6000
G1 F1200
G1 X111.6 Y106.428 E3.43168
G1 X111.965 Y106.591 E3.44995
G1 X112.24 Y106.792 E3.46552
G1 X112.24 Y113.209 E3.75887
G1 X111.966 Y113.408 E3.77435
G1 X111.6 Y113.571 E3.79267
G0 X110.32 Y113.912 F6000
G1 F1200
G1 X110.32 Y106.087 E4.15038
G1 X110.407 Y106.087 E4.15436
G1 X110.96 Y106.204 E4.18020
G1 X110.96 Y113.795 E4.52722
G1 X110.41 Y113.912 E4.55292
G1 X110.32 Y113.912 E4.55704
G0 X109.592 Y113.912 F6000
G1 F1200
G1 X109.04 Y113.795 E4.58283
G1 X109.04 Y106.204 E4.92985
G1 X109.589 Y106.087 E4.95551
G1 X109.68 Y106.087 E4.95967
G1 X109.68 Y113.912 E5.31738
G1 X109.592 Y113.912 E5.32141
G0 X108.4 Y113.571 F6000
G1 F1200
G1 X108.036 Y113.409 E5.33962
G1 X107.76 Y113.208 E5.35523
G1 X107.76 Y106.789 E5.64867
G1 X108.032 Y106.592 E5.66402
G1 X108.4 Y106.429 E5.68242
G1 X108.4 Y113.571 E6.00891
G0 X107.12 Y112.648 F6000
G1 F1200
G1 X106.816 Y112.31 E6.02969
G1 X106.48 Y111.729 E6.06038
G1 X106.48 Y108.27 E6.21850
G1 X106.813 Y107.691 E6.24904
G1 X107.12 Y107.35 E6.27001
G1 X107.12 Y112.648 E6.51220
G92 E0
G1 Z0.6 F3000
G92 E0
G1 E-5 F2400

;LAYER 2 of 101
G0 X108.547 Y114.469 Z0.58 F6000
G1 E0 F2700
G1 F1200
G1 X107.653 Y114.07 E0.04475
G1 X106.856 Y113.491 E0.08979
G1 X106.196 Y112.76 E0.13481
G1 X105.706 Y111.91 E0.17966
G1 X105.404 Y110.979 E0.22440
G1 X105.301 Y110 E0.26941
G1 X105.404 Y109.02 E0.31445
G1 X105.709 Y108.084 E0.35946
G1 X106.199 Y107.237 E0.40419
G1 X106.855 Y106.509 E0.44899
G1 X107.651 Y105.93 E0.49398
G1 X108.546 Y105.531 E0.53878
G1 X109.51 Y105.326 E0.58383
G1 X110.489 Y105.326 E0.62859
G1 X111.452 Y105.53 E0.67359
G1 X112.348 Y105.929 E0.71843
G1 X113.143 Y106.508 E0.76338
G1 X113.803 Y107.239 E0.80841
G1 X114.293 Y108.089 E0.85326
G1 X114.594 Y109.015 E0.89777
G1 X114.699 Y110 E0.94305
G1 X114.596 Y110.974 E0.98783
G1 X114.29 Y111.915 E1.03306
G1 X113.8 Y112.762 E1.07779
G1 X113.144 Y113.49 E1.12259
G1 X112.349 Y114.069 E1.16755
G1 X111.453 Y114.468 E1.21239
G1 X110.489 Y114.673 E1.25744
G1 X109.51 Y114.673 E1.30220
G1 X108.547 Y114.469 E1.34720
G0 X109.551 Y114.273 F6000
G1 F1200
G1 X108.671 Y114.087 E1.38832
G1 X107.856 Y113.723 E1.42912
G1 X107.124 Y113.191 E1.47049
G1 X106.523 Y112.525 E1.51150
G1 X106.071 Y111.742 E1.55283
G1 X105.798 Y110.899 E1.59333
G1 X105.703 Y110 E1.63466
G1 X105.798 Y109.102 E1.67594
G1 X106.076 Y108.247 E1.71704
G1 X106.523 Y107.475 E1.75782
G1 X107.126 Y106.806 E1.79899
G1 X107.851 Y106.279 E1.83997
G1 X108.67 Y105.913 E1.88098
G1 X109.551 Y105.726 E1.92215
G1 X110.448 Y105.726 E1.96315
G1 X111.328 Y105.912 E2.00427
G1 X112.148 Y106.278 E2.04532
G1 X112.872 Y106.805 E2.08626
G1 X113.476 Y107.474 E2.12746
G1 X113.927 Y108.256 E2.16873
G1 X114.2 Y109.097 E2.20915
G1 X114.297 Y110 E2.25067
G1 X114.202 Y110.893 E2.29172
G1 X113.923 Y111.752 E2.33301
G1 X113.476 Y112.524 E2.37379
G1 X112.873 Y113.193 E2.41496
G1 X112.149 Y113.72 E2.45590
G1 X111.329 Y114.086 E2.49695
G1 X110.448 Y114.273 E2.53812
G1 X109.551 Y114.273 E2.57912
G0 X113.02 Y112.432 F6000
G1 F1200
G1 X109.403 Y106.167 E2.90983
G1 X109.596 Y106.126 E2.91885
G1 X110.403 Y106.126 E2.95574
G1 X111.205 Y106.296 E2.99322
G1 X111.944 Y106.625 E3.03020
G1 X112.605 Y107.107 E3.06759
G1 X113.152 Y107.712 E3.10488
G1 X113.558 Y108.416 E3.14203
G1 X113.808 Y109.185 E3.17900
G1 X113.895 Y109.996 E3.21628
G1 X113.809 Y110.808 E3.25361
G1 X113.555 Y111.589 E3.29115
G1 X113.15 Y112.288 E3.32809
G1 X113.02 Y112.432 E3.33695
G0 X109.596 Y113.873 F6000
G1 F1200
G1 X108.796 Y113.704 E3.37433
G1 X108.053 Y113.372 E3.41153
G1 X107.395 Y112.894 E3.44871
G1 X106.847 Y112.287 E3.48610
G1 X106.441 Y111.583 E3.52325
G1 X106.191 Y110.813 E3.56026
G1 X106.106 Y110 E3.59763
G1 X106.191 Y109.188 E3.63495
G1 X106.445 Y108.409 E3.67241
G1 X106.849 Y107.711 E3.70927
G1 X106.979 Y107.566 E3.71818
G1 X110.596 Y113.832 E4.04892
G1 X110.403 Y113.873 E4.05794
G1 X109.596 Y113.873 E4.09483
G0 X109.596 Y113.873 F6000
G1 F1200
G1 X109.403 Y113.832 E4.10385
G1 X113.021 Y107.567 E4.43458
G1 X113.152 Y107.712 E4.44351
G1 X113.558 Y108.416 E4.48066
G1 X113.808 Y109.185 E4.51763
G1 X113.895 Y109.996 E4.55491
G1 X113.809 Y110.808 E4.59224
G1 X113.555 Y111.589 E4.62979
G1 X113.15 Y112.288 E4.66672
G1 X112.606 Y112.892 E4.70388
G1 X111.945 Y113.373 E4.74125
G1 X111.206 Y113.702 E4.77823
G1 X110.403 Y113.873 E4.81576
G1 X109.596 Y113.873 E4.85265
G0 X106.979 Y112.433 F6000
G1 F1200
G1 X106.847 Y112.287 E4.86165
G1 X106.441 Y111.583 E4.89880
G1 X106.191 Y110.813 E4.93581
G1 X106.106 Y110 E4.97317
G1 X106.191 Y109.188 E5.01050
G1 X106.445 Y108.409 E5.04795
G1 X106.849 Y107.711 E5.08482
G1 X107.393 Y107.107 E5.12198
G1 X108.053 Y106.627 E5.15929
G1 X108.795 Y106.296 E5.19643
G1 X109.596 Y106.126 E5.23386
G1 X110.403 Y106.126 E5.27075
G1 X110.597 Y106.167 E5.27982
G1 X106.979 Y112.433 E5.61059
G0 X109.596 Y113.873 F6000
G1 F1200
G1 X108.796 Y113.704 E5.64796
G1 X108.053 Y113.372 E5.68517
G1 X107.395 Y112.894 E5.72235
G1 X107.309 Y112.799 E5.72820
G1 X112.69 Y112.799 E5.97419
G1 X112.606 Y112.892 E5.97992
G1 X111.945 Y113.373 E6.01729
G1 X111.206 Y113.702 E6.05427
G1 X110.403 Y113.873 E6.09180
G1 X109.596 Y113.873 E6.12869
G0 X106.106 Y110 F6000
G1 F1200
G1 X106.191 Y109.188 E6.16602
G1 X106.445 Y108.409 E6.20347
G1 X106.849 Y107.711 E6.24034
G1 X107.309 Y107.2 E6.27177
G1 X112.689 Y107.2 E6.51772
G1 X113.152 Y107.712 E6.54927
G1 X113.558 Y108.416 E6.58642
G1 X113.808 Y109.185 E6.62339
G1 X113.895 Y109.996 E6.66068
G1 X113.895 Y110 E6.66086
G1 X106.106 Y110 E7.01693
G92 E0
G1 Z0.8 F3000
G92 E0
G1 E-5 F2400

;LAYER 3 of 101
G0 X108.559 Y114.43 Z0.78 F6000
G1 E0 F2700
G1 F1200
G1 X107.67 Y114.034 E0.04449
G1 X106.886 Y113.464 E0.08880
G1 X106.23 Y112.737 E0.13356
G1 X105.744 Y111.897 E0.17793
G1 X105.443 Y110.971 E0.22244
G1 X105.341 Y110.003 E0.26694
G1 X105.443 Y109.031 E0.31162
G1 X105.742 Y108.107 E0.35601
G1 X106.228 Y107.265 E0.40045
G1 X106.881 Y106.539 E0.44509
G1 X107.669 Y105.966 E0.48963
G1 X108.561 Y105.568 E0.53429
G1 X109.513 Y105.366 E0.57877
G1 X110.485 Y105.366 E0.62321
G1 X111.44 Y105.569 E0.66784
G1 X112.327 Y105.964 E0.71223
G1 X113.115 Y106.537 E0.75677
G1 X113.769 Y107.262 E0.80140
G1 X114.255 Y108.102 E0.84577
G1 X114.556 Y109.028 E0.89028
G1 X114.659 Y110.002 E0.93505
G1 X114.556 Y110.968 E0.97946
G1 X114.258 Y111.89 E1.02376
G1 X113.771 Y112.734 E1.06830
G1 X113.119 Y113.459 E1.11288
G1 X112.33 Y114.034 E1.15751
G1 X111.44 Y114.43 E1.20204
G1 X110.486 Y114.633 E1.24663
G1 X109.514 Y114.633 E1.29106
G1 X108.559 Y114.43 E1.33569
G0 X109.555 Y114.233 F6000
G1 F1200
G1 X108.683 Y114.048 E1.37644
G1 X107.873 Y113.687 E1.41698
G1 X107.154 Y113.164 E1.45763
G1 X106.554 Y112.499 E1.49857
G1 X106.111 Y111.734 E1.53898
G1 X105.837 Y110.89 E1.57955
G1 X105.743 Y110.003 E1.62033
G1 X105.837 Y109.115 E1.66115
G1 X106.111 Y108.267 E1.70189
G1 X106.554 Y107.5 E1.74238
G1 X107.147 Y106.84 E1.78294
G1 X107.872 Y106.313 E1.82391
G1 X108.685 Y105.95 E1.86461
G1 X109.554 Y105.766 E1.90522
G1 X110.444 Y105.766 E1.94591
G1 X111.316 Y105.951 E1.98666
G1 X112.124 Y106.311 E2.02709
G1 X112.847 Y106.837 E2.06797
G1 X113.445 Y107.5 E2.10878
G1 X113.888 Y108.265 E2.14919
G1 X114.162 Y109.109 E2.18976
G1 X114.257 Y110.002 E2.23081
G1 X114.163 Y110.884 E2.27136
G1 X113.889 Y111.73 E2.31201
G1 X113.445 Y112.499 E2.35261
G1 X112.852 Y113.158 E2.39313
G1 X112.128 Y113.687 E2.43412
G1 X111.316 Y114.048 E2.47475
G1 X110.445 Y114.233 E2.51545
G1 X109.555 Y114.233 E2.55614
G0 X112.999 Y112.395 F6000
G1 F1200
G1 X109.424 Y106.203 E2.88299
G1 X109.599 Y106.166 E2.89117
G1 X110.399 Y106.166 E2.92774
G1 X111.193 Y106.335 E2.96485
G1 X111.926 Y106.661 E3.00152
G1 X112.576 Y107.134 E3.03827
G1 X113.12 Y107.737 E3.07540
G1 X113.52 Y108.428 E3.11190
G1 X113.769 Y109.194 E3.14872
G1 X113.855 Y110.006 E3.18605
G1 X113.77 Y110.8 E3.22255
G1 X113.524 Y111.562 E3.25915
G1 X113.12 Y112.261 E3.29606
G1 X112.999 Y112.395 E3.30432
G0 X109.6 Y113.833 F6000
G1 F1200
G1 X108.808 Y113.665 E3.34133
G1 X108.069 Y113.336 E3.37831
G1 X107.425 Y112.867 E3.41473
G1 X106.879 Y112.262 E3.45198
G1 X106.479 Y111.571 E3.48848
G1 X106.23 Y110.805 E3.52530
G1 X106.146 Y110.002 E3.56221
G1 X106.23 Y109.195 E3.59930
G1 X106.476 Y108.435 E3.63582
G1 X106.879 Y107.738 E3.67262
G1 X107 Y107.603 E3.68091
G1 X110.576 Y113.796 E4.00783
G1 X110.404 Y113.833 E4.01587
G1 X109.6 Y113.833 E4.05262
G0 X109.6 Y113.833 F6000
G1 F1200
G1 X109.424 Y113.796 E4.06085
G1 X112.999 Y107.603 E4.38774
G1 X113.12 Y107.737 E4.39599
G1 X113.52 Y108.428 E4.43249
G1 X113.769 Y109.194 E4.46931
G1 X113.855 Y110.006 E4.50664
G1 X113.77 Y110.8 E4.54315
G1 X113.524 Y111.562 E4.57975
G1 X113.12 Y112.261 E4.61666
G1 X112.58 Y112.861 E4.65356
G1 X111.926 Y113.338 E4.69056
G1 X111.19 Y113.666 E4.72740
G1 X110.404 Y113.833 E4.76413
G1 X109.6 Y113.833 E4.80089
G0 X107 Y112.396 F6000
G1 F1200
G1 X106.879 Y112.262 E4.80914
G1 X106.479 Y111.571 E4.84564
G1 X106.23 Y110.805 E4.88246
G1 X106.146 Y110.002 E4.91937
G1 X106.23 Y109.195 E4.95646
G1 X106.476 Y108.435 E4.99298
G1 X106.879 Y107.738 E5.02978
G1 X107.421 Y107.135 E5.06685
G1 X108.069 Y106.664 E5.10347
G1 X108.81 Y106.333 E5.14057
G1 X109.599 Y106.166 E5.17744
G1 X110.399 Y106.166 E5.21401
G1 X110.576 Y106.204 E5.22228
G1 X107 Y112.396 E5.54916
G0 X109.6 Y113.833 F6000
G1 F1200
G1 X108.808 Y113.665 E5.58617
G1 X108.069 Y113.336 E5.62315
G1 X107.425 Y112.867 E5.65957
G1 X107.364 Y112.799 E5.66375
G1 X112.636 Y112.799 E5.90475
G1 X112.58 Y112.861 E5.90857
G1 X111.926 Y113.338 E5.94558
G1 X111.19 Y113.666 E5.98241
G1 X110.404 Y113.833 E6.01915
G1 X109.6 Y113.833 E6.05590
G0 X106.146 Y110 F6000
G1 F1200
G1 X106.23 Y109.195 E6.09290
G1 X106.476 Y108.435 E6.12942
G1 X106.879 Y107.738 E6.16622
G1 X107.363 Y107.2 E6.19931
G1 X112.636 Y107.2 E6.44036
G1 X113.12 Y107.737 E6.47340
G1 X113.52 Y108.428 E6.50990
G1 X113.769 Y109.194 E6.54672
G1 X113.854 Y110 E6.58377
G1 X106.146 Y110 E6.93614
G92 E0
G1 Z1 F3000
G92 E0
G1 E-5 F2400

;LAYER 4 of 101
G0 X108.572 Y114.393 Z0.98 F6000
G1 E0 F2700
G1 F1200
G1 X107.693 Y114.001 E0.04400
G1 X106.909 Y113.432 E0.08828
G1 X106.262 Y112.713 E0.13250
G1 X105.78 Y111.878 E0.17657
G1 X105.482 Y110.961 E0.22065
G1 X105.381 Y110.004 E0.26464
