;Generated with Pancakes - © 2019 Lieven Libberecht, William Thenaers

;Setup
M140 S50
M104 S200
M105
M190 S50
M109 S200
M82
G21
M201 X500.0 Y500.0 Z100.0 E5000.0
M203 X500.0 Y500.0 Z10.0 E50.0
M204 P500.0 R1000.0 T500.0
M205 X8.0 Y8.0 Z0.4 E5.0
M220 S100.0
M221 S100.0
G28
G92 E0
G1 Z2.0 F3000
G1 X10.1 Y20.0 Z0.28 F5000
G1 X10.1 Y200.0 Z0.28 E15 F1500
G1 X10.4 Y200.0 Z0.28 F5000
G1 X10.4 Y20.0 Z0.28 E30 F1500
G92 E0
G1 Z2.0 F3000
G92 E0
G92 E0
G1 E-5 F2700
M107
G1 E0 F1500

;Print

;LAYER 0 of 110
M107
G1 E0 F2700
G0 X120.136 Y117.426 Z0.18 F6000
G1 F1200
G1 X110.672 Y116.504 E0.28731
G1 X110.093 Y108.859 E0.51896
G1 X120.136 Y106.313 E0.83201
G1 X120.136 Y117.426 E1.16779
G0 X119.756 Y117.007 F6000
G1 F1200
G1 X111.026 Y116.157 E1.43281
G1 X110.496 Y109.149 E1.64516
G1 X119.756 Y106.801 E1.93381
G1 X119.756 Y117.007 E2.24218
G0 X115.576 Y112.4 F6000
G1 F1200
G1 X114.929 Y112.337 E2.26182
G1 X115.576 Y112.173 E2.28199
G1 X115.576 Y112.4 E2.28885
G0 X110.034 Y101.25 F6000
G1 F1200
G1 X102.88 Y108.403 E2.59452
G1 X102.88 Y108.175 E2.60141
G1 X102.912 Y108.167 E2.60240
G1 X102.912 Y107.847 E2.61207
G1 X102.944 Y107.839 E2.61307
G1 X102.944 Y107.512 E2.62295
G1 X102.975 Y107.504 E2.62392
G1 X102.975 Y107.193 E2.63331
G1 X103.007 Y107.185 E2.63431
G1 X103.007 Y106.865 E2.64398
G1 X103.039 Y106.857 E2.64498
G1 X103.039 Y106.538 E2.65461
G1 X103.071 Y106.53 E2.65561
G1 X103.071 Y106.202 E2.66552
G1 X103.102 Y106.194 E2.66649
G1 X103.102 Y105.883 E2.67589
G1 X103.134 Y105.875 E2.67688
G1 X103.134 Y105.555 E2.68655
G1 X103.166 Y105.547 E2.68755
G1 X103.166 Y105.22 E2.69743
G1 X103.197 Y105.212 E2.69840
G1 X103.197 Y104.9 E2.70782
G1 X103.229 Y104.892 E2.70882
G1 X103.229 Y104.573 E2.71846
G1 X103.261 Y104.565 E2.71945
G1 X103.261 Y104.237 E2.72936
G1 X103.292 Y104.229 E2.73033
G1 X103.292 Y104.031 E2.73631
G1 X106.089 Y101.235 E2.85581
G1 X106.248 Y101.25 E2.86064
G1 X106.594 Y101.162 E2.87142
G1 X107.51 Y101.25 E2.89923
G1 X107.862 Y101.162 E2.91019
G1 X108.772 Y101.25 E2.93781
G1 X109.119 Y101.162 E2.94863
G1 X110.034 Y101.25 E2.97640
G0 X115.562 Y101.175 F6000
G1 F1200
G1 X115.562 Y101.373 E2.98239
G1 X115.53 Y101.381 E2.98338
G1 X115.53 Y101.701 E2.99305
G1 X115.498 Y101.709 E2.99405
G1 X115.498 Y102.036 E3.00393
G1 X115.467 Y102.044 E3.00490
G1 X115.467 Y102.356 E3.01432
G1 X115.435 Y102.364 E3.01532
G1 X115.435 Y102.683 E3.02496
G1 X115.403 Y102.691 E3.02596
G1 X115.403 Y103.019 E3.03587
G1 X115.372 Y103.027 E3.03683
G1 X115.372 Y103.338 E3.04623
G1 X115.34 Y103.346 E3.04723
G1 X115.34 Y103.666 E3.05690
G1 X115.308 Y103.674 E3.05789
G1 X115.308 Y103.894 E3.06454
G1 X107.219 Y111.984 E3.41021
G1 X103.603 Y111.64 E3.51996
G1 X114.05 Y101.193 E3.96636
G1 X114.171 Y101.163 E3.97013
G1 X115.087 Y101.25 E3.99793
G1 X115.433 Y101.162 E4.00872
G1 X115.562 Y101.175 E4.01263
G0 X114.928 Y108.245 F6000
G1 F1200
G1 X114.914 Y108.249 E4.01307
G1 X114.928 Y108.234 E4.01369
G1 X114.928 Y108.245 E4.01403
G0 X114.865 Y108.578 F6000
G1 F1200
G1 X114.833 Y108.586 E4.01502
G1 X114.833 Y108.906 E4.02469
G1 X114.801 Y108.914 E4.02569
G1 X114.801 Y109.241 E4.03557
G1 X114.77 Y109.249 E4.03654
G1 X114.77 Y109.561 E4.04596
G1 X114.738 Y109.569 E4.04696
G1 X114.738 Y109.888 E4.05660
G1 X114.706 Y109.896 E4.05759
G1 X114.706 Y110.224 E4.06750
G1 X114.675 Y110.232 E4.06847
G1 X114.675 Y110.543 E4.07787
G1 X114.559 Y110.572 E4.08148
G1 X114.655 Y111.906 E4.12189
G1 X114.599 Y112.523 E4.14061
G1 X114.45 Y112.672 E4.14698
G1 X110.834 Y112.328 E4.25673
G1 X114.865 Y108.297 E4.42898
G1 X114.865 Y108.578 E4.43747
G92 E0
G1 Z0.4 F3000
G92 E0
G1 E-5 F2400
M106 S255

;LAYER 1 of 110
G1 E0 F2700
G0 X115.408 Y112.305 Z0.38 F6000
G1 F1200
G1 X114.831 Y112.249 E0.01752
G1 X115.408 Y112.103 E0.03550
G1 X115.408 Y112.305 E0.04160
G0 X110.034 Y101.25 F6000
G1 F1200
G1 X102.88 Y108.403 E0.34727
G1 X102.88 Y108.175 E0.35416
G1 X102.912 Y108.167 E0.35516
G1 X102.912 Y107.847 E0.36483
G1 X102.944 Y107.839 E0.36583
G1 X102.944 Y107.512 E0.37571
G1 X102.975 Y107.504 E0.37667
G1 X102.975 Y107.193 E0.38607
G1 X103.007 Y107.185 E0.38707
G1 X103.007 Y106.865 E0.39674
G1 X103.039 Y106.857 E0.39773
G1 X103.039 Y106.538 E0.40737
G1 X103.071 Y106.53 E0.40837
G1 X103.071 Y106.202 E0.41828
G1 X103.102 Y106.194 E0.41924
G1 X103.102 Y105.883 E0.42864
G1 X103.134 Y105.875 E0.42964
G1 X103.134 Y105.555 E0.43931
G1 X103.166 Y105.547 E0.44030
G1 X103.166 Y105.22 E0.45018
G1 X103.197 Y105.212 E0.45115
G1 X103.197 Y104.9 E0.46058
G1 X103.229 Y104.892 E0.46157
G1 X103.229 Y104.573 E0.47121
G1 X103.261 Y104.565 E0.47221
G1 X103.261 Y104.237 E0.48212
G1 X103.292 Y104.229 E0.48309
G1 X103.292 Y104.031 E0.48907
G1 X106.089 Y101.235 E0.60857
G1 X106.248 Y101.25 E0.61339
G1 X106.594 Y101.162 E0.62418
G1 X107.51 Y101.25 E0.65198
G1 X107.862 Y101.162 E0.66295
G1 X108.772 Y101.25 E0.69057
G1 X109.119 Y101.162 E0.70139
G1 X110.034 Y101.25 E0.72916
G0 X115.562 Y101.175 F6000
G1 F1200
G1 X115.562 Y101.373 E0.73514
G1 X115.53 Y101.381 E0.73614
G1 X115.53 Y101.701 E0.74581
G1 X115.498 Y101.709 E0.74680
G1 X115.498 Y102.036 E0.75669
G1 X115.467 Y102.044 E0.75765
G1 X115.467 Y102.356 E0.76708
G1 X115.435 Y102.364 E0.76808
G1 X115.435 Y102.683 E0.77771
G1 X115.403 Y102.691 E0.77871
G1 X115.403 Y103.019 E0.78862
G1 X115.372 Y103.027 E0.78959
G1 X115.372 Y103.338 E0.79899
G1 X115.34 Y103.346 E0.79998
G1 X115.34 Y103.666 E0.80965
G1 X115.308 Y103.674 E0.81065
G1 X115.308 Y103.894 E0.81730
G1 X107.219 Y111.984 E1.16296
G1 X103.603 Y111.64 E1.27271
G1 X114.05 Y101.193 E1.71912
G1 X114.171 Y101.163 E1.72288
G1 X115.087 Y101.25 E1.75068
G1 X115.433 Y101.162 E1.76147
G1 X115.562 Y101.175 E1.76539
G0 X114.928 Y108.245 F6000
G1 F1200
G1 X114.914 Y108.249 E1.76583
G1 X114.928 Y108.234 E1.76645
G1 X114.928 Y108.245 E1.76678
G0 X114.865 Y108.578 F6000
G1 F1200
G1 X114.833 Y108.586 E1.76778
G1 X114.833 Y108.906 E1.77745
G1 X114.801 Y108.914 E1.77844
G1 X114.801 Y109.241 E1.78832
G1 X114.77 Y109.249 E1.78929
G1 X114.77 Y109.561 E1.79872
G1 X114.738 Y109.569 E1.79971
G1 X114.738 Y109.888 E1.80935
G1 X114.706 Y109.896 E1.81035
G1 X114.706 Y110.224 E1.82026
G1 X114.675 Y110.232 E1.82123
G1 X114.675 Y110.543 E1.83062
G1 X114.559 Y110.572 E1.83424
G1 X114.655 Y111.906 E1.87465
G1 X114.599 Y112.523 E1.89337
G1 X114.45 Y112.672 E1.89973
G1 X110.834 Y112.328 E2.00948
G1 X114.865 Y108.297 E2.18173
G1 X114.865 Y108.578 E2.19022
G92 E0
G1 Z0.6 F3000
G92 E0
G1 E-5 F2400

;LAYER 2 of 110
G1 E0 F2700
G0 X115.44 Y112.43 Z0.58 F6000
G1 F1200
G1 X113.568 Y112.249 E0.05683
G1 X115.44 Y111.775 E0.11517
G1 X115.44 Y112.43 E0.13496
G0 X114.874 Y112.036 F6000
G1 F1200
G1 X114.669 Y112.241 E0.14372
G0 X115.159 Y112.289 F6000
G1 F1200
G1 X115.326 Y112.122 E0.15086
G0 X114.865 Y108.578 F6000
G1 F1200
G1 X114.833 Y108.586 E0.15186
G1 X114.833 Y108.906 E0.16153
G1 X114.801 Y108.914 E0.16252
G1 X114.801 Y109.241 E0.17240
G1 X114.77 Y109.249 E0.17337
G1 X114.77 Y109.561 E0.18280
G1 X114.738 Y109.569 E0.18379
G1 X114.738 Y109.888 E0.19343
G1 X114.706 Y109.896 E0.19443
G1 X114.706 Y110.224 E0.20434
G1 X114.675 Y110.232 E0.20531
G1 X114.675 Y110.543 E0.21470
G1 X114.559 Y110.572 E0.21832
G1 X114.655 Y111.906 E0.25873
G1 X114.649 Y111.975 E0.26082
G1 X113.568 Y112.249 E0.29451
G1 X114.615 Y112.35 E0.32630
G1 X114.599 Y112.523 E0.33155
G1 X114.45 Y112.672 E0.33791
G1 X110.834 Y112.328 E0.44766
G1 X114.865 Y108.297 E0.61991
G1 X114.865 Y108.578 E0.62840
G0 X114.928 Y108.245 F6000
G1 F1200
G1 X114.914 Y108.249 E0.62884
G1 X114.928 Y108.234 E0.62946
G1 X114.928 Y108.245 E0.62979
G0 X115.562 Y101.175 F6000
G1 F1200
G1 X115.562 Y101.373 E0.63577
G1 X115.53 Y101.381 E0.63677
G1 X115.53 Y101.701 E0.64644
G1 X115.498 Y101.709 E0.64744
G1 X115.498 Y102.036 E0.65732
G1 X115.467 Y102.044 E0.65828
G1 X115.467 Y102.356 E0.66771
G1 X115.435 Y102.364 E0.66871
G1 X115.435 Y102.683 E0.67835
G1 X115.403 Y102.691 E0.67934
G1 X115.403 Y103.019 E0.68925
G1 X115.372 Y103.027 E0.69022
G1 X115.372 Y103.338 E0.69962
G1 X115.34 Y103.346 E0.70061
G1 X115.34 Y103.666 E0.71028
G1 X115.308 Y103.674 E0.71128
G1 X115.308 Y103.894 E0.71793
G1 X107.219 Y111.984 E1.06359
G1 X103.603 Y111.64 E1.17334
G1 X114.05 Y101.193 E1.61975
G1 X114.171 Y101.163 E1.62351
G1 X115.087 Y101.25 E1.65132
G1 X115.433 Y101.162 E1.66210
G1 X115.562 Y101.175 E1.66602
G0 X110.034 Y101.25 F6000
G1 F1200
G1 X102.88 Y108.403 E1.97169
G1 X102.88 Y108.175 E1.97858
G1 X102.912 Y108.167 E1.97958
G1 X102.912 Y107.847 E1.98925
G1 X102.944 Y107.839 E1.99024
G1 X102.944 Y107.512 E2.00012
G1 X102.975 Y107.504 E2.00109
G1 X102.975 Y107.193 E2.01049
G1 X103.007 Y107.185 E2.01148
G1 X103.007 Y106.865 E2.02115
G1 X103.039 Y106.857 E2.02215
G1 X103.039 Y106.538 E2.03179
G1 X103.071 Y106.53 E2.03278
G1 X103.071 Y106.202 E2.04270
G1 X103.102 Y106.194 E2.04366
G1 X103.102 Y105.883 E2.05306
G1 X103.134 Y105.875 E2.05406
G1 X103.134 Y105.555 E2.06372
G1 X103.166 Y105.547 E2.06472
G1 X103.166 Y105.22 E2.07460
G1 X103.197 Y105.212 E2.07557
G1 X103.197 Y104.9 E2.08500
G1 X103.229 Y104.892 E2.08599
G1 X103.229 Y104.573 E2.09563
G1 X103.261 Y104.565 E2.09663
G1 X103.261 Y104.237 E2.10654
G1 X103.292 Y104.229 E2.10751
G1 X103.292 Y104.031 E2.11349
G1 X106.089 Y101.235 E2.23298
G1 X106.248 Y101.25 E2.23781
G1 X106.594 Y101.162 E2.24860
G1 X107.51 Y101.25 E2.27640
G1 X107.862 Y101.162 E2.28736
G1 X108.772 Y101.25 E2.31499
G1 X109.119 Y101.162 E2.32580
G1 X110.034 Y101.25 E2.35358
G92 E0
G1 Z0.8 F3000
G92 E0
G1 E-5 F2400

;LAYER 3 of 110
G1 E0 F2700
G0 X115.471 Y112.555 Z0.78 F6000
G1 F1200
G1 X112.306 Y112.249 E0.09608
G1 X115.471 Y111.448 E0.19472
G1 X115.471 Y112.555 E0.22817
G0 X115.091 Y112.137 F6000
G1 F1200
G1 X114.516 Y112.081 E0.24562
G1 X115.091 Y111.936 E0.26354
G1 X115.091 Y112.137 E0.26962
G0 X114.88 Y112.116 F6000
G1 F1200
G1 X114.779 Y112.015 E0.27393
G0 X114.865 Y108.578 F6000
G1 F1200
G1 X114.833 Y108.586 E0.27493
G1 X114.833 Y108.906 E0.28460
G1 X114.801 Y108.914 E0.28559
G1 X114.801 Y109.241 E0.29547
G1 X114.77 Y109.249 E0.29644
G1 X114.77 Y109.561 E0.30587
G1 X114.738 Y109.569 E0.30686
G1 X114.738 Y109.888 E0.31650
G1 X114.706 Y109.896 E0.31750
G1 X114.706 Y110.224 E0.32741
G1 X114.675 Y110.232 E0.32838
G1 X114.675 Y110.543 E0.33777
G1 X114.643 Y110.551 E0.33877
G1 X114.643 Y111.658 E0.37222
G1 X112.306 Y112.249 E0.44505
G1 X114.643 Y112.475 E0.51600
G1 X114.643 Y112.479 E0.51612
G1 X114.45 Y112.672 E0.52436
G1 X110.835 Y112.328 E0.63408
G1 X114.865 Y108.297 E0.80631
G1 X114.865 Y108.578 E0.81480
G0 X114.928 Y108.245 F6000
G1 F1200
G1 X114.914 Y108.249 E0.81524
G1 X114.928 Y108.234 E0.81586
G1 X114.928 Y108.245 E0.81619
G0 X115.562 Y101.175 F6000
G1 F1200
G1 X115.562 Y101.373 E0.82217
G1 X115.53 Y101.381 E0.82317
G1 X115.53 Y101.701 E0.83284
G1 X115.498 Y101.709 E0.83384
G1 X115.498 Y102.036 E0.84372
G1 X115.467 Y102.044 E0.84468
G1 X115.467 Y102.356 E0.85411
G1 X115.435 Y102.364 E0.85511
G1 X115.435 Y102.683 E0.86475
G1 X115.403 Y102.691 E0.86574
G1 X115.403 Y103.019 E0.87565
G1 X115.372 Y103.027 E0.87662
G1 X115.372 Y103.338 E0.88602
G1 X115.34 Y103.346 E0.88701
G1 X115.34 Y103.666 E0.89668
G1 X115.308 Y103.674 E0.89768
G1 X115.308 Y103.894 E0.90433
G1 X107.219 Y111.984 E1.24999
G1 X103.603 Y111.64 E1.35974
G1 X114.05 Y101.193 E1.80615
G1 X114.171 Y101.163 E1.80991
G1 X115.087 Y101.25 E1.83772
G1 X115.433 Y101.162 E1.84850
G1 X115.562 Y101.175 E1.85242
G0 X110.034 Y101.25 F6000
G1 F1200
G1 X102.88 Y108.403 E2.15809
G1 X102.88 Y108.175 E2.16498
G1 X102.912 Y108.167 E2.16598
G1 X102.912 Y107.847 E2.17565
G1 X102.944 Y107.839 E2.17664
G1 X102.944 Y107.512 E2.18652
G1 X102.975 Y107.504 E2.18749
G1 X102.975 Y107.193 E2.19689
G1 X103.007 Y107.185 E2.19788
G1 X103.007 Y106.865 E2.20755
G1 X103.039 Y106.857 E2.20855
G1 X103.039 Y106.538 E2.21819
G1 X103.071 Y106.53 E2.21918
G1 X103.071 Y106.202 E2.22909
G1 X103.102 Y106.194 E2.23006
G1 X103.102 Y105.883 E2.23946
G1 X103.134 Y105.875 E2.24046
G1 X103.134 Y105.555 E2.25012
G1 X103.166 Y105.547 E2.25112
G1 X103.166 Y105.22 E2.26100
G1 X103.197 Y105.212 E2.26197
G1 X103.197 Y104.9 E2.27140
G1 X103.229 Y104.892 E2.27239
G1 X103.229 Y104.573 E2.28203
G1 X103.261 Y104.565 E2.28303
G1 X103.261 Y104.237 E2.29294
G1 X103.292 Y104.229 E2.29391
G1 X103.292 Y104.031 E2.29989
G1 X106.089 Y101.235 E2.41938
G1 X106.248 Y101.25 E2.42421
G1 X106.594 Y101.162 E2.43500
G1 X107.51 Y101.25 E2.46280
G1 X107.862 Y101.162 E2.47376
G1 X108.772 Y101.25 E2.50139
G1 X109.119 Y101.162 E2.51220
G1 X110.034 Y101.25 E2.53998
G92 E0
G1 Z1 F3000
G92 E0
G1 E-5 F2400

;LAYER 4 of 110
G1 E0 F2700
G0 X115.503 Y112.68 Z0.98 F6000
G1 F1200
G1 X111.043 Y112.249 E0.13539
G1 X115.503 Y111.12 E0.27440
G1 X115.503 Y112.68 E0.32153
G0 X115.123 Y112.262 F6000
G1 F1200
G1 X113.253 Y112.081 E0.37830
G1 X115.123 Y111.608 E0.43658
G1 X115.123 Y112.262 E0.45634
G0 X114.304 Y112.069 F6000
G1 F1200
G1 X114.486 Y111.887 E0.46412
G0 X115.009 Y111.901 F6000
G1 F1200
G1 X114.794 Y112.116 E0.47330
G0 X114.865 Y108.578 F6000
G1 F1200
G1 X114.833 Y108.586 E0.47430
G1 X114.833 Y108.906 E0.48397
G1 X114.801 Y108.914 E0.48496
G1 X114.801 Y109.241 E0.49484
G1 X114.77 Y109.249 E0.49581
G1 X114.77 Y109.561 E0.50524
G1 X114.738 Y109.569 E0.50624
G1 X114.738 Y109.888 E0.51587
G1 X114.706 Y109.896 E0.51687
G1 X114.706 Y110.224 E0.52678
G1 X114.675 Y110.232 E0.52775
G1 X114.675 Y110.547 E0.53727
G1 X113.856 Y110.755 E0.56280
G1 X113.915 Y111.522 E0.58604
G1 X111.043 Y112.249 E0.67556
G1 X113.993 Y112.534 E0.76510
G1 X114 Y112.629 E0.76798
G1 X110.835 Y112.328 E0.86404
G1 X114.865 Y108.297 E1.03627
G1 X114.865 Y108.578 E1.04476
G0 X114.928 Y108.245 F6000
G1 F1200
G1 X114.914 Y108.249 E1.04520
G1 X114.928 Y108.234 E1.04582
G1 X114.928 Y108.245 E1.04615
G0 X115.562 Y101.175 F6000
G1 F1200
G1 X115.562 Y101.373 E1.05213
G1 X115.53 Y101.381 E1.05313
G1 X115.53 Y101.701 E1.06280
G1 X115.498 Y101.709 E1.06380
G1 X115.498 Y102.036 E1.07368
G1 X115.467 Y102.044 E1.07464
G1 X115.467 Y102.356 E1.08407
G1 X115.435 Y102.364 E1.08507
G1 X115.435 Y102.683 E1.09471
G1 X115.403 Y102.691 E1.09570
G1 X115.403 Y103.019 E1.10561
G1 X115.372 Y103.027 E1.10658
G1 X115.372 Y103.338 E1.11598
G1 X115.34 Y103.346 E1.11697
G1 X115.34 Y103.666 E1.12664
G1 X115.308 Y103.674 E1.12764
G1 X115.308 Y103.894 E1.13429
G1 X107.219 Y111.984 E1.47995
G1 X103.603 Y111.64 E1.58970
G1 X114.05 Y101.193 E2.03611
G1 X114.171 Y101.163 E2.03987
G1 X115.087 Y101.25 E2.06768
G1 X115.433 Y101.162 E2.07846
G1 X115.562 Y101.175 E2.08238
G0 X110.034 Y101.25 F6000
G1 F1200
G1 X102.88 Y108.403 E2.38805
G1 X102.88 Y108.175 E2.39494
G1 X102.912 Y108.167 E2.39594
G1 X102.912 Y107.847 E2.40561
G1 X102.944 Y107.839 E2.40660
G1 X102.944 Y107.512 E2.41648
G1 X102.975 Y107.504 E2.41745
G1 X102.975 Y107.193 E2.42685
G1 X103.007 Y107.185 E2.42784
G1 X103.007 Y106.865 E2.43751
G1 X103.039 Y106.857 E2.43851
G1 X103.039 Y106.538 E2.44815
G1 X103.071 Y106.53 E2.44914
G1 X103.071 Y106.202 E2.45906
G1 X103.102 Y106.194 E2.46002
G1 X103.102 Y105.883 E2.46942
G1 X103.134 Y105.875 E2.47042
G1 X103.134 Y105.555 E2.48008
G1 X103.166 Y105.547 E2.48108
G1 X103.166 Y105.22 E2.49096
G1 X103.197 Y105.212 E2.49193
G1 X103.197 Y104.9 E2.50136
G1 X103.229 Y104.892 E2.50235
G1 X103.229 Y104.573 E2.51199
G1 X103.261 Y104.565 E2.51299
G1 X103.261 Y104.237 E2.52290
G1 X103.292 Y104.229 E2.52387
G1 X103.292 Y104.031 E2.52985
G1 X106.089 Y101.235 E2.64934
G1 X106.248 Y101.25 E2.65417
G1 X106.594 Y101.162 E2.66496
G1 X107.51 Y101.25 E2.69276
G1 X107.862 Y101.162 E2.70372
G1 X108.772 Y101.25 E2.73135
G1 X109.119 Y101.162 E2.74216
G1 X110.034 Y101.25 E2.76994
G92 E0
G1 Z1.2 F3000
G92 E0
G1 E-5 F2400

;LAYER 5 of 110
G1 E0 F2700
G0 X115.535 Y112.806 Z1.18 F6000
G1 F1200
G1 X109.779 Y112.249 E0.17473
G1 X115.535 Y110.793 E0.35412
G1 X115.535 Y112.806 E0.41495
G0 X115.155 Y112.388 F6000
G1 F1200
G1 X111.99 Y112.081 E0.51103
G1 X115.155 Y111.281 E0.60966
G1 X115.155 Y112.388 E0.64311
G0 X114.775 Y111.969 F6000
G1 F1200
G1 X114.203 Y111.914 E0.66047
G1 X114.775 Y111.769 E0.67830
G1 X114.775 Y111.969 E0.68435
G0 X114.721 Y111.957 F6000
G1 F1200
G1 X114.582 Y111.818 E0.69029
G0 X114.865 Y108.578 F6000
G1 F1200
