;Generated with Pancakes - © 2019 Lieven Libberecht, William Thenaers

;Setup
M140 S50
M104 S200
M105
M190 S50
M109 S200
M82
G21
M201 X500.0 Y500.0 Z100.0 E5000.0
M203 X500.0 Y500.0 Z10.0 E50.0
M204 P500.0 R1000.0 T500.0
M205 X8.0 Y8.0 Z0.4 E5.0
M220 S100.0
M221 S100.0
G28
G92 E0
G1 Z2.0 F3000
G1 X10.1 Y20.0 Z0.28 F5000
G1 X10.1 Y200.0 Z0.28 E15 F1500
G1 X10.4 Y200.0 Z0.28 F5000
G1 X10.4 Y20.0 Z0.28 E30 F1500
G92 E0
G1 Z2.0 F3000
G92 E0
G1 E-5 F2700
M107
G1 E0 F1500

;Print

;LAYER 0 of 38
M106 S85
G0 X102.7 Y102.7 Z0.18 F6000
G1 E0 F2700
G1 F1200
G1 X117.3 Y102.7 E0.66743
G1 X117.3 Y117.3 E1.33486
G1 X102.7 Y117.3 E2.00229
G1 X102.7 Y102.7 E2.66971
G0 X103.1 Y116.9 F6000
G1 F1200
G1 X103.1 Y103.1 E3.30057
G1 X116.9 Y103.1 E3.93143
G1 X116.9 Y116.9 E4.56229
G1 X103.1 Y116.9 E5.19314
G0 X103.5 Y116.5 F6000
G1 F1200
G1 X103.5 Y103.5 E5.78743
G1 X116.5 Y103.5 E6.38171
G1 X116.5 Y116.5 E6.97600
G1 X103.5 Y116.5 E7.57029
G0 X103.9 Y105.172 F6000
G1 F1200
G1 X103.9 Y104.266 E7.61170
G1 X104.267 Y103.9 E7.63540
G1 X105.171 Y103.9 E7.67672
G1 X103.9 Y105.172 E7.75892
G0 X103.9 Y106.982 F6000
G1 F1200
G1 X103.9 Y106.076 E7.80034
G1 X106.077 Y103.9 E7.94105
G1 X106.981 Y103.9 E7.98238
G1 X103.9 Y106.982 E8.18160
G0 X103.9 Y108.792 F6000
G1 F1200
G1 X103.9 Y107.886 E8.22301
G1 X107.887 Y103.9 E8.48074
G1 X108.791 Y103.9 E8.52207
G1 X103.9 Y108.792 E8.83830
G0 X103.9 Y110.602 F6000
G1 F1200
G1 X103.9 Y109.697 E8.87967
G1 X109.697 Y103.9 E9.25445
G1 X110.602 Y103.9 E9.29582
G1 X103.9 Y110.602 E9.72910
G0 X103.9 Y112.412 F6000
G1 F1200
G1 X103.9 Y111.507 E9.77047
G1 X111.507 Y103.9 E10.26226
G1 X112.412 Y103.9 E10.30363
G1 X103.9 Y112.412 E10.85393
G0 X103.9 Y114.222 F6000
G1 F1200
G1 X103.9 Y113.317 E10.89530
G1 X113.317 Y103.9 E11.50411
G1 X114.223 Y103.9 E11.54553
G1 X103.9 Y114.222 E12.21287
G0 X103.9 Y116.032 F6000
G1 F1200
G1 X103.9 Y115.128 E12.25420
G1 X115.127 Y103.9 E12.98006
G1 X116.033 Y103.9 E13.02147
G1 X103.9 Y116.032 E13.80584
G0 X104.738 Y116.1 F6000
G1 F1200
G1 X116.1 Y104.737 E14.54042
G1 X116.1 Y105.643 E14.58184
G1 X105.642 Y116.1 E15.25791
G1 X104.738 Y116.1 E15.29924
G0 X106.548 Y116.1 F6000
G1 F1200
G1 X116.1 Y106.547 E15.91680
G1 X116.1 Y107.453 E15.95822
G1 X107.453 Y116.1 E16.51725
G1 X106.548 Y116.1 E16.55862
G0 X108.358 Y116.1 F6000
G1 F1200
G1 X116.1 Y108.358 E17.05914
G1 X116.1 Y109.263 E17.10051
G1 X109.263 Y116.1 E17.54252
G1 X108.358 Y116.1 E17.58389
G0 X110.168 Y116.1 F6000
G1 F1200
G1 X116.1 Y110.169 E17.96736
G1 X116.1 Y111.073 E18.00869
G1 X111.074 Y116.1 E18.33365
G1 X110.168 Y116.1 E18.37507
G0 X111.978 Y116.1 F6000
G1 F1200
G1 X116.1 Y111.979 E18.64152
G1 X116.1 Y112.883 E18.68285
G1 X112.884 Y116.1 E18.89079
G1 X111.978 Y116.1 E18.93221
G0 X113.788 Y116.1 F6000
G1 F1200
G1 X116.1 Y113.789 E19.08165
G1 X116.1 Y114.693 E19.12297
G1 X114.694 Y116.1 E19.21390
G1 X113.788 Y116.1 E19.25532
G0 X115.599 Y116.1 F6000
G1 F1200
G1 X116.1 Y115.599 E19.28771
G1 X116.1 Y116.1 E19.31061
G1 X115.599 Y116.1 E19.33351
G92 E0
G1 Z0.4 F3000
G92 E0
G1 E-5 F2400
M106 S170

;LAYER 1 of 38
G0 X102.7 Y102.7 Z0.38 F6000
G1 E0 F2700
G1 F1200
G1 X117.3 Y102.7 E0.66743
G1 X117.3 Y117.3 E1.33486
G1 X102.7 Y117.3 E2.00229
G1 X102.7 Y102.7 E2.66971
G0 X103.1 Y116.9 F6000
G1 F1200
G1 X103.1 Y103.1 E3.30057
G1 X116.9 Y103.1 E3.93143
G1 X116.9 Y116.9 E4.56229
G1 X103.1 Y116.9 E5.19314
G0 X103.5 Y116.5 F6000
G1 F1200
G1 X103.5 Y103.5 E5.78743
G1 X116.5 Y103.5 E6.38171
G1 X116.5 Y116.5 E6.97600
G1 X103.5 Y116.5 E7.57029
G0 X116.1 Y104.775 F6000
G1 F1200
G1 X115.224 Y103.9 E7.62689
G1 X116.1 Y103.9 E7.66693
G1 X116.1 Y104.775 E7.70693
G0 X116.1 Y106.585 F6000
G1 F1200
G1 X113.415 Y103.9 E7.88052
G1 X114.32 Y103.9 E7.92189
G1 X116.1 Y105.68 E8.03696
G1 X116.1 Y106.585 E8.07834
G0 X116.1 Y108.396 F6000
G1 F1200
G1 X111.604 Y103.9 E8.36900
G1 X112.51 Y103.9 E8.41042
G1 X116.1 Y107.491 E8.64254
G1 X116.1 Y108.396 E8.68392
G0 X116.1 Y110.205 F6000
G1 F1200
G1 X109.794 Y103.9 E9.09156
G1 X110.7 Y103.9 E9.13298
G1 X116.1 Y109.3 E9.48209
G1 X116.1 Y110.205 E9.52346
G0 X116.1 Y112.016 F6000
G1 F1200
G1 X107.984 Y103.9 E10.04816
G1 X108.888 Y103.9 E10.08948
G1 X116.1 Y111.111 E10.55571
G1 X116.1 Y112.016 E10.59708
G0 X116.1 Y113.825 F6000
G1 F1200
G1 X106.174 Y103.9 E11.23876
G1 X107.079 Y103.9 E11.28013
G1 X116.1 Y112.921 E11.86334
G1 X116.1 Y113.825 E11.90466
G0 X116.1 Y115.636 F6000
G1 F1200
G1 X104.364 Y103.9 E12.66339
G1 X105.268 Y103.9 E12.70472
G1 X116.1 Y114.731 E13.40497
G1 X116.1 Y115.636 E13.44634
G0 X114.753 Y116.1 F6000
G1 F1200
G1 X103.9 Y105.246 E14.14802
G1 X103.9 Y104.342 E14.18934
G1 X115.659 Y116.1 E14.94953
G1 X114.753 Y116.1 E14.99095
G0 X112.944 Y116.1 F6000
G1 F1200
G1 X103.9 Y107.056 E15.57564
G1 X103.9 Y106.152 E15.61696
G1 X113.848 Y116.1 E16.26010
G1 X112.944 Y116.1 E16.30143
G0 X111.132 Y116.1 F6000
G1 F1200
G1 X103.9 Y108.868 E16.76897
G1 X103.9 Y107.962 E16.81039
G1 X112.039 Y116.1 E17.33654
G1 X111.132 Y116.1 E17.37800
G0 X109.323 Y116.1 F6000
G1 F1200
G1 X103.9 Y110.678 E17.72857
G1 X103.9 Y109.772 E17.76999
G1 X110.228 Y116.1 E18.17909
G1 X109.323 Y116.1 E18.22046
G0 X107.512 Y116.1 F6000
G1 F1200
G1 X103.9 Y112.488 E18.45398
G1 X103.9 Y111.583 E18.49535
G1 X108.417 Y116.1 E18.78737
G1 X107.512 Y116.1 E18.82874
G0 X105.702 Y116.1 F6000
G1 F1200
G1 X103.9 Y114.298 E18.94524
G1 X103.9 Y113.393 E18.98661
G1 X106.608 Y116.1 E19.16165
G1 X105.702 Y116.1 E19.20307
G0 X103.9 Y116.1 F6000
G1 F1200
G1 X103.9 Y115.203 E19.24407
G1 X104.797 Y116.1 E19.30206
G1 X103.9 Y116.1 E19.34307
G92 E0
G1 Z0.6 F3000
G92 E0
G1 E-5 F2400

;LAYER 2 of 38
G0 X102.7 Y102.7 Z0.58 F6000
G1 E0 F2700
G1 F1200
G1 X117.3 Y102.7 E0.66743
G1 X117.3 Y117.3 E1.33486
G1 X102.7 Y117.3 E2.00229
G1 X102.7 Y102.7 E2.66971
G0 X103.1 Y116.9 F6000
G1 F1200
G1 X103.1 Y103.1 E3.30057
G1 X116.9 Y103.1 E3.93143
G1 X116.9 Y116.9 E4.56229
G1 X103.1 Y116.9 E5.19314
G0 X103.5 Y116.5 F6000
G1 F1200
G1 X103.5 Y103.5 E5.78743
G1 X116.5 Y103.5 E6.38171
G1 X116.5 Y116.5 E6.97600
G1 X103.5 Y116.5 E7.57029
G0 X103.9 Y105.172 F6000
G1 F1200
G1 X103.9 Y104.266 E7.61170
G1 X104.267 Y103.9 E7.63540
G1 X105.171 Y103.9 E7.67672
G1 X103.9 Y105.172 E7.75892
G0 X103.9 Y106.982 F6000
G1 F1200
G1 X103.9 Y106.076 E7.80034
G1 X106.077 Y103.9 E7.94105
G1 X106.981 Y103.9 E7.98238
G1 X103.9 Y106.982 E8.18160
G0 X103.9 Y108.792 F6000
G1 F1200
G1 X103.9 Y107.886 E8.22301
G1 X107.887 Y103.9 E8.48074
G1 X108.791 Y103.9 E8.52207
G1 X103.9 Y108.792 E8.83830
G0 X103.9 Y110.602 F6000
G1 F1200
G1 X103.9 Y109.697 E8.87967
G1 X109.697 Y103.9 E9.25445
G1 X110.602 Y103.9 E9.29582
G1 X103.9 Y110.602 E9.72910
G0 X103.9 Y112.412 F6000
G1 F1200
G1 X103.9 Y111.507 E9.77047
G1 X111.507 Y103.9 E10.26226
G1 X112.412 Y103.9 E10.30363
G1 X103.9 Y112.412 E10.85393
G0 X103.9 Y114.222 F6000
G1 F1200
G1 X103.9 Y113.317 E10.89530
G1 X113.317 Y103.9 E11.50411
G1 X114.223 Y103.9 E11.54553
G1 X103.9 Y114.222 E12.21287
G0 X103.9 Y116.032 F6000
G1 F1200
G1 X103.9 Y115.128 E12.25420
G1 X115.127 Y103.9 E12.98006
G1 X116.033 Y103.9 E13.02147
G1 X103.9 Y116.032 E13.80584
G0 X104.738 Y116.1 F6000
G1 F1200
G1 X116.1 Y104.737 E14.54042
G1 X116.1 Y105.643 E14.58184
G1 X105.642 Y116.1 E15.25791
G1 X104.738 Y116.1 E15.29924
G0 X106.548 Y116.1 F6000
G1 F1200
G1 X116.1 Y106.547 E15.91680
G1 X116.1 Y107.453 E15.95822
G1 X107.453 Y116.1 E16.51725
G1 X106.548 Y116.1 E16.55862
G0 X108.358 Y116.1 F6000
G1 F1200
G1 X116.1 Y108.358 E17.05914
G1 X116.1 Y109.263 E17.10051
G1 X109.263 Y116.1 E17.54252
G1 X108.358 Y116.1 E17.58389
G0 X110.168 Y116.1 F6000
G1 F1200
G1 X116.1 Y110.169 E17.96736
G1 X116.1 Y111.073 E18.00869
G1 X111.074 Y116.1 E18.33365
G1 X110.168 Y116.1 E18.37507
G0 X111.978 Y116.1 F6000
G1 F1200
G1 X116.1 Y111.979 E18.64152
G1 X116.1 Y112.883 E18.68285
G1 X112.884 Y116.1 E18.89079
G1 X111.978 Y116.1 E18.93221
G0 X113.788 Y116.1 F6000
G1 F1200
G1 X116.1 Y113.789 E19.08165
G1 X116.1 Y114.693 E19.12297
G1 X114.694 Y116.1 E19.21390
G1 X113.788 Y116.1 E19.25532
G0 X115.599 Y116.1 F6000
G1 F1200
G1 X116.1 Y115.599 E19.28771
G1 X116.1 Y116.1 E19.31061
G1 X115.599 Y116.1 E19.33351
G92 E0
G1 Z0.8 F3000
G92 E0
G1 E-5 F2400

;LAYER 3 of 38
G0 X102.7 Y102.7 Z0.78 F6000
G1 E0 F2700
G1 F1200
G1 X117.3 Y102.7 E0.66743
G1 X117.3 Y117.3 E1.33486
G1 X102.7 Y117.3 E2.00229
G1 X102.7 Y102.7 E2.66971
G0 X103.1 Y116.9 F6000
G1 F1200
G1 X103.1 Y103.1 E3.30057
G1 X116.9 Y103.1 E3.93143
G1 X116.9 Y116.9 E4.56229
G1 X103.1 Y116.9 E5.19314
G0 X103.5 Y116.5 F6000
G1 F1200
G1 X103.5 Y103.5 E5.78743
G1 X116.5 Y103.5 E6.38171
G1 X116.5 Y116.5 E6.97600
G1 X103.5 Y116.5 E7.57029
G0 X103.9 Y108.6 F6000
G1 F1200
G1 X103.9 Y105.8 E7.69829
G1 X116.1 Y105.8 E8.25600
G1 X116.1 Y108.6 E8.38400
G1 X103.9 Y108.6 E8.94171
G0 X103.9 Y114.199 F6000
G1 F1200
G1 X103.9 Y111.399 E9.06971
G1 X116.1 Y111.399 E9.62743
G1 X116.1 Y114.199 E9.75543
G1 X103.9 Y114.199 E10.31314
G0 X105.8 Y116.1 F6000
G1 F1200
G1 X105.8 Y103.9 E10.87086
G1 X108.6 Y103.9 E10.99886
G1 X108.6 Y116.1 E11.55657
G1 X105.8 Y116.1 E11.68457
G0 X111.399 Y116.1 F6000
G1 F1200
G1 X111.399 Y103.9 E12.24229
G1 X114.199 Y103.9 E12.37029
G1 X114.199 Y116.1 E12.92800
G1 X111.399 Y116.1 E13.05600
G92 E0
G1 Z1 F3000
G92 E0
G1 E-5 F2400

;LAYER 4 of 38
G0 X102.7 Y102.7 Z0.98 F6000
G1 E0 F2700
G1 F1200
G1 X117.3 Y102.7 E0.66743
G1 X117.3 Y117.3 E1.33486
G1 X102.7 Y117.3 E2.00229
G1 X102.7 Y102.7 E2.66971
G0 X103.1 Y116.9 F6000
G1 F1200
G1 X103.1 Y103.1 E3.30057
G1 X116.9 Y103.1 E3.93143
G1 X116.9 Y116.9 E4.56229
G1 X103.1 Y116.9 E5.19314
G0 X103.5 Y116.5 F6000
G1 F1200
G1 X103.5 Y103.5 E5.78743
G1 X116.5 Y103.5 E6.38171
G1 X116.5 Y116.5 E6.97600
G1 X103.5 Y116.5 E7.57029
G0 X103.9 Y108.6 F6000
G1 F1200
G1 X103.9 Y105.8 E7.69829
G1 X116.1 Y105.8 E8.25600
G1 X116.1 Y108.6 E8.38400
G1 X103.9 Y108.6 E8.94171
G0 X103.9 Y114.199 F6000
G1 F1200
G1 X103.9 Y111.399 E9.06971
G1 X116.1 Y111.399 E9.62743
G1 X116.1 Y114.199 E9.75543
G1 X103.9 Y114.199 E10.31314
G0 X105.8 Y116.1 F6000
G1 F1200
G1 X105.8 Y103.9 E10.87086
G1 X108.6 Y103.9 E10.99886
G1 X108.6 Y116.1 E11.55657
G1 X105.8 Y116.1 E11.68457
G0 X111.399 Y116.1 F6000
G1 F1200
G1 X111.399 Y103.9 E12.24229
G1 X114.199 Y103.9 E12.37029
G1 X114.199 Y116.1 E12.92800
G1 X111.399 Y116.1 E13.05600
G92 E0
G1 Z1.2 F3000
G92 E0
G1 E-5 F2400

;LAYER 5 of 38
G0 X102.7 Y102.7 Z1.18 F6000
G1 E0 F2700
G1 F1200
G1 X117.3 Y102.7 E0.66743
G1 X117.3 Y117.3 E1.33486
G1 X102.7 Y117.3 E2.00229
G1 X102.7 Y102.7 E2.66971
G0 X103.1 Y116.9 F6000
G1 F1200
G1 X103.1 Y103.1 E3.30057
G1 X116.9 Y103.1 E3.93143
G1 X116.9 Y116.9 E4.56229
G1 X103.1 Y116.9 E5.19314
G0 X103.5 Y116.5 F6000
G1 F1200
G1 X103.5 Y103.5 E5.78743
G1 X116.5 Y103.5 E6.38171
G1 X116.5 Y116.5 E6.97600
G1 X103.5 Y116.5 E7.57029
G0 X103.9 Y108.6 F6000
G1 F1200
G1 X103.9 Y105.8 E7.69829
G1 X116.1 Y105.8 E8.25600
G1 X116.1 Y108.6 E8.38400
G1 X103.9 Y108.6 E8.94171
G0 X103.9 Y114.199 F6000
G1 F1200
G1 X103.9 Y111.399 E9.06971
G1 X116.1 Y111.399 E9.62743
G1 X116.1 Y114.199 E9.75543
G1 X103.9 Y114.199 E10.31314
G0 X105.8 Y116.1 F6000
G1 F1200
G1 X105.8 Y103.9 E10.87086
G1 X108.6 Y103.9 E10.99886
G1 X108.6 Y116.1 E11.55657
G1 X105.8 Y116.1 E11.68457
G0 X111.399 Y116.1 F6000
G1 F1200
G1 X111.399 Y103.9 E12.24229
G1 X114.199 Y103.9 E12.37029
G1 X114.199 Y116.1 E12.92800
G1 X111.399 Y116.1 E13.05600
G92 E0
G1 Z1.4 F3000
G92 E0
G1 E-5 F2400

;LAYER 6 of 38
G0 X102.7 Y102.7 Z1.38 F6000
G1 E0 F2700
G1 F1200
G1 X117.3 Y102.7 E0.66743
G1 X117.3 Y117.3 E1.33486
G1 X102.7 Y117.3 E2.00229
G1 X102.7 Y102.7 E2.66971
G0 X103.1 Y116.9 F6000
G1 F1200
G1 X103.1 Y103.1 E3.30057
G1 X116.9 Y103.1 E3.93143
G1 X116.9 Y116.9 E4.56229
G1 X103.1 Y116.9 E5.19314
G0 X103.5 Y116.5 F6000
G1 F1200
G1 X103.5 Y103.5 E5.78743
G1 X116.5 Y103.5 E6.38171
G1 X116.5 Y116.5 E6.97600
G1 X103.5 Y116.5 E7.57029
G0 X103.9 Y108.6 F6000
G1 F1200
G1 X103.9 Y105.8 E7.69829
G1 X116.1 Y105.8 E8.25600
G1 X116.1 Y108.6 E8.38400
G1 X103.9 Y108.6 E8.94171
G0 X103.9 Y114.199 F6000
G1 F1200
G1 X103.9 Y111.399 E9.06971
G1 X116.1 Y111.399 E9.62743
G1 X116.1 Y114.199 E9.75543
G1 X103.9 Y114.199 E10.31314
G0 X105.8 Y116.1 F6000
G1 F1200
G1 X105.8 Y103.9 E10.87086
G1 X108.6 Y103.9 E10.99886
G1 X108.6 Y116.1 E11.55657
G1 X105.8 Y116.1 E11.68457
G0 X111.399 Y116.1 F6000
G1 F1200
G1 X111.399 Y103.9 E12.24229
G1 X114.199 Y103.9 E12.37029
G1 X114.199 Y116.1 E12.92800
G1 X111.399 Y116.1 E13.05600
G92 E0
G1 Z1.6 F3000
G92 E0
G1 E-5 F2400

;LAYER 7 of 38
G0 X102.7 Y102.7 Z1.58 F6000
G1 E0 F2700
G1 F1200
G1 X117.3 Y102.7 E0.66743
G1 X117.3 Y117.3 E1.33486
G1 X102.7 Y117.3 E2.00229
G1 X102.7 Y102.7 E2.66971
G0 X103.1 Y116.9 F6000
G1 F1200
G1 X103.1 Y103.1 E3.30057
G1 X116.9 Y103.1 E3.93143
G1 X116.9 Y116.9 E4.56229
G1 X103.1 Y116.9 E5.19314
G0 X103.5 Y116.5 F6000
G1 F1200
G1 X103.5 Y103.5 E5.78743
G1 X116.5 Y103.5 E6.38171
G1 X116.5 Y116.5 E6.97600
G1 X103.5 Y116.5 E7.57029
G0 X103.9 Y108.6 F6000
G1 F1200
G1 X103.9 Y105.8 E7.69829
G1 X116.1 Y105.8 E8.25600
G1 X116.1 Y108.6 E8.38400
G1 X103.9 Y108.6 E8.94171
G0 X103.9 Y114.199 F6000
G1 F1200
G1 X103.9 Y111.399 E9.06971
G1 X116.1 Y111.399 E9.62743
G1 X116.1 Y114.199 E9.75543
G1 X103.9 Y114.199 E10.31314
G0 X105.8 Y116.1 F6000
G1 F1200
G1 X105.8 Y103.9 E10.87086
G1 X108.6 Y103.9 E10.99886
G1 X108.6 Y116.1 E11.55657
G1 X105.8 Y116.1 E11.68457
G0 X111.399 Y116.1 F6000
G1 F1200
G1 X111.399 Y103.9 E12.24229
G1 X114.199 Y103.9 E12.37029
G1 X114.199 Y116.1 E12.92800
G1 X111.399 Y116.1 E13.05600
G92 E0
G1 Z1.8 F3000
G92 E0
G1 E-5 F2400

;LAYER 8 of 38
G0 X102.7 Y102.7 Z1.78 F6000
G1 E0 F2700
G1 F1200
G1 X117.3 Y102.7 E0.66743
G1 X117.3 Y117.3 E1.33486
G1 X102.7 Y117.3 E2.00229
G1 X102.7 Y102.7 E2.66971
G0 X103.1 Y116.9 F6000
G1 F1200
G1 X103.1 Y103.1 E3.30057
G1 X116.9 Y103.1 E3.93143
G1 X116.9 Y116.9 E4.56229
G1 X103.1 Y116.9 E5.19314
G0 X103.5 Y116.5 F6000
G1 F1200
G1 X103.5 Y103.5 E5.78743
G1 X116.5 Y103.5 E6.38171
G1 X116.5 Y116.5 E6.97600
G1 X103.5 Y116.5 E7.57029
G0 X103.9 Y108.6 F6000
G1 F1200
G1 X103.9 Y105.8 E7.69829
G1 X116.1 Y105.8 E8.25600
G1 X116.1 Y108.6 E8.38400
G1 X103.9 Y108.6 E8.94171
G0 X103.9 Y114.199 F6000
G1 F1200
G1 X103.9 Y111.399 E9.06971
G1 X116.1 Y111.399 E9.62743
G1 X116.1 Y114.199 E9.75543
G1 X103.9 Y114.199 E10.31314
G0 X105.8 Y116.1 F6000
G1 F1200
G1 X105.8 Y103.9 E10.87086
G1 X108.6 Y103.9 E10.99886
G1 X108.6 Y116.1 E11.55657
G1 X105.8 Y116.1 E11.68457
G0 X111.399 Y116.1 F6000
G1 F1200
G1 X111.399 Y103.9 E12.24229
G1 X114.199 Y103.9 E12.37029
G1 X114.199 Y116.1 E12.92800
G1 X111.399 Y116.1 E13.05600
G92 E0
G1 Z2 F3000
G92 E0
G1 E-5 F2400

;LAYER 9 of 38
G0 X102.7 Y102.7 Z1.98 F6000
G1 E0 F2700
G1 F1200
G1 X117.3 Y102.7 E0.66743
G1 X117.3 Y117.3 E1.33486
G1 X102.7 Y117.3 E2.00229
G1 X102.7 Y102.7 E2.66971
G0 X103.1 Y116.9 F6000
G1 F1200
G1 X103.1 Y103.1 E3.30057
G1 X116.9 Y103.1 E3.93143
G1 X116.9 Y116.9 E4.56229
G1 X103.1 Y116.9 E5.19314
G0 X103.5 Y116.5 F6000
G1 F1200
G1 X103.5 Y103.5 E5.78743
G1 X116.5 Y103.5 E6.38171
G1 X116.5 Y116.5 E6.97600
G1 X103.5 Y116.5 E7.57029
G0 X103.9 Y108.6 F6000
G1 F1200
G1 X103.9 Y105.8 E7.69829
G1 X116.1 Y105.8 E8.25600
G1 X116.1 Y108.6 E8.38400
G1 X103.9 Y108.6 E8.94171
G0 X103.9 Y114.199 F6000
G1 F1200
G1 X103.9 Y111.399 E9.06971
G1 X116.1 Y111.399 E9.62743
G1 X116.1 Y114.199 E9.75543
G1 X103.9 Y114.199 E10.31314
G0 X105.8 Y116.1 F6000
G1 F1200
G1 X105.8 Y103.9 E10.87086
G1 X108.6 Y103.9 E10.99886
G1 X108.6 Y116.1 E11.55657
G1 X105.8 Y116.1 E11.68457
G0 X111.399 Y116.1 F6000
G1 F1200
G1 X111.399 Y103.9 E12.24229
G1 X114.199 Y103.9 E12.37029
G1 X114.199 Y116.1 E12.92800
G1 X111.399 Y116.1 E13.05600
G92 E0
G1 Z2.2 F3000
G92 E0
G1 E-5 F2400

;LAYER 10 of 38
G0 X102.7 Y102.7 Z2.18 F6000
G1 E0 F2700
G1 F1200
G1 X117.3 Y102.7 E0.66743
G1 X117.3 Y117.3 E1.33486
G1 X102.7 Y117.3 E2.00229
G1 X102.7 Y102.7 E2.66971
G0 X103.1 Y116.9 F6000
G1 F1200
G1 X103.1 Y103.1 E3.30057
G1 X116.9 Y103.1 E3.93143
G1 X116.9 Y116.9 E4.56229
G1 X103.1 Y116.9 E5.19314
G0 X103.5 Y116.5 F6000
G1 F1200
G1 X103.5 Y103.5 E5.78743
G1 X116.5 Y103.5 E6.38171
G1 X116.5 Y116.5 E6.97600
G1 X103.5 Y116.5 E7.57029
G0 X103.9 Y108.6 F6000
G1 F1200
G1 X103.9 Y105.8 E7.69829
G1 X116.1 Y105.8 E8.25600
