;Generated with Pancakes - © 2019 Lieven Libberecht, William Thenaers

;Setup
M140 S50
M105
M190 S50
M104 S200
M105
M109 S200
M82
G21
M201 X500.0 Y500.0 Z100.0 E5000.0
M203 X500.0 Y500.0 Z10.0 E50.0
M204 P500.0 R1000.0 T500.0
M205 X8.0 Y8.0 Z0.4 E5.0
M220 S100.0
M221 S100.0
G28
G92 E0
G1 Z2.0 F3000
G1 X10.1 Y20.0 Z0.28 F5000
G1 X10.1 Y200.0 Z0.28 E15 F1500
G1 X10.4 Y200.0 Z0.28 F5000
G1 X10.4 Y20.0 Z0.28 E30 F1500
G92 E0
G1 Z2.0 F3000
G92 E0
G1 E-5 F2700
M107
G1 E0 F1500

;Print

;LAYER 0 of 38
M106 S85
G0 X99.675 Y110 Z0.18 F6000
G1 E0 F2700
G1 F1200
G1 X110 Y99.675 E0.66751
G1 X120.324 Y110 E1.33499
G1 X110 Y120.324 E2.00243
G1 X99.675 Y110 E2.66991
G0 X110 Y119.758 F6000
G1 F1200
G1 X100.241 Y110 E3.30079
G1 X110 Y100.241 E3.93171
G1 X119.758 Y110 E4.56259
G1 X110 Y119.758 E5.19344
G0 X110 Y119.192 F6000
G1 F1200
G1 X100.807 Y110 E5.78774
G1 X110 Y100.807 E6.38206
G1 X119.192 Y110 E6.97636
G1 X110 Y119.192 E7.57062
G0 X109.534 Y101.839 F6000
G1 F1200
G1 X109.854 Y101.519 E7.59130
G1 X110.146 Y101.519 E7.60465
G1 X110.466 Y101.839 E7.62534
G1 X109.534 Y101.839 E7.66795
G0 X108.894 Y102.479 F6000
G1 F1200
G1 X109.214 Y102.159 E7.68863
G1 X110.786 Y102.159 E7.76050
G1 X111.106 Y102.479 E7.78119
G1 X108.894 Y102.479 E7.88231
G0 X108.254 Y103.119 F6000
G1 F1200
G1 X108.574 Y102.799 E7.90299
G1 X111.426 Y102.799 E8.03337
G1 X111.746 Y103.119 E8.05406
G1 X108.254 Y103.119 E8.21369
G0 X107.614 Y103.759 F6000
G1 F1200
G1 X107.934 Y103.439 E8.23438
G1 X112.066 Y103.439 E8.42327
G1 X112.386 Y103.759 E8.44396
G1 X107.614 Y103.759 E8.66211
G0 X106.974 Y104.399 F6000
G1 F1200
G1 X107.294 Y104.079 E8.68280
G1 X112.706 Y104.079 E8.93020
G1 X113.026 Y104.399 E8.95089
G1 X106.974 Y104.399 E9.22755
G0 X106.334 Y105.039 F6000
G1 F1200
G1 X106.654 Y104.719 E9.24824
G1 X113.346 Y104.719 E9.55416
G1 X113.666 Y105.039 E9.57485
G1 X106.334 Y105.039 E9.91003
G0 X105.694 Y105.679 F6000
G1 F1200
G1 X106.014 Y105.359 E9.93071
G1 X113.986 Y105.359 E10.29515
G1 X114.306 Y105.679 E10.31584
G1 X105.694 Y105.679 E10.70953
G0 X105.054 Y106.319 F6000
G1 F1200
G1 X105.374 Y105.999 E10.73022
G1 X114.627 Y105.999 E11.15321
G1 X114.947 Y106.319 E11.17390
G1 X105.054 Y106.319 E11.62615
G0 X104.414 Y106.959 F6000
G1 F1200
G1 X104.734 Y106.639 E11.64684
G1 X115.267 Y106.639 E12.12835
G1 X115.587 Y106.959 E12.14903
G1 X104.414 Y106.959 E12.65980
G0 X103.774 Y107.599 F6000
G1 F1200
G1 X104.094 Y107.279 E12.68049
G1 X115.907 Y107.279 E13.22051
G1 X116.227 Y107.599 E13.24120
G1 X103.774 Y107.599 E13.81048
G0 X103.134 Y108.239 F6000
G1 F1200
G1 X103.454 Y107.919 E13.83117
G1 X116.547 Y107.919 E14.42970
G1 X116.867 Y108.239 E14.45039
G1 X103.134 Y108.239 E15.07819
G0 X102.494 Y108.879 F6000
G1 F1200
G1 X102.814 Y108.559 E15.09887
G1 X117.187 Y108.559 E15.75592
G1 X117.507 Y108.879 E15.77661
G1 X102.494 Y108.879 E16.46292
G0 X101.854 Y109.519 F6000
G1 F1200
G1 X102.174 Y109.199 E16.48361
G1 X117.827 Y109.199 E17.19917
G1 X118.147 Y109.519 E17.21986
G1 X101.854 Y109.519 E17.96469
G0 X101.532 Y110.159 F6000
G1 F1200
G1 X101.373 Y110 E17.97496
G1 X101.534 Y109.839 E17.98537
G1 X118.467 Y109.839 E18.75945
G1 X118.627 Y109.999 E18.76980
G1 X118.467 Y110.159 E18.78014
G1 X101.532 Y110.159 E19.55431
G0 X102.172 Y110.799 F6000
G1 F1200
G1 X101.852 Y110.479 E19.57500
G1 X118.147 Y110.479 E20.31991
G1 X117.827 Y110.799 E20.34060
G1 X102.172 Y110.799 E21.05626
G0 X102.812 Y111.439 F6000
G1 F1200
G1 X102.492 Y111.119 E21.07695
G1 X117.507 Y111.119 E21.76335
G1 X117.187 Y111.439 E21.78404
G1 X102.812 Y111.439 E22.44118
G0 X103.452 Y112.079 F6000
G1 F1200
G1 X103.132 Y111.759 E22.46187
G1 X116.867 Y111.759 E23.08975
G1 X116.547 Y112.079 E23.11044
G1 X103.452 Y112.079 E23.70907
G0 X104.092 Y112.719 F6000
G1 F1200
G1 X103.772 Y112.399 E23.72976
G1 X116.227 Y112.399 E24.29913
G1 X115.907 Y112.719 E24.31982
G1 X104.092 Y112.719 E24.85993
G0 X104.732 Y113.359 F6000
G1 F1200
G1 X104.412 Y113.039 E24.88062
G1 X115.587 Y113.039 E25.39148
G1 X115.267 Y113.359 E25.41216
G1 X104.732 Y113.359 E25.89376
G0 X105.372 Y113.999 F6000
G1 F1200
G1 X105.052 Y113.679 E25.91445
G1 X114.947 Y113.679 E26.36679
G1 X114.627 Y113.999 E26.38748
G1 X105.372 Y113.999 E26.81057
G0 X106.011 Y114.639 F6000
G1 F1200
G1 X105.691 Y114.319 E26.83126
G1 X114.307 Y114.319 E27.22513
G1 X113.987 Y114.639 E27.24582
G1 X106.011 Y114.639 E27.61044
G0 X106.651 Y115.279 F6000
G1 F1200
G1 X106.331 Y114.959 E27.63112
G1 X113.667 Y114.959 E27.96648
G1 X113.347 Y115.279 E27.98717
G1 X106.651 Y115.279 E28.29327
G0 X107.291 Y115.919 F6000
G1 F1200
G1 X106.971 Y115.599 E28.31396
G1 X113.027 Y115.599 E28.59081
G1 X112.707 Y115.919 E28.61150
G1 X107.291 Y115.919 E28.85908
G0 X107.931 Y116.559 F6000
G1 F1200
G1 X107.611 Y116.239 E28.87977
G1 X112.387 Y116.239 E29.09810
G1 X112.067 Y116.559 E29.11879
G1 X107.931 Y116.559 E29.30787
G0 X108.571 Y117.199 F6000
G1 F1200
G1 X108.251 Y116.879 E29.32855
G1 X111.747 Y116.879 E29.48837
G1 X111.427 Y117.199 E29.50906
G1 X108.571 Y117.199 E29.63962
G0 X109.211 Y117.839 F6000
G1 F1200
G1 X108.891 Y117.519 E29.66031
G1 X111.107 Y117.519 E29.76161
G1 X110.787 Y117.839 E29.78230
G1 X109.211 Y117.839 E29.85434
G0 X109.851 Y118.479 F6000
G1 F1200
G1 X109.531 Y118.159 E29.87503
G1 X110.467 Y118.159 E29.91782
G1 X110.147 Y118.479 E29.93851
G1 X109.851 Y118.479 E29.95204
G92 E0
G1 Z0.4 F3000
G92 E0
G1 E-5 F2400
M106 S170

;LAYER 1 of 38
G0 X109.858 Y120.182 Z0.38 F6000
G1 E0 F2700
G1 F1200
G1 X99.675 Y110 E0.65830
G1 X109.999 Y99.676 E1.32574
G1 X110.14 Y99.817 E1.33486
G1 X120.324 Y110 E1.99322
G1 X110.14 Y120.182 E2.65155
G1 X109.999 Y120.323 E2.66066
G1 X109.858 Y120.182 E2.66978
G0 X109.999 Y119.757 F6000
G1 F1200
G1 X100.241 Y110 E3.30060
G1 X109.999 Y100.242 E3.93145
G1 X119.758 Y110 E4.56233
G1 X109.999 Y119.757 E5.19319
G0 X109.999 Y119.191 F6000
G1 F1200
G1 X100.807 Y110 E5.78741
G1 X109.999 Y100.808 E6.38168
G1 X119.192 Y110 E6.97597
G1 X109.999 Y119.191 E7.57023
G0 X118.481 Y110.146 F6000
G1 F1200
G1 X118.481 Y109.854 E7.58358
G1 X118.627 Y110 E7.59302
G1 X118.481 Y110.146 E7.60245
G0 X117.841 Y110.786 F6000
G1 F1200
G1 X117.841 Y109.214 E7.67432
G1 X118.161 Y109.534 E7.69501
G1 X118.161 Y110.466 E7.73761
G1 X117.841 Y110.786 E7.75830
G0 X117.201 Y111.426 F6000
G1 F1200
G1 X117.201 Y108.574 E7.88868
G1 X117.521 Y108.894 E7.90936
G1 X117.521 Y111.106 E8.01048
G1 X117.201 Y111.426 E8.03117
G0 X116.561 Y112.066 F6000
G1 F1200
G1 X116.561 Y107.934 E8.22006
G1 X116.881 Y108.254 E8.24075
G1 X116.881 Y111.746 E8.40039
G1 X116.561 Y112.066 E8.42107
G0 X115.921 Y112.706 F6000
G1 F1200
G1 X115.921 Y107.295 E8.66843
G1 X116.241 Y107.615 E8.68912
G1 X116.241 Y112.386 E8.90722
G1 X115.921 Y112.706 E8.92791
G0 X115.281 Y113.346 F6000
G1 F1200
G1 X115.281 Y106.655 E9.23379
G1 X115.601 Y106.975 E9.25447
G1 X115.601 Y113.026 E9.53109
G1 X115.281 Y113.346 E9.55178
G0 X114.641 Y113.986 F6000
G1 F1200
G1 X114.641 Y106.015 E9.91617
G1 X114.961 Y106.335 E9.93686
G1 X114.961 Y113.666 E10.27199
G1 X114.641 Y113.986 E10.29268
G0 X114.001 Y114.625 F6000
G1 F1200
G1 X114.001 Y105.375 E10.71553
G1 X114.321 Y105.695 E10.73622
G1 X114.321 Y114.306 E11.12987
G1 X114.001 Y114.625 E11.15052
G0 X113.361 Y115.265 F6000
G1 F1200
G1 X113.361 Y104.735 E11.63189
G1 X113.681 Y105.055 E11.65258
G1 X113.681 Y114.945 E12.10470
G1 X113.361 Y115.265 E12.12538
G0 X112.721 Y115.905 F6000
G1 F1200
G1 X112.721 Y104.095 E12.66527
G1 X113.041 Y104.415 E12.68596
G1 X113.041 Y115.585 E13.19659
G1 X112.721 Y115.905 E13.21727
G0 X112.081 Y116.545 F6000
G1 F1200
G1 X112.081 Y103.456 E13.81563
G1 X112.401 Y103.775 E13.83628
G1 X112.401 Y116.225 E14.40543
G1 X112.081 Y116.545 E14.42611
G0 X111.441 Y117.185 F6000
G1 F1200
G1 X111.441 Y102.816 E15.08298
G1 X111.761 Y103.136 E15.10367
G1 X111.761 Y116.865 E15.73128
G1 X111.441 Y117.185 E15.75197
G0 X110.801 Y117.825 F6000
G1 F1200
G1 X110.801 Y102.176 E16.46735
G1 X111.121 Y102.496 E16.48804
G1 X111.121 Y117.505 E17.17417
G1 X110.801 Y117.825 E17.19485
G0 X110.161 Y118.465 F6000
G1 F1200
G1 X110.161 Y101.536 E17.96875
G1 X110.481 Y101.856 E17.98944
G1 X110.481 Y118.145 E18.73408
G1 X110.161 Y118.465 E18.75477
G0 X109.841 Y118.467 F6000
G1 F1200
G1 X109.521 Y118.147 E18.77546
G1 X109.521 Y101.852 E19.52037
G1 X109.841 Y101.532 E19.54106
G1 X109.841 Y118.467 E20.31523
G0 X109.201 Y117.827 F6000
G1 F1200
G1 X108.881 Y117.507 E20.33592
G1 X108.881 Y102.492 E21.02232
G1 X109.201 Y102.172 E21.04301
G1 X109.201 Y117.827 E21.75866
G0 X108.561 Y117.187 F6000
G1 F1200
G1 X108.241 Y116.867 E21.77935
G1 X108.241 Y103.132 E22.40724
G1 X108.561 Y102.812 E22.42792
G1 X108.561 Y117.187 E23.08507
G0 X107.921 Y116.547 F6000
G1 F1200
G1 X107.601 Y116.227 E23.10575
G1 X107.601 Y103.772 E23.67513
G1 X107.921 Y103.452 E23.69581
G1 X107.921 Y116.547 E24.29444
G0 X107.281 Y115.907 F6000
G1 F1200
G1 X106.961 Y115.587 E24.31513
G1 X106.961 Y104.412 E24.82599
G1 X107.281 Y104.092 E24.84668
G1 X107.281 Y115.907 E25.38679
G0 X106.641 Y115.267 F6000
G1 F1200
G1 X106.321 Y114.947 E25.40748
G1 X106.321 Y105.052 E25.85982
G1 X106.641 Y104.732 E25.88051
G1 X106.641 Y115.267 E26.36211
G0 X106.001 Y114.627 F6000
G1 F1200
G1 X105.681 Y114.308 E26.38276
G1 X105.681 Y105.692 E26.77664
G1 X106.001 Y105.372 E26.79733
G1 X106.001 Y114.627 E27.22041
G0 X105.361 Y113.988 F6000
G1 F1200
G1 X105.041 Y113.668 E27.24110
G1 X105.041 Y106.332 E27.57646
G1 X105.361 Y106.012 E27.59715
G1 X105.361 Y113.988 E27.96177
G0 X104.721 Y113.348 F6000
G1 F1200
G1 X104.401 Y113.028 E27.98245
G1 X104.401 Y106.972 E28.25930
G1 X104.721 Y106.652 E28.27999
G1 X104.721 Y113.348 E28.58609
G0 X104.081 Y112.708 F6000
G1 F1200
G1 X103.761 Y112.388 E28.60678
G1 X103.761 Y107.612 E28.82511
G1 X104.081 Y107.292 E28.84580
G1 X104.081 Y112.708 E29.09339
G0 X103.441 Y112.068 F6000
G1 F1200
G1 X103.121 Y111.748 E29.11407
G1 X103.121 Y108.252 E29.27389
G1 X103.441 Y107.932 E29.29458
G1 X103.441 Y112.068 E29.48365
G0 X102.801 Y111.428 F6000
G1 F1200
G1 X102.481 Y111.108 E29.50434
G1 X102.481 Y108.892 E29.60564
G1 X102.801 Y108.572 E29.62633
G1 X102.801 Y111.428 E29.75689
G0 X102.161 Y110.788 F6000
G1 F1200
G1 X101.841 Y110.468 E29.77758
G1 X101.841 Y109.532 E29.82037
G1 X102.161 Y109.212 E29.84106
G1 X102.161 Y110.788 E29.91310
G0 X101.521 Y110.148 F6000
G1 F1200
G1 X101.373 Y110 E29.92267
G1 X101.521 Y109.852 E29.93224
G1 X101.521 Y110.148 E29.94577
G92 E0
G1 Z0.6 F3000
G92 E0
G1 E-5 F2400

;LAYER 2 of 38
G0 X109.575 Y119.899 Z0.58 F6000
G1 E0 F2700
G1 F1200
G1 X99.675 Y110 E0.64000
G1 X110 Y99.676 E1.30748
G1 X120.324 Y110 E1.97492
G1 X110.424 Y119.899 E2.61492
G1 X110 Y120.324 E2.64237
G1 X109.575 Y119.899 E2.66984
G0 X110 Y119.758 F6000
G1 F1200
G1 X109.858 Y119.616 E2.67902
G1 X100.241 Y110 E3.30073
G1 X110 Y100.242 E3.93161
G1 X119.758 Y110 E4.56246
G1 X110.141 Y119.616 E5.18417
G1 X110 Y119.758 E5.19332
G0 X110 Y119.192 F6000
G1 F1200
G1 X100.807 Y110 E5.78761
G1 X110 Y100.808 E6.38190
G1 X119.192 Y110 E6.97616
G1 X110 Y119.192 E7.57042
G0 X109.533 Y101.839 F6000
G1 F1200
G1 X109.853 Y101.519 E7.59111
G1 X110.145 Y101.519 E7.60446
G1 X110.465 Y101.839 E7.62515
G1 X109.533 Y101.839 E7.66775
G0 X108.893 Y102.479 F6000
G1 F1200
G1 X109.213 Y102.159 E7.68844
G1 X110.785 Y102.159 E7.76030
G1 X111.105 Y102.479 E7.78099
G1 X108.893 Y102.479 E7.88211
G0 X108.253 Y103.119 F6000
G1 F1200
G1 X108.573 Y102.799 E7.90280
G1 X111.425 Y102.799 E8.03318
G1 X111.745 Y103.119 E8.05386
G1 X108.253 Y103.119 E8.21350
G0 X107.613 Y103.759 F6000
G1 F1200
G1 X107.933 Y103.439 E8.23419
G1 X112.065 Y103.439 E8.42308
G1 X112.385 Y103.759 E8.44377
G1 X107.613 Y103.759 E8.66191
G0 X106.973 Y104.399 F6000
G1 F1200
G1 X107.293 Y104.079 E8.68260
G1 X112.705 Y104.079 E8.93001
G1 X113.025 Y104.399 E8.95070
G1 X106.973 Y104.399 E9.22736
G0 X106.333 Y105.039 F6000
G1 F1200
G1 X106.653 Y104.719 E9.24805
G1 X113.345 Y104.719 E9.55397
G1 X113.665 Y105.039 E9.57465
G1 X106.333 Y105.039 E9.90983
G0 X105.693 Y105.679 F6000
G1 F1200
G1 X106.013 Y105.359 E9.93052
G1 X113.985 Y105.359 E10.29495
G1 X114.305 Y105.679 E10.31564
G1 X105.693 Y105.679 E10.70933
G0 X105.053 Y106.319 F6000
G1 F1200
G1 X105.373 Y105.999 E10.73002
G1 X114.625 Y105.999 E11.15297
G1 X114.945 Y106.319 E11.17366
G1 X105.053 Y106.319 E11.62586
G0 X104.413 Y106.959 F6000
G1 F1200
G1 X104.733 Y106.639 E11.64655
G1 X115.265 Y106.639 E12.12801
G1 X115.585 Y106.959 E12.14870
G1 X104.413 Y106.959 E12.65942
G0 X103.773 Y107.599 F6000
G1 F1200
G1 X104.093 Y107.279 E12.68011
G1 X115.905 Y107.279 E13.22009
G1 X116.225 Y107.599 E13.24078
G1 X103.773 Y107.599 E13.81001
G0 X103.133 Y108.239 F6000
G1 F1200
G1 X103.453 Y107.919 E13.83070
G1 X116.545 Y107.919 E14.42919
G1 X116.865 Y108.239 E14.44988
G1 X103.133 Y108.239 E15.07763
G0 X102.493 Y108.879 F6000
G1 F1200
G1 X102.813 Y108.559 E15.09831
G1 X117.185 Y108.559 E15.75532
G1 X117.505 Y108.879 E15.77601
G1 X102.493 Y108.879 E16.46227
G0 X101.853 Y109.519 F6000
G1 F1200
G1 X102.173 Y109.199 E16.48296
G1 X117.825 Y109.199 E17.19848
G1 X118.145 Y109.519 E17.21917
G1 X101.853 Y109.519 E17.96394
G0 X101.531 Y110.159 F6000
G1 F1200
G1 X101.372 Y110 E17.97422
G1 X101.533 Y109.839 E17.98463
G1 X118.465 Y109.839 E18.75867
G1 X118.626 Y110 E18.76907
G1 X118.467 Y110.159 E18.77935
G1 X101.531 Y110.159 E19.55357
G0 X102.171 Y110.799 F6000
G1 F1200
G1 X101.851 Y110.479 E19.57426
G1 X118.147 Y110.479 E20.31922
G1 X117.827 Y110.799 E20.33991
G1 X102.171 Y110.799 E21.05561
G0 X102.811 Y111.439 F6000
G1 F1200
G1 X102.491 Y111.119 E21.07630
G1 X117.507 Y111.119 E21.76274
G1 X117.187 Y111.439 E21.78343
G1 X102.811 Y111.439 E22.44062
G0 X103.451 Y112.079 F6000
G1 F1200
G1 X103.131 Y111.759 E22.46131
G1 X116.867 Y111.759 E23.08924
G1 X116.547 Y112.079 E23.10993
G1 X103.451 Y112.079 E23.70860
G0 X104.092 Y112.719 F6000
G1 F1200
G1 X103.772 Y112.399 E23.72929
G1 X116.227 Y112.399 E24.29866
G1 X115.907 Y112.719 E24.31935
G1 X104.092 Y112.719 E24.85946
G0 X104.732 Y113.359 F6000
G1 F1200
G1 X104.412 Y113.039 E24.88015
G1 X115.587 Y113.039 E25.39101
G1 X115.267 Y113.359 E25.41170
G1 X104.732 Y113.359 E25.89330
G0 X105.372 Y113.999 F6000
G1 F1200
G1 X105.052 Y113.679 E25.91398
G1 X114.947 Y113.679 E26.36633
G1 X114.627 Y113.999 E26.38701
G1 X105.372 Y113.999 E26.81010
G0 X106.012 Y114.639 F6000
G1 F1200
G1 X105.692 Y114.319 E26.83079
G1 X114.307 Y114.319 E27.22462
G1 X113.987 Y114.639 E27.24530
G1 X106.012 Y114.639 E27.60988
G0 X106.652 Y115.279 F6000
G1 F1200
G1 X106.332 Y114.959 E27.63056
G1 X113.667 Y114.959 E27.96588
G1 X113.347 Y115.279 E27.98657
G1 X106.652 Y115.279 E28.29262
G0 X107.292 Y115.919 F6000
G1 F1200
G1 X106.972 Y115.599 E28.31331
G1 X113.027 Y115.599 E28.59011
G1 X112.707 Y115.919 E28.61080
G1 X107.292 Y115.919 E28.85834
G0 X107.933 Y116.559 F6000
G1 F1200
G1 X107.612 Y116.239 E28.87906
G1 X112.387 Y116.239 E29.09735
G1 X112.067 Y116.559 E29.11804
G1 X107.933 Y116.559 E29.30702
G0 X108.573 Y117.199 F6000
G1 F1200
G1 X108.253 Y116.879 E29.32771
G1 X111.747 Y116.879 E29.48743
G1 X111.427 Y117.199 E29.50812
G1 X108.573 Y117.199 E29.63859
G0 X109.213 Y117.839 F6000
G1 F1200
G1 X108.893 Y117.519 E29.65928
G1 X111.107 Y117.519 E29.76049
G1 X110.787 Y117.839 E29.78118
G1 X109.213 Y117.839 E29.85313
G0 X109.853 Y118.479 F6000
G1 F1200
G1 X109.533 Y118.159 E29.87382
G1 X110.467 Y118.159 E29.91651
G1 X110.147 Y118.479 E29.93720
G1 X109.853 Y118.479 E29.95064
G92 E0
G1 Z0.8 F3000
G92 E0
G1 E-5 F2400

;LAYER 3 of 38
G0 X109.292 Y119.616 Z0.78 F6000
G1 E0 F2700
G1 F1200
G1 X109.292 Y119.617 E0.00005
G1 X99.675 Y110 E0.62178
G1 X109.292 Y100.382 E1.24355
G1 X109.292 Y100.383 E1.24360
G1 X110 Y99.675 E1.28937
G1 X110.707 Y100.382 E1.33508
G1 X120.324 Y110 E1.95685
G1 X110 Y120.324 E2.62429
G1 X109.292 Y119.616 E2.67006
G0 X110 Y119.758 F6000
G1 F1200
G1 X108.892 Y118.65 E2.74169
G1 X100.241 Y110 E3.30095
G1 X108.892 Y101.348 E3.86026
G1 X110 Y100.241 E3.93186
G1 X110.424 Y100.665 E3.95928
G1 X119.758 Y110 E4.56275
G1 X110 Y119.758 E5.19360
G0 X110 Y119.192 F6000
G1 F1200
G1 X108.492 Y117.685 E5.29106
G1 X100.807 Y110 E5.78789
G1 X108.492 Y102.314 E6.28476
G1 X110 Y100.807 E6.38222
