;Generated with Pancakes - © 2019 Lieven Libberecht, William Thenaers

;Setup
M140 S50
M104 S200
M105
M190 S50
M109 S200
M82
G21
M201 X500.0 Y500.0 Z100.0 E5000.0
M203 X500.0 Y500.0 Z10.0 E50.0
M204 P500.0 R1000.0 T500.0
M205 X8.0 Y8.0 Z0.4 E5.0
M220 S100.0
M221 S100.0
G28
G92 E0
G1 Z2.0 F3000
G1 X10.1 Y20.0 Z0.28 F5000
G1 X10.1 Y200.0 Z0.28 E15 F1500
G1 X10.4 Y200.0 Z0.28 F5000
G1 X10.4 Y20.0 Z0.28 E30 F1500
G92 E0
G1 Z2.0 F3000
G92 E0
G1 E-5 F2700
M107
G1 E0 F1500

;Print

;LAYER 0 of 38
M106 S85
G0 X99.675 Y110 Z0.18 F6000
G1 E0 F2700
G1 F1200
G1 X110 Y99.675 E0.44119
G1 X120.324 Y110 E0.88236
G1 X110 Y120.324 E1.32351
G1 X99.675 Y110 E1.76468
G0 X110 Y119.758 F6000
G1 F1200
G1 X100.241 Y110 E2.18166
G1 X110 Y100.241 E2.59867
G1 X119.758 Y110 E3.01565
G1 X110 Y119.758 E3.43261
G0 X108.807 Y102 F6000
G1 F1200
G1 X109.447 Y101.36 E3.45996
G1 X110.553 Y101.36 E3.49338
G1 X111.193 Y102 E3.52073
G1 X108.807 Y102 E3.59282
G0 X107.527 Y103.28 F6000
G1 F1200
G1 X108.167 Y102.64 E3.62017
G1 X111.833 Y102.64 E3.73093
G1 X112.473 Y103.28 E3.75828
G1 X107.527 Y103.28 E3.90772
G0 X106.247 Y104.56 F6000
G1 F1200
G1 X106.887 Y103.92 E3.93507
G1 X113.113 Y103.92 E4.12319
G1 X113.753 Y104.56 E4.15054
G1 X106.247 Y104.56 E4.37733
G0 X104.967 Y105.84 F6000
G1 F1200
G1 X105.607 Y105.2 E4.40468
G1 X114.393 Y105.2 E4.67014
G1 X115.032 Y105.84 E4.69747
G1 X104.967 Y105.84 E5.00158
G0 X103.687 Y107.12 F6000
G1 F1200
G1 X104.327 Y106.48 E5.02893
G1 X115.672 Y106.48 E5.37172
G1 X116.312 Y107.12 E5.39907
G1 X103.687 Y107.12 E5.78053
G0 X102.407 Y108.4 F6000
G1 F1200
G1 X103.047 Y107.76 E5.80788
G1 X116.952 Y107.76 E6.22802
G1 X117.592 Y108.4 E6.25536
G1 X102.407 Y108.4 E6.71418
G0 X101.127 Y109.68 F6000
G1 F1200
G1 X101.767 Y109.04 E6.74152
G1 X118.232 Y109.04 E7.23901
G1 X118.872 Y109.68 E7.26636
G1 X101.127 Y109.68 E7.80252
G0 X101.767 Y110.96 F6000
G1 F1200
G1 X101.127 Y110.32 E7.82987
G1 X118.872 Y110.32 E8.36603
G1 X118.232 Y110.96 E8.39338
G1 X101.767 Y110.96 E8.89087
G0 X103.047 Y112.24 F6000
G1 F1200
G1 X102.407 Y111.6 E8.91822
G1 X117.592 Y111.6 E9.37703
G1 X116.952 Y112.24 E9.40438
G1 X103.047 Y112.24 E9.82452
G0 X104.327 Y113.52 F6000
G1 F1200
G1 X103.687 Y112.88 E9.85186
G1 X116.312 Y112.88 E10.23333
G1 X115.672 Y113.52 E10.26067
G1 X104.327 Y113.52 E10.60346
G0 X105.608 Y114.8 F6000
G1 F1200
G1 X104.967 Y114.16 E10.63083
G1 X115.032 Y114.16 E10.93494
G1 X114.392 Y114.8 E10.96229
G1 X105.608 Y114.8 E11.22770
G0 X106.888 Y116.08 F6000
G1 F1200
G1 X106.248 Y115.44 E11.25505
G1 X113.752 Y115.44 E11.48178
G1 X113.112 Y116.08 E11.50913
G1 X106.888 Y116.08 E11.69718
G0 X108.168 Y117.36 F6000
G1 F1200
G1 X107.528 Y116.72 E11.72453
G1 X112.472 Y116.72 E11.87391
G1 X111.832 Y117.36 E11.90126
G1 X108.168 Y117.36 E12.01197
G0 X109.448 Y118.64 F6000
G1 F1200
G1 X108.808 Y118 E12.03932
G1 X111.192 Y118 E12.11135
G1 X110.552 Y118.64 E12.13870
G1 X109.448 Y118.64 E12.17205
G92 E0
G1 Z0.4 F3000
G92 E0
G1 E-5 F2400
M106 S170

;LAYER 1 of 38
G0 X99.817 Y110.14 Z0.38 F6000
G1 E0 F2700
G1 F1200
G1 X99.676 Y109.999 E0.00602
G1 X110 Y99.675 E0.44717
G1 X120.182 Y109.858 E0.88227
G1 X120.323 Y109.999 E0.88830
G1 X120.182 Y110.14 E0.89432
G1 X110 Y120.324 E1.32945
G1 X99.817 Y110.14 E1.76459
G0 X110 Y119.758 F6000
G1 F1200
G1 X100.242 Y109.999 E2.18158
G1 X110 Y100.241 E2.59854
G1 X119.757 Y109.999 E3.01548
G1 X110 Y119.758 E3.43244
G0 X118 Y111.19 F6000
G1 F1200
G1 X118 Y108.808 E3.50441
G1 X118.64 Y109.448 E3.53176
G1 X118.64 Y110.55 E3.56506
G1 X118 Y111.19 E3.59241
G0 X116.72 Y112.471 F6000
G1 F1200
G1 X116.72 Y107.528 E3.74176
G1 X117.36 Y108.168 E3.76910
G1 X117.36 Y111.83 E3.87975
G1 X116.72 Y112.471 E3.90712
G0 X115.44 Y113.751 F6000
G1 F1200
G1 X115.44 Y106.248 E4.13382
G1 X116.08 Y106.888 E4.16117
G1 X116.08 Y113.111 E4.34920
G1 X115.44 Y113.751 E4.37655
G0 X114.16 Y115.031 F6000
G1 F1200
G1 X114.16 Y104.967 E4.68063
G1 X114.8 Y105.608 E4.70800
G1 X114.8 Y114.391 E4.97337
G1 X114.16 Y115.031 E5.00072
G0 X112.88 Y116.311 F6000
G1 F1200
G1 X112.88 Y103.687 E5.38215
G1 X113.52 Y104.327 E5.40950
G1 X113.52 Y115.671 E5.75226
G1 X112.88 Y116.311 E5.77961
G0 X111.6 Y117.592 F6000
G1 F1200
G1 X111.6 Y102.407 E6.23842
G1 X112.24 Y103.047 E6.26577
G1 X112.24 Y116.952 E6.68591
G1 X111.6 Y117.592 E6.71325
G0 X110.32 Y118.872 F6000
G1 F1200
G1 X110.32 Y101.127 E7.24942
G1 X110.96 Y101.767 E7.27676
G1 X110.96 Y118.232 E7.77425
G1 X110.32 Y118.872 E7.80160
G0 X109.68 Y118.872 F6000
G1 F1200
G1 X109.04 Y118.232 E7.82895
G1 X109.04 Y101.767 E8.32644
G1 X109.68 Y101.127 E8.35378
G1 X109.68 Y118.872 E8.88995
G0 X108.4 Y117.592 F6000
G1 F1200
G1 X107.76 Y116.952 E8.91729
G1 X107.76 Y103.047 E9.33743
G1 X108.4 Y102.407 E9.36478
G1 X108.4 Y117.592 E9.82359
G0 X107.12 Y116.312 F6000
G1 F1200
G1 X106.48 Y115.672 E9.85094
G1 X106.48 Y104.327 E10.19373
G1 X107.12 Y103.687 E10.22108
G1 X107.12 Y116.312 E10.60254
G0 X105.84 Y115.032 F6000
G1 F1200
G1 X105.2 Y114.391 E10.62991
G1 X105.2 Y105.607 E10.89532
G1 X105.84 Y104.967 E10.92266
G1 X105.84 Y115.032 E11.22678
G0 X104.56 Y113.751 F6000
G1 F1200
G1 X103.92 Y113.111 E11.25412
G1 X103.92 Y106.887 E11.44218
G1 X104.56 Y106.247 E11.46953
G1 X104.56 Y113.751 E11.69626
G0 X103.28 Y112.471 F6000
G1 F1200
G1 X102.64 Y111.831 E11.72361
G1 X102.64 Y108.167 E11.83432
G1 X103.28 Y107.527 E11.86166
G1 X103.28 Y112.471 E12.01105
G0 X102 Y111.191 F6000
G1 F1200
G1 X101.36 Y110.551 E12.03839
G1 X101.36 Y109.447 E12.07175
G1 X102 Y108.807 E12.09910
G1 X102 Y111.191 E12.17113
G92 E0
G1 Z0.6 F3000
G92 E0
G1 E-5 F2400

;LAYER 2 of 38
G0 X99.676 Y110 Z0.58 F6000
G1 E0 F2700
G1 F1200
G1 X110 Y99.675 E0.44117
G1 X119.899 Y109.575 E0.86418
G1 X120.324 Y110 E0.88234
G1 X119.899 Y110.424 E0.90048
G1 X110 Y120.324 E1.32349
G1 X99.676 Y110 E1.76463
G0 X110 Y119.758 F6000
G1 F1200
G1 X100.242 Y110 E2.18160
G1 X110 Y100.241 E2.59858
G1 X119.616 Y109.858 E3.00950
G1 X119.758 Y110 E3.01556
G1 X119.616 Y110.141 E3.02161
G1 X110 Y119.758 E3.43253
G0 X105.008 Y105.8 F6000
G1 F1200
G1 X107.807 Y103 E3.55215
G1 X112.193 Y103 E3.68467
G1 X114.992 Y105.8 E3.80430
G1 X105.008 Y105.8 E4.10596
G0 X102.207 Y111.399 F6000
G1 F1200
G1 X100.808 Y110 E4.16574
G1 X102.208 Y108.6 E4.22556
G1 X117.792 Y108.6 E4.69643
G1 X119.192 Y110 E4.75626
G1 X117.793 Y111.399 E4.81604
G1 X102.207 Y111.399 E5.28697
G0 X107.807 Y116.999 F6000
G1 F1200
G1 X105.007 Y114.199 E5.40661
G1 X114.993 Y114.199 E5.70834
G1 X112.193 Y116.999 E5.82798
G1 X107.807 Y116.999 E5.96050
G0 X105.8 Y114.992 F6000
G1 F1200
G1 X103 Y112.192 E6.08015
G1 X103 Y107.808 E6.21261
G1 X105.8 Y105.007 E6.33228
G1 X105.8 Y114.992 E6.63397
G0 X110 Y119.192 F6000
G1 F1200
G1 X108.6 Y117.792 E6.69380
G1 X108.6 Y102.207 E7.16469
G1 X110 Y100.807 E7.22452
G1 X111.399 Y102.206 E7.28430
G1 X111.399 Y117.793 E7.75526
G1 X110 Y119.192 E7.81504
G0 X114.199 Y114.993 F6000
G1 F1200
G1 X114.199 Y105.006 E8.11679
G1 X116.999 Y107.807 E8.23646
G1 X116.999 Y112.193 E8.36898
G1 X114.199 Y114.993 E8.48863
G92 E0
G1 Z0.8 F3000
G92 E0
G1 E-5 F2400

;LAYER 3 of 38
G0 X100.382 Y110.707 Z0.78 F6000
G1 E0 F2700
G1 F1200
G1 X99.675 Y110 E0.03021
G1 X100.383 Y109.292 E0.06046
G1 X100.382 Y109.292 E0.06049
G1 X110 Y99.675 E0.47145
G1 X119.617 Y109.292 E0.88239
G1 X119.616 Y109.292 E0.88242
G1 X120.324 Y110 E0.91267
G1 X110 Y120.324 E1.35382
G1 X100.382 Y110.707 E1.76478
G0 X110 Y119.758 F6000
G1 F1200
G1 X100.665 Y110.424 E2.16365
G1 X100.241 Y110 E2.18176
G1 X110 Y100.241 E2.59877
G1 X118.651 Y108.892 E2.96843
G1 X119.758 Y110 E3.01575
G1 X110 Y119.758 E3.43272
G0 X105.006 Y105.8 F6000
G1 F1200
G1 X107.807 Y103 E3.55238
G1 X112.193 Y103 E3.68490
G1 X114.993 Y105.8 E3.80455
G1 X105.006 Y105.8 E4.10631
G0 X102.206 Y111.399 F6000
G1 F1200
G1 X100.807 Y110 E4.16609
G1 X102.206 Y108.6 E4.22589
G1 X117.793 Y108.6 E4.69685
G1 X119.192 Y110 E4.75665
G1 X117.793 Y111.399 E4.81643
G1 X102.206 Y111.399 E5.28739
G0 X107.807 Y116.999 F6000
G1 F1200
G1 X105.006 Y114.199 E5.40705
G1 X114.993 Y114.199 E5.70881
G1 X112.193 Y116.999 E5.82845
G1 X107.807 Y116.999 E5.96098
G0 X105.8 Y114.992 F6000
G1 F1200
G1 X103 Y112.193 E6.08060
G1 X103 Y107.806 E6.21315
G1 X105.8 Y105.006 E6.33280
G1 X105.8 Y114.992 E6.63452
G0 X110 Y119.192 F6000
G1 F1200
G1 X108.6 Y117.792 E6.69435
G1 X108.6 Y102.207 E7.16525
G1 X110 Y100.807 E7.22507
G1 X111.399 Y102.206 E7.28485
G1 X111.399 Y117.793 E7.75581
G1 X110 Y119.192 E7.81559
G0 X114.199 Y114.993 F6000
G1 F1200
G1 X114.199 Y105.006 E8.11734
G1 X116.999 Y107.806 E8.23699
G1 X116.999 Y112.193 E8.36954
G1 X114.199 Y114.993 E8.48919
G92 E0
G1 Z1 F3000
G92 E0
G1 E-5 F2400

;LAYER 4 of 38
G0 X100.665 Y110.99 Z0.98 F6000
G1 E0 F2700
G1 F1200
G1 X99.675 Y110 E0.04230
G1 X100.665 Y109.009 E0.08463
G1 X110 Y99.675 E0.48349
G1 X119.334 Y109.009 E0.88234
G1 X120.324 Y110 E0.92466
G1 X110 Y120.324 E1.36581
G1 X100.665 Y110.99 E1.76468
G0 X110 Y119.758 F6000
G1 F1200
G1 X100.948 Y110.707 E2.15145
G1 X100.241 Y110 E2.18166
G1 X100.948 Y109.292 E2.21189
G1 X110 Y100.241 E2.59867
G1 X119.051 Y109.292 E2.98542
G1 X119.758 Y110 E3.01565
G1 X110 Y119.758 E3.43261
G0 X105.006 Y105.8 F6000
G1 F1200
G1 X107.807 Y103 E3.55228
G1 X112.193 Y103 E3.68480
G1 X114.993 Y105.8 E3.80445
G1 X105.006 Y105.8 E4.10620
G0 X102.206 Y111.399 F6000
G1 F1200
G1 X100.806 Y109.999 E4.16603
G1 X101.231 Y109.575 E4.18416
G1 X102.206 Y108.6 E4.22583
G1 X117.793 Y108.6 E4.69679
G1 X118.768 Y109.575 E4.73845
G1 X119.193 Y109.999 E4.75659
G1 X117.793 Y111.399 E4.81641
G1 X102.206 Y111.399 E5.28737
G0 X107.807 Y116.999 F6000
G1 F1200
G1 X105.006 Y114.199 E5.40704
G1 X114.993 Y114.199 E5.70879
G1 X112.193 Y116.999 E5.82844
G1 X107.807 Y116.999 E5.96096
G0 X105.8 Y114.992 F6000
G1 F1200
G1 X103 Y112.193 E6.08058
G1 X103 Y107.806 E6.21314
G1 X105.8 Y105.007 E6.33276
G1 X105.8 Y114.992 E6.63445
G0 X110 Y119.192 F6000
G1 F1200
G1 X108.6 Y117.792 E6.69428
G1 X108.6 Y102.207 E7.16518
G1 X110 Y100.807 E7.22500
G1 X111.399 Y102.206 E7.28478
G1 X111.399 Y117.793 E7.75574
G1 X110 Y119.192 E7.81552
G0 X114.199 Y114.993 F6000
G1 F1200
G1 X114.199 Y105.006 E8.11727
G1 X116.999 Y107.806 E8.23692
G1 X116.999 Y112.193 E8.36947
G1 X114.199 Y114.993 E8.48912
G92 E0
G1 Z1.2 F3000
G92 E0
G1 E-5 F2400

;LAYER 5 of 38
G0 X100.948 Y111.273 Z1.18 F6000
G1 E0 F2700
G1 F1200
G1 X99.675 Y110 E0.05440
G1 X100.948 Y108.726 E0.10881
G1 X110 Y99.675 E0.49559
G1 X119.051 Y108.726 E0.88234
G1 X120.324 Y110 E0.93676
G1 X110 Y120.324 E1.37790
G1 X100.948 Y111.273 E1.76468
G0 X110 Y119.758 F6000
G1 F1200
G1 X101.231 Y110.99 E2.13936
G1 X100.241 Y110 E2.18166
G1 X101.231 Y109.009 E2.22399
G1 X110 Y100.241 E2.59867
G1 X118.768 Y109.009 E2.97333
G1 X119.758 Y110 E3.01565
G1 X110 Y119.758 E3.43261
G0 X105.006 Y105.8 F6000
G1 F1200
G1 X107.807 Y103 E3.55228
G1 X112.193 Y103 E3.68480
G1 X114.993 Y105.8 E3.80445
G1 X105.006 Y105.8 E4.10620
G0 X102.206 Y111.399 F6000
G1 F1200
G1 X100.806 Y109.999 E4.16603
G1 X101.514 Y109.292 E4.19626
G1 X102.206 Y108.6 E4.22583
G1 X117.793 Y108.6 E4.69679
G1 X118.485 Y109.292 E4.72636
G1 X119.193 Y109.999 E4.75659
G1 X117.793 Y111.399 E4.81641
G1 X102.206 Y111.399 E5.28737
G0 X107.807 Y116.999 F6000
G1 F1200
G1 X105.006 Y114.199 E5.40704
G1 X114.993 Y114.199 E5.70879
G1 X112.193 Y116.999 E5.82844
G1 X107.807 Y116.999 E5.96096
G0 X105.8 Y114.992 F6000
G1 F1200
G1 X103 Y112.193 E6.08058
G1 X103 Y107.806 E6.21314
G1 X105.8 Y105.007 E6.33276
G1 X105.8 Y114.992 E6.63445
G0 X110 Y119.192 F6000
G1 F1200
G1 X108.6 Y117.792 E6.69428
G1 X108.6 Y102.207 E7.16518
G1 X110 Y100.807 E7.22500
G1 X111.399 Y102.206 E7.28478
G1 X111.399 Y117.793 E7.75574
G1 X110 Y119.192 E7.81552
G0 X114.199 Y114.993 F6000
G1 F1200
G1 X114.199 Y105.006 E8.11727
G1 X116.999 Y107.806 E8.23692
G1 X116.999 Y112.193 E8.36947
G1 X114.199 Y114.993 E8.48912
G92 E0
G1 Z1.4 F3000
G92 E0
G1 E-5 F2400

;LAYER 6 of 38
G0 X101.231 Y111.556 Z1.38 F6000
G1 E0 F2700
G1 F1200
G1 X99.675 Y110 E0.06649
G1 X101.231 Y108.443 E0.13300
G1 X110 Y99.675 E0.50768
G1 X118.768 Y108.443 E0.88234
G1 X120.324 Y110 E0.94885
G1 X110 Y120.324 E1.39000
G1 X101.231 Y111.556 E1.76468
G0 X110 Y119.758 F6000
G1 F1200
G1 X101.514 Y111.273 E2.12727
G1 X100.241 Y110 E2.18166
G1 X101.514 Y108.726 E2.23608
G1 X110 Y100.241 E2.59867
G1 X118.485 Y108.726 E2.96123
G1 X119.758 Y110 E3.01565
G1 X110 Y119.758 E3.43261
G0 X105.006 Y105.8 F6000
G1 F1200
G1 X107.807 Y103 E3.55228
G1 X112.193 Y103 E3.68480
G1 X114.993 Y105.8 E3.80445
G1 X105.006 Y105.8 E4.10620
G0 X102.206 Y111.399 F6000
G1 F1200
G1 X100.807 Y110 E4.16598
G1 X101.797 Y109.009 E4.20831
G1 X102.206 Y108.6 E4.22578
G1 X117.793 Y108.6 E4.69674
G1 X118.202 Y109.009 E4.71422
G1 X119.192 Y110 E4.75654
G1 X117.793 Y111.399 E4.81632
G1 X102.206 Y111.399 E5.28728
G0 X107.807 Y116.999 F6000
G1 F1200
G1 X105.006 Y114.199 E5.40695
G1 X114.993 Y114.199 E5.70871
G1 X112.193 Y116.999 E5.82835
G1 X107.807 Y116.999 E5.96087
G0 X105.8 Y114.993 F6000
G1 F1200
G1 X103 Y112.193 E6.08052
G1 X103 Y107.806 E6.21307
G1 X105.8 Y105.006 E6.33272
G1 X105.8 Y114.993 E6.63447
G0 X110 Y119.192 F6000
G1 F1200
G1 X108.6 Y117.792 E6.69429
G1 X108.6 Y102.207 E7.16519
G1 X110 Y100.807 E7.22502
G1 X111.399 Y102.206 E7.28480
G1 X111.399 Y117.793 E7.75576
G1 X110 Y119.192 E7.81554
G0 X114.199 Y114.993 F6000
G1 F1200
G1 X114.199 Y105.006 E8.11729
G1 X116.999 Y107.806 E8.23694
G1 X116.999 Y112.193 E8.36949
G1 X114.199 Y114.993 E8.48913
G92 E0
G1 Z1.6 F3000
G92 E0
G1 E-5 F2400

;LAYER 7 of 38
G0 X101.514 Y111.838 Z1.58 F6000
G1 E0 F2700
G1 F1200
G1 X99.675 Y110 E0.07856
G1 X110 Y99.675 E0.51975
G1 X118.485 Y108.161 E0.88234
G1 X120.324 Y110 E0.96092
G1 X118.485 Y111.838 E1.03948
G1 X110 Y120.324 E1.40207
G1 X101.514 Y111.838 E1.76468
G0 X110 Y119.758 F6000
G1 F1200
G1 X101.797 Y111.555 E2.11519
G1 X100.241 Y110 E2.18166
G1 X110 Y100.241 E2.59867
G1 X118.202 Y108.444 E2.94916
G1 X119.758 Y110 E3.01565
G1 X118.202 Y111.555 E3.08212
G1 X110 Y119.758 E3.43261
G0 X105.007 Y105.8 F6000
G1 F1200
G1 X107.807 Y103 E3.55226
G1 X112.193 Y103 E3.68478
G1 X114.992 Y105.8 E3.80440
G1 X105.007 Y105.8 E4.10610
G0 X102.207 Y111.399 F6000
G1 F1200
G1 X102.08 Y111.272 E4.11153
G1 X100.807 Y110 E4.16590
G1 X102.207 Y108.6 E4.22572
G1 X117.792 Y108.6 E4.69662
G1 X119.192 Y110 E4.75644
G1 X117.919 Y111.272 E4.81082
G1 X117.792 Y111.399 E4.81625
G1 X102.207 Y111.399 E5.28715
G0 X107.807 Y116.999 F6000
G1 F1200
G1 X105.007 Y114.199 E5.40679
G1 X114.992 Y114.199 E5.70849
G1 X112.193 Y116.999 E5.82811
G1 X107.807 Y116.999 E5.96063
G0 X105.8 Y114.992 F6000
G1 F1200
G1 X103 Y112.192 E6.08028
G1 X103 Y107.807 E6.21277
G1 X105.8 Y105.007 E6.33241
G1 X105.8 Y114.992 E6.63411
G0 X110 Y119.192 F6000
G1 F1200
G1 X108.6 Y117.792 E6.69393
G1 X108.6 Y102.207 E7.16483
G1 X110 Y100.807 E7.22465
G1 X111.399 Y102.206 E7.28443
G1 X111.399 Y117.793 E7.75539
G1 X110 Y119.192 E7.81517
G0 X114.199 Y114.992 F6000
G1 F1200
G1 X114.199 Y105.007 E8.11687
G1 X116.999 Y107.807 E8.23651
G1 X116.999 Y112.192 E8.36901
G1 X114.199 Y114.992 E8.48865
G92 E0
G1 Z1.8 F3000
G92 E0
G1 E-5 F2400

;LAYER 8 of 38
G0 X101.797 Y112.121 Z1.78 F6000
G1 E0 F2700
G1 F1200
G1 X99.675 Y110 E0.09065
G1 X110 Y99.675 E0.53184
G1 X118.202 Y107.878 E0.88234
G1 X120.324 Y110 E0.97301
G1 X118.202 Y112.121 E1.06366
G1 X110 Y120.324 E1.41416
G1 X101.797 Y112.121 E1.76468
G0 X110 Y119.758 F6000
G1 F1200
G1 X102.08 Y111.838 E2.10310
G1 X100.241 Y110 E2.18166
G1 X110 Y100.241 E2.59867
G1 X117.919 Y108.161 E2.93707
G1 X119.758 Y110 E3.01565
G1 X117.919 Y111.838 E3.09421
G1 X110 Y119.758 E3.43261
G0 X105.007 Y105.8 F6000
G1 F1200
G1 X107.807 Y103 E3.55226
G1 X112.193 Y103 E3.68478
G1 X114.992 Y105.8 E3.80440
G1 X105.007 Y105.8 E4.10610
G0 X102.207 Y111.399 F6000
G1 F1200
G1 X100.807 Y110 E4.16590
G1 X102.207 Y108.6 E4.22572
G1 X117.792 Y108.6 E4.69662
G1 X119.192 Y110 E4.75644
G1 X117.792 Y111.399 E4.81625
G1 X102.207 Y111.399 E5.28715
G0 X107.807 Y116.999 F6000
G1 F1200
G1 X105.007 Y114.199 E5.40679
G1 X114.992 Y114.199 E5.70849
G1 X112.193 Y116.999 E5.82811
G1 X107.807 Y116.999 E5.96063
G0 X105.8 Y114.992 F6000
G1 F1200
G1 X103 Y112.192 E6.08028
G1 X103 Y107.807 E6.21277
G1 X105.8 Y105.007 E6.33241
