;Generated with Pancakes - © 2019 Lieven Libberecht, William Thenaers

;Setup
M140 S50
M104 S200
M105
M190 S50
M109 S200
M82
G21
M201 X500.0 Y500.0 Z100.0 E5000.0
M203 X500.0 Y500.0 Z10.0 E50.0
M204 P500.0 R1000.0 T500.0
M205 X8.0 Y8.0 Z0.4 E5.0
M220 S100.0
M221 S100.0
G28
G92 E0
G1 Z2.0 F3000
G1 X10.1 Y20.0 Z0.28 F5000
G1 X10.1 Y200.0 Z0.28 E15 F1500
G1 X10.4 Y200.0 Z0.28 F5000
G1 X10.4 Y20.0 Z0.28 E30 F1500
G92 E0
G1 Z2.0 F3000
G92 E0
G92 E0
G1 E-5 F2700
M107
G1 E0 F1500

;Print

;LAYER 0 of 76
M107
G1 E0 F2700
G0 X111.05 Y112.696 Z0.18 F6000
G1 F1200
G1 X118.55 Y112.696 E0.22661
G1 X118.55 Y112.8 E0.22975
G1 X101.45 Y112.8 E0.74643
G1 X101.45 Y112.616 E0.75199
G1 X108.95 Y112.616 E0.97860
G1 X108.95 Y107.2 E1.14224
G1 X111.05 Y107.2 E1.20570
G1 X111.05 Y112.696 E1.37176
G0 X110.67 Y112.42 F6000
G1 F1200
G1 X109.33 Y112.42 E1.41224
G1 X109.33 Y107.58 E1.55848
G1 X110.67 Y107.58 E1.59897
G1 X110.67 Y112.42 E1.74521
G0 X110.29 Y112.04 F6000
G1 F1200
G1 X109.71 Y112.04 E1.76274
G1 X109.71 Y107.96 E1.88601
G1 X110.29 Y107.96 E1.90354
G1 X110.29 Y112.04 E2.02682
G0 X109.824 Y111.871 F6000
G1 F1200
G1 X110.176 Y111.519 E2.04186
G0 X110.176 Y110.981 F6000
G1 F1200
G1 X109.824 Y111.333 E2.05690
G0 X109.824 Y110.796 F6000
G1 F1200
G1 X110.176 Y110.444 E2.07194
G0 X110.176 Y109.907 F6000
G1 F1200
G1 X109.824 Y110.259 E2.08698
G0 X109.824 Y109.721 F6000
G1 F1200
G1 X110.176 Y109.369 E2.10202
G0 X110.176 Y108.831 F6000
G1 F1200
G1 X109.824 Y109.183 E2.11706
G0 X109.824 Y108.646 F6000
G1 F1200
G1 X110.176 Y108.294 E2.13210
G0 X112.473 Y107.68 F6000
G1 F1200
G1 X111.43 Y108.723 E2.17667
G1 X111.43 Y111.13 E2.24940
G1 X114.88 Y107.68 E2.39682
G1 X117.286 Y107.68 E2.46951
G1 X113.51 Y111.455 E2.63084
G1 X115.918 Y111.455 E2.70360
G1 X118.07 Y109.303 E2.79556
G92 E0
G1 Z0.4 F3000
G92 E0
G1 E-5 F2400
M106 S255

;LAYER 1 of 76
G1 E0 F2700
G0 X111.05 Y112.69 Z0.38 F6000
G1 F1200
G1 X118.55 Y112.69 E0.22661
G1 X118.55 Y112.8 E0.22994
G1 X101.45 Y112.8 E0.74661
G1 X101.45 Y112.448 E0.75725
G1 X108.95 Y112.448 E0.98386
G1 X108.95 Y107.2 E1.14243
G1 X111.05 Y107.2 E1.20588
G1 X111.05 Y112.69 E1.37176
G0 X110.67 Y112.42 F6000
G1 F1200
G1 X109.33 Y112.42 E1.41224
G1 X109.33 Y107.58 E1.55848
G1 X110.67 Y107.58 E1.59897
G1 X110.67 Y112.42 E1.74521
G0 X110.29 Y112.04 F6000
G1 F1200
G1 X109.71 Y112.04 E1.76274
G1 X109.71 Y107.96 E1.88601
G1 X110.29 Y107.96 E1.90354
G1 X110.29 Y112.04 E2.02682
G0 X109.824 Y111.519 F6000
G1 F1200
G1 X110.176 Y111.87 E2.04184
G0 X110.176 Y111.332 F6000
G1 F1200
G1 X109.824 Y110.981 E2.05686
G0 X109.824 Y110.444 F6000
G1 F1200
G1 X110.176 Y110.795 E2.07187
G0 X110.176 Y110.258 F6000
G1 F1200
G1 X109.824 Y109.907 E2.08689
G0 X109.824 Y109.369 F6000
G1 F1200
G1 X110.176 Y109.72 E2.10191
G0 X110.176 Y109.182 F6000
G1 F1200
G1 X109.824 Y108.831 E2.11693
G0 X109.824 Y108.294 F6000
G1 F1200
G1 X110.176 Y108.645 E2.13195
G0 X112.473 Y107.68 F6000
G1 F1200
G1 X111.43 Y108.723 E2.17652
G1 X111.43 Y111.13 E2.24925
G1 X114.88 Y107.68 E2.39667
G1 X117.286 Y107.68 E2.46937
G1 X113.51 Y111.455 E2.63069
G1 X115.918 Y111.455 E2.70345
G1 X118.07 Y109.303 E2.79541
G92 E0
G1 Z0.6 F3000
G92 E0
G1 E-5 F2400

;LAYER 2 of 76
G1 E0 F2700
G0 X111.05 Y112.676 Z0.58 F6000
G1 F1200
G1 X118.55 Y112.676 E0.22661
G1 X118.55 Y112.8 E0.23036
G1 X101.45 Y112.8 E0.74703
G1 X101.45 Y112.28 E0.76275
G1 X108.95 Y112.28 E0.98936
G1 X108.95 Y107.2 E1.14285
G1 X111.05 Y107.2 E1.20630
G1 X111.05 Y112.676 E1.37176
G0 X110.67 Y112.42 F6000
G1 F1200
G1 X109.33 Y112.42 E1.41224
G1 X109.33 Y107.58 E1.55848
G1 X110.67 Y107.58 E1.59897
G1 X110.67 Y112.42 E1.74521
G0 X110.29 Y112.04 F6000
G1 F1200
G1 X109.71 Y112.04 E1.76274
G1 X109.71 Y107.96 E1.88601
G1 X110.29 Y107.96 E1.90354
G1 X110.29 Y112.04 E2.02682
G0 X109.824 Y111.871 F6000
G1 F1200
G1 X110.176 Y111.519 E2.04186
G0 X110.176 Y110.981 F6000
G1 F1200
G1 X109.824 Y111.333 E2.05690
G0 X109.824 Y110.796 F6000
G1 F1200
G1 X110.176 Y110.444 E2.07194
G0 X110.176 Y109.907 F6000
G1 F1200
G1 X109.824 Y110.259 E2.08698
G0 X109.824 Y109.721 F6000
G1 F1200
G1 X110.176 Y109.369 E2.10202
G0 X110.176 Y108.831 F6000
G1 F1200
G1 X109.824 Y109.183 E2.11706
G0 X109.824 Y108.646 F6000
G1 F1200
G1 X110.176 Y108.294 E2.13210
G0 X112.473 Y107.68 F6000
G1 F1200
G1 X111.43 Y108.723 E2.17667
G1 X111.43 Y111.13 E2.24940
G1 X114.88 Y107.68 E2.39682
G1 X117.286 Y107.68 E2.46951
G1 X113.51 Y111.455 E2.63084
G1 X115.918 Y111.455 E2.70360
G1 X118.07 Y109.303 E2.79556
G92 E0
G1 Z0.8 F3000
G92 E0
G1 E-5 F2400

;LAYER 3 of 76
G1 E0 F2700
G0 X111.05 Y112.657 Z0.78 F6000
G1 F1200
G1 X118.55 Y112.657 E0.22661
G1 X118.55 Y112.8 E0.23093
G1 X101.45 Y112.8 E0.74761
G1 X101.45 Y112.112 E0.76840
G1 X108.95 Y112.112 E0.99501
G1 X108.95 Y107.2 E1.14342
G1 X111.05 Y107.2 E1.20687
G1 X111.05 Y112.657 E1.37176
G0 X110.67 Y112.42 F6000
G1 F1200
G1 X109.33 Y112.42 E1.41224
G1 X109.33 Y107.58 E1.55848
G1 X110.67 Y107.58 E1.59897
G1 X110.67 Y112.42 E1.74521
G0 X110.29 Y112.04 F6000
G1 F1200
G1 X109.71 Y112.04 E1.76274
G1 X109.71 Y107.96 E1.88601
G1 X110.29 Y107.96 E1.90354
G1 X110.29 Y112.04 E2.02682
G0 X109.871 Y111.926 F6000
G1 F1200
G1 X110.176 Y111.398 E2.04524
G0 X110.176 Y108.601 F6000
G1 F1200
G1 X109.872 Y108.074 E2.06362
G0 X112.473 Y107.68 F6000
G1 F1200
G1 X111.43 Y108.723 E2.10819
G1 X111.43 Y111.13 E2.18092
G1 X114.88 Y107.68 E2.32834
G1 X117.286 Y107.68 E2.40103
G1 X113.51 Y111.455 E2.56236
G1 X115.918 Y111.455 E2.63512
G1 X118.07 Y109.303 E2.72708
G92 E0
G1 Z1 F3000
G92 E0
G1 E-5 F2400

;LAYER 4 of 76
G1 E0 F2700
G0 X111.05 Y112.629 Z0.98 F6000
G1 F1200
G1 X118.55 Y112.629 E0.22661
G1 X118.55 Y112.8 E0.23178
G1 X101.45 Y112.8 E0.74845
G1 X101.45 Y111.944 E0.77432
G1 X108.95 Y111.944 E1.00093
G1 X108.95 Y107.2 E1.14427
G1 X111.05 Y107.2 E1.20772
G1 X111.05 Y112.629 E1.37176
G0 X110.67 Y112.42 F6000
G1 F1200
G1 X101.83 Y112.42 E1.63886
G1 X109.33 Y112.324 E1.86549
G1 X109.33 Y107.58 E2.00883
G1 X110.67 Y107.58 E2.04931
G1 X110.67 Y112.42 E2.19555
G0 X110.29 Y112.04 F6000
G1 F1200
G1 X109.71 Y112.04 E2.21308
G1 X109.71 Y107.96 E2.33636
G1 X110.29 Y107.96 E2.35388
G1 X110.29 Y112.04 E2.47716
G0 X109.871 Y111.926 F6000
G1 F1200
G1 X110.176 Y111.398 E2.49558
G0 X110.176 Y108.601 F6000
G1 F1200
G1 X109.872 Y108.074 E2.51396
G0 X112.473 Y107.68 F6000
G1 F1200
G1 X111.43 Y108.723 E2.55853
G1 X111.43 Y111.13 E2.63126
G1 X114.88 Y107.68 E2.77868
G1 X117.286 Y107.68 E2.85138
G1 X113.51 Y111.455 E3.01270
G1 X115.918 Y111.455 E3.08546
G1 X118.07 Y109.303 E3.17742
G92 E0
G1 Z1.2 F3000
G92 E0
G1 E-5 F2400

;LAYER 5 of 76
G1 E0 F2700
G0 X111.05 Y112.597 Z1.18 F6000
G1 F1200
G1 X118.55 Y112.597 E0.22661
G1 X118.55 Y112.8 E0.23275
G1 X101.45 Y112.8 E0.74942
G1 X101.45 Y111.776 E0.78036
G1 X108.95 Y111.776 E1.00697
G1 X108.95 Y107.2 E1.14524
G1 X111.05 Y107.2 E1.20869
G1 X111.05 Y112.597 E1.37176
G0 X110.67 Y112.42 F6000
G1 F1200
G1 X101.83 Y112.42 E1.63886
G1 X101.83 Y112.156 E1.64683
G1 X109.33 Y112.156 E1.87344
G1 X109.33 Y107.58 E2.01171
G1 X110.67 Y107.58 E2.05220
G1 X110.67 Y112.42 E2.19844
G0 X110.29 Y112.04 F6000
G1 F1200
G1 X109.71 Y112.04 E2.21596
G1 X109.71 Y107.96 E2.33924
G1 X110.29 Y107.96 E2.35676
G1 X110.29 Y112.04 E2.48004
G0 X109.871 Y111.926 F6000
G1 F1200
G1 X110.176 Y111.398 E2.49846
G0 X110.176 Y108.601 F6000
G1 F1200
G1 X109.872 Y108.074 E2.51685
G0 X112.473 Y107.68 F6000
G1 F1200
G1 X111.43 Y108.723 E2.56141
G1 X111.43 Y111.13 E2.63414
G1 X114.88 Y107.68 E2.78156
G1 X117.286 Y107.68 E2.85426
G1 X113.51 Y111.455 E3.01559
G1 X115.918 Y111.455 E3.08834
G1 X118.07 Y109.303 E3.18030
G92 E0
G1 Z1.4 F3000
G92 E0
G1 E-5 F2400

;LAYER 6 of 76
G1 E0 F2700
G0 X111.05 Y112.554 Z1.38 F6000
G1 F1200
G1 X118.55 Y112.554 E0.22661
G1 X118.55 Y112.8 E0.23404
G1 X101.45 Y112.8 E0.75072
G1 X101.45 Y111.609 E0.78671
G1 X108.95 Y111.609 E1.01332
G1 X108.95 Y107.2 E1.14653
G1 X111.05 Y107.2 E1.20999
G1 X111.05 Y112.554 E1.37176
G0 X110.67 Y112.42 F6000
G1 F1200
G1 X101.83 Y112.42 E1.63886
G1 X101.83 Y111.989 E1.65188
G1 X109.33 Y111.989 E1.87849
G1 X109.33 Y107.58 E2.01171
G1 X110.67 Y107.58 E2.05220
G1 X110.67 Y112.42 E2.19844
G0 X110.29 Y112.04 F6000
G1 F1200
G1 X109.71 Y112.04 E2.21596
G1 X109.71 Y107.96 E2.33924
G1 X110.29 Y107.96 E2.35676
G1 X110.29 Y112.04 E2.48004
G0 X109.871 Y111.926 F6000
G1 F1200
G1 X110.176 Y111.398 E2.49846
G0 X110.176 Y108.601 F6000
G1 F1200
G1 X109.872 Y108.074 E2.51685
G0 X112.473 Y107.68 F6000
G1 F1200
G1 X111.43 Y108.723 E2.56141
G1 X111.43 Y111.13 E2.63414
G1 X114.88 Y107.68 E2.78156
G1 X117.286 Y107.68 E2.85426
G1 X113.51 Y111.455 E3.01559
G1 X115.918 Y111.455 E3.08834
G1 X118.07 Y109.303 E3.18030
G92 E0
G1 Z1.6 F3000
G92 E0
G1 E-5 F2400

;LAYER 7 of 76
G1 E0 F2700
G0 X111.05 Y112.508 Z1.58 F6000
G1 F1200
G1 X118.55 Y112.508 E0.22661
G1 X118.55 Y112.8 E0.23543
G1 X101.45 Y112.8 E0.75211
G1 X101.45 Y111.441 E0.79317
G1 X108.95 Y111.441 E1.01978
G1 X108.95 Y107.2 E1.14792
G1 X111.05 Y107.2 E1.21138
G1 X111.05 Y112.508 E1.37176
G0 X110.67 Y112.42 F6000
G1 F1200
G1 X101.83 Y112.42 E1.63886
G1 X101.83 Y111.821 E1.65696
G1 X109.33 Y111.821 E1.88357
G1 X109.33 Y107.58 E2.01171
G1 X110.67 Y107.58 E2.05220
G1 X110.67 Y112.42 E2.19844
G0 X110.29 Y112.04 F6000
G1 F1200
G1 X109.71 Y112.04 E2.21596
G1 X109.71 Y107.96 E2.33924
G1 X110.29 Y107.96 E2.35676
G1 X110.29 Y112.04 E2.48004
G0 X109.871 Y111.926 F6000
G1 F1200
G1 X110.176 Y111.398 E2.49846
G0 X110.176 Y108.601 F6000
G1 F1200
G1 X109.872 Y108.074 E2.51685
G0 X112.473 Y107.68 F6000
G1 F1200
G1 X111.43 Y108.723 E2.56141
G1 X111.43 Y111.13 E2.63414
G1 X114.88 Y107.68 E2.78156
G1 X117.286 Y107.68 E2.85426
G1 X113.51 Y111.455 E3.01559
G1 X115.918 Y111.455 E3.08834
G1 X118.07 Y109.303 E3.18030
G92 E0
G1 Z1.8 F3000
G92 E0
G1 E-5 F2400

;LAYER 8 of 76
G1 E0 F2700
G0 X118.55 Y112.8 Z1.78 F6000
G1 F1200
G1 X101.45 Y112.8 E0.51667
G1 X101.45 Y111.273 E0.56281
G1 X108.95 Y111.273 E0.78942
G1 X108.95 Y107.2 E0.91249
G1 X111.05 Y107.2 E0.97594
G1 X111.05 Y112.451 E1.13460
G1 X118.38 Y112.451 E1.35608
G1 X118.55 Y112.452 E1.36121
G1 X118.55 Y112.8 E1.37173
G0 X110.67 Y112.42 F6000
G1 F1200
G1 X101.83 Y112.42 E1.63883
G1 X101.83 Y111.653 E1.66200
G1 X109.33 Y111.653 E1.88861
G1 X109.33 Y107.58 E2.01168
G1 X110.67 Y107.58 E2.05217
G1 X110.67 Y112.42 E2.19841
G0 X110.29 Y112.04 F6000
G1 F1200
G1 X102.21 Y112.04 E2.44254
G1 X109.71 Y112.033 E2.66915
G1 X109.71 Y107.96 E2.79222
G1 X110.29 Y107.96 E2.80974
G1 X110.29 Y112.04 E2.93302
G0 X109.871 Y111.926 F6000
G1 F1200
G1 X110.176 Y111.398 E2.95145
G0 X110.176 Y108.601 F6000
G1 F1200
G1 X109.872 Y108.074 E2.96983
G0 X112.473 Y107.68 F6000
G1 F1200
G1 X111.43 Y108.723 E3.01440
G1 X111.43 Y111.13 E3.08712
G1 X114.88 Y107.68 E3.23454
G1 X117.286 Y107.68 E3.30724
G1 X113.51 Y111.455 E3.46857
G1 X115.918 Y111.455 E3.54133
G1 X118.07 Y109.303 E3.63328
G92 E0
G1 Z2 F3000
G92 E0
G1 E-5 F2400

;LAYER 9 of 76
G1 E0 F2700
G0 X111.05 Y112.389 Z1.98 F6000
G1 F1200
G1 X118.55 Y112.389 E0.22661
G1 X118.55 Y112.8 E0.23903
G1 X101.45 Y112.8 E0.75570
G1 X101.45 Y111.105 E0.80692
G1 X108.95 Y111.105 E1.03353
G1 X108.95 Y107.2 E1.15152
G1 X111.05 Y107.2 E1.21497
G1 X111.05 Y112.389 E1.37176
G0 X110.67 Y112.42 F6000
G1 F1200
G1 X101.83 Y112.42 E1.63886
G1 X101.83 Y111.485 E1.66711
G1 X109.33 Y111.485 E1.89372
G1 X109.33 Y107.58 E2.01171
G1 X110.67 Y107.58 E2.05220
G1 X110.67 Y112.42 E2.19844
G0 X110.29 Y112.04 F6000
G1 F1200
G1 X102.21 Y112.04 E2.44257
G1 X102.21 Y111.865 E2.44786
G1 X109.71 Y111.865 E2.67447
G1 X109.71 Y107.96 E2.79246
G1 X110.29 Y107.96 E2.80999
G1 X110.29 Y112.04 E2.93326
G0 X109.871 Y111.926 F6000
G1 F1200
G1 X110.176 Y111.398 E2.95169
G0 X110.176 Y108.601 F6000
G1 F1200
G1 X109.872 Y108.074 E2.97007
G0 X112.473 Y107.68 F6000
G1 F1200
G1 X111.43 Y108.723 E3.01464
G1 X111.43 Y111.13 E3.08736
G1 X114.88 Y107.68 E3.23478
G1 X117.286 Y107.68 E3.30748
G1 X113.51 Y111.455 E3.46881
G1 X115.918 Y111.455 E3.54157
G1 X118.07 Y109.303 E3.63352
G92 E0
G1 Z2.2 F3000
G92 E0
G1 E-5 F2400

;LAYER 10 of 76
G1 E0 F2700
G0 X111.05 Y112.32 Z2.18 F6000
G1 F1200
G1 X118.55 Y112.318 E0.22661
G1 X118.55 Y112.8 E0.24118
G1 X101.45 Y112.8 E0.75785
G1 X101.45 Y110.937 E0.81414
G1 X108.95 Y110.937 E1.04075
G1 X108.95 Y107.2 E1.15367
G1 X111.05 Y107.2 E1.21712
G1 X111.05 Y112.32 E1.37182
G0 X110.67 Y112.42 F6000
G1 F1200
G1 X101.83 Y112.42 E1.63892
G1 X101.83 Y111.317 E1.67224
G1 X109.33 Y111.317 E1.89886
G1 X109.33 Y107.58 E2.01177
G1 X110.67 Y107.58 E2.05226
G1 X110.67 Y112.42 E2.19850
G0 X110.29 Y112.04 F6000
G1 F1200
G1 X102.21 Y112.04 E2.44263
G1 X102.21 Y111.697 E2.45300
G1 X109.71 Y111.697 E2.67961
G1 X109.71 Y107.96 E2.79252
G1 X110.29 Y107.96 E2.81005
G1 X110.29 Y112.04 E2.93332
G0 X103.471 Y111.811 F6000
G1 F1200
G1 X103.404 Y111.926 E2.93734
G0 X105.562 Y111.811 F6000
G1 F1200
G1 X105.629 Y111.926 E2.94137
G0 X109.871 Y111.926 F6000
G1 F1200
G1 X110.176 Y111.398 E2.95979
G0 X110.176 Y108.601 F6000
G1 F1200
G1 X109.872 Y108.074 E2.97817
G0 X112.473 Y107.68 F6000
G1 F1200
G1 X111.43 Y108.723 E3.02274
G1 X111.43 Y111.13 E3.09547
G1 X114.88 Y107.68 E3.24289
G1 X117.286 Y107.68 E3.31558
G1 X113.51 Y111.455 E3.47691
G1 X115.918 Y111.455 E3.54967
G1 X118.07 Y109.303 E3.64163
G92 E0
G1 Z2.4 F3000
G92 E0
G1 E-5 F2400

;LAYER 11 of 76
G1 E0 F2700
G0 X111.05 Y112.238 Z2.38 F6000
G1 F1200
G1 X118.55 Y112.238 E0.22661
G1 X118.55 Y112.8 E0.24359
G1 X101.45 Y112.8 E0.76027
G1 X101.45 Y110.77 E0.82160
G1 X108.95 Y110.77 E1.04822
G1 X108.95 Y107.2 E1.15608
G1 X111.05 Y107.2 E1.21953
G1 X111.05 Y112.238 E1.37176
G0 X110.67 Y112.42 F6000
G1 F1200
G1 X101.83 Y112.42 E1.63886
G1 X101.83 Y111.15 E1.67723
G1 X109.33 Y111.15 E1.90384
G1 X109.33 Y107.58 E2.01171
G1 X110.67 Y107.58 E2.05220
G1 X110.67 Y112.42 E2.19844
G0 X110.29 Y112.04 F6000
G1 F1200
G1 X102.21 Y112.04 E2.44257
G1 X102.21 Y111.53 E2.45798
G1 X109.71 Y111.53 E2.68459
G1 X109.71 Y107.96 E2.79246
G1 X110.29 Y107.96 E2.80999
G1 X110.29 Y112.04 E2.93326
G0 X103.567 Y111.644 F6000
G1 F1200
G1 X103.404 Y111.926 E2.94310
G0 X105.466 Y111.644 F6000
G1 F1200
G1 X105.629 Y111.926 E2.95295
G0 X109.871 Y111.926 F6000
G1 F1200
G1 X110.176 Y111.398 E2.97137
G0 X110.176 Y108.601 F6000
G1 F1200
G1 X109.872 Y108.074 E2.98975
G0 X112.473 Y107.68 F6000
G1 F1200
G1 X111.43 Y108.723 E3.03432
G1 X111.43 Y111.13 E3.10705
G1 X114.88 Y107.68 E3.25447
G1 X117.286 Y107.68 E3.32716
G1 X113.51 Y111.455 E3.48849
G1 X115.918 Y111.455 E3.56125
G1 X118.07 Y109.303 E3.65321
G92 E0
G1 Z2.6 F3000
G92 E0
G1 E-5 F2400

;LAYER 12 of 76
G1 E0 F2700
G0 X111.05 Y112.153 Z2.58 F6000
G1 F1200
G1 X118.55 Y112.153 E0.22661
G1 X118.55 Y112.8 E0.24616
G1 X101.45 Y112.8 E0.76284
G1 X101.45 Y110.602 E0.82925
G1 X108.95 Y110.602 E1.05586
G1 X108.95 Y107.2 E1.15865
G1 X111.05 Y107.2 E1.22210
G1 X111.05 Y112.153 E1.37176
G0 X110.67 Y112.42 F6000
G1 F1200
G1 X101.83 Y112.42 E1.63886
G1 X101.83 Y110.982 E1.68231
G1 X109.33 Y110.982 E1.90892
G1 X109.33 Y107.58 E2.01171
G1 X110.67 Y107.58 E2.05220
G1 X110.67 Y112.42 E2.19844
G0 X110.29 Y112.04 F6000
G1 F1200
G1 X102.21 Y112.04 E2.44257
G1 X102.21 Y111.362 E2.46306
G1 X109.71 Y111.362 E2.68967
G1 X109.71 Y107.96 E2.79246
G1 X110.29 Y107.96 E2.80999
G1 X110.29 Y112.04 E2.93326
G0 X103.664 Y111.476 F6000
G1 F1200
G1 X103.404 Y111.926 E2.94897
G0 X105.369 Y111.476 F6000
G1 F1200
G1 X105.629 Y111.926 E2.96467
G0 X109.871 Y111.926 F6000
G1 F1200
G1 X110.176 Y111.398 E2.98309
G0 X110.176 Y108.601 F6000
G1 F1200
G1 X109.872 Y108.074 E3.00148
G0 X112.473 Y107.68 F6000
G1 F1200
G1 X111.43 Y108.723 E3.04604
G1 X111.43 Y111.13 E3.11877
G1 X114.88 Y107.68 E3.26619
G1 X117.286 Y107.68 E3.33889
G1 X113.51 Y111.455 E3.50022
G1 X115.918 Y111.455 E3.57297
G1 X118.07 Y109.303 E3.66493
G92 E0
G1 Z2.8 F3000
G92 E0
G1 E-5 F2400

;LAYER 13 of 76
G1 E0 F2700
G0 X118.55 Y112.8 Z2.78 F6000
G1 F1200
G1 X101.45 Y112.8 E0.51667
G1 X101.45 Y110.434 E0.58816
G1 X108.95 Y110.434 E0.81478
G1 X108.95 Y107.2 E0.91249
G1 X111.05 Y107.2 E0.97594
G1 X111.05 Y112.054 E1.12260
G1 X118.379 Y112.054 E1.34405
G1 X118.55 Y112.055 E1.34922
G1 X118.55 Y112.8 E1.37173
G0 X110.67 Y112.42 F6000
G1 F1200
G1 X101.83 Y112.42 E1.63883
