;Generated with Pancakes - © 2019 Lieven Libberecht, William Thenaers

;Setup
M140 S50
M104 S200
M105
M190 S50
M109 S200
M82
G21
M201 X500.0 Y500.0 Z100.0 E5000.0
M203 X500.0 Y500.0 Z10.0 E50.0
M204 P500.0 R1000.0 T500.0
M205 X8.0 Y8.0 Z0.4 E5.0
M220 S100.0
M221 S100.0
G28
G92 E0
G1 Z2.0 F3000
G1 X10.1 Y20.0 Z0.28 F5000
G1 X10.1 Y200.0 Z0.28 E15 F1500
G1 X10.4 Y200.0 Z0.28 F5000
G1 X10.4 Y20.0 Z0.28 E30 F1500
G92 E0
G1 Z2.0 F3000
G92 E0
G1 E-5 F2700
M107
G1 E0 F1500

;Print

;LAYER 0 of 91
M107
G1 E0 F2700
G0 X124.36 Y124.36 Z0.18 F6000
G1 F1200
G1 X95.64 Y124.36 E0.86777
G1 X95.64 Y95.64 E1.73554
G1 X124.36 Y95.64 E2.60332
G1 X124.36 Y124.36 E3.47109
G0 X123.98 Y123.98 F6000
G1 F1200
G1 X96.02 Y123.98 E4.31590
G1 X96.02 Y96.02 E5.16071
G1 X123.98 Y96.02 E6.00551
G1 X123.98 Y123.98 E6.85032
G0 X119.8 Y119.8 F6000
G1 F1200
G1 X100.2 Y119.8 E7.44254
G1 X100.2 Y100.2 E8.03475
G1 X119.8 Y100.2 E8.62696
G1 X119.8 Y119.8 E9.21917
G0 X119.42 Y119.42 F6000
G1 F1200
G1 X100.58 Y119.42 E9.78842
G1 X100.58 Y100.58 E10.35767
G1 X119.42 Y100.58 E10.92692
G1 X119.42 Y119.42 E11.49617
G0 X119.04 Y119.04 F6000
G1 F1200
G1 X100.96 Y119.04 E12.04245
G1 X100.96 Y100.96 E12.58874
G1 X119.04 Y100.96 E13.13502
G1 X119.04 Y119.04 E13.68131
G0 X101.074 Y101.342 F6000
G1 F1200
G1 X101.342 Y101.074 E13.69276
G0 X101.879 Y101.074 F6000
G1 F1200
G1 X101.074 Y101.879 E13.72716
G0 X101.074 Y102.417 F6000
G1 F1200
G1 X102.417 Y101.074 E13.78454
G0 X102.954 Y101.074 F6000
G1 F1200
G1 X101.074 Y102.955 E13.86490
G0 X101.074 Y103.491 F6000
G1 F1200
G1 X103.492 Y101.074 E13.96820
G0 X104.029 Y101.074 F6000
G1 F1200
G1 X101.074 Y104.029 E14.09447
G0 X101.074 Y104.567 F6000
G1 F1200
G1 X104.567 Y101.074 E14.24372
G0 X105.104 Y101.074 F6000
G1 F1200
G1 X101.074 Y105.104 E14.41593
G0 X101.074 Y105.641 F6000
G1 F1200
G1 X105.641 Y101.074 E14.61108
G0 X106.179 Y101.074 F6000
G1 F1200
G1 X101.074 Y106.179 E14.82922
G0 X101.074 Y106.716 F6000
G1 F1200
G1 X106.716 Y101.074 E15.07030
G0 X107.253 Y101.074 F6000
G1 F1200
G1 X101.074 Y107.253 E15.33433
G0 X101.074 Y107.791 F6000
G1 F1200
G1 X107.791 Y101.074 E15.62135
G0 X108.328 Y101.074 F6000
G1 F1200
G1 X101.074 Y108.329 E15.93134
G0 X101.074 Y108.865 F6000
G1 F1200
G1 X108.866 Y101.074 E16.26427
G0 X109.403 Y101.074 F6000
G1 F1200
G1 X101.074 Y109.403 E16.62017
G0 X101.074 Y109.941 F6000
G1 F1200
G1 X109.941 Y101.074 E16.99906
G0 X110.478 Y101.074 F6000
G1 F1200
G1 X101.074 Y110.478 E17.40090
G0 X101.074 Y111.015 F6000
G1 F1200
G1 X111.015 Y101.074 E17.82568
G0 X111.553 Y101.074 F6000
G1 F1200
G1 X101.074 Y111.553 E18.27345
G0 X101.074 Y112.09 F6000
G1 F1200
G1 X112.09 Y101.074 E18.74417
G0 X112.627 Y101.074 F6000
G1 F1200
G1 X101.074 Y112.627 E19.23783
G0 X101.074 Y113.165 F6000
G1 F1200
G1 X113.165 Y101.074 E19.75448
G0 X113.702 Y101.074 F6000
G1 F1200
G1 X101.074 Y113.703 E20.29410
G0 X101.074 Y114.239 F6000
G1 F1200
G1 X114.24 Y101.074 E20.85667
G0 X114.777 Y101.074 F6000
G1 F1200
G1 X101.074 Y114.777 E21.44220
G0 X101.074 Y115.315 F6000
G1 F1200
G1 X115.315 Y101.074 E22.05073
G0 X115.852 Y101.074 F6000
G1 F1200
G1 X101.074 Y115.852 E22.68220
G0 X101.074 Y116.389 F6000
G1 F1200
G1 X116.389 Y101.074 E23.33661
G0 X116.927 Y101.074 F6000
G1 F1200
G1 X101.074 Y116.927 E24.01401
G0 X101.074 Y117.464 F6000
G1 F1200
G1 X117.464 Y101.074 E24.71436
G0 X118.001 Y101.074 F6000
G1 F1200
G1 X101.074 Y118.001 E25.43766
G0 X101.074 Y118.539 F6000
G1 F1200
G1 X118.539 Y101.074 E26.18395
G0 X118.926 Y101.224 F6000
G1 F1200
G1 X101.225 Y118.926 E26.94034
G0 X101.761 Y118.926 F6000
G1 F1200
G1 X118.926 Y101.762 E27.67378
G0 X118.926 Y102.299 F6000
G1 F1200
G1 X102.299 Y118.926 E28.38426
G0 X102.837 Y118.926 F6000
G1 F1200
G1 X118.926 Y102.837 E29.07175
G0 X118.926 Y103.374 F6000
G1 F1200
G1 X103.374 Y118.926 E29.73629
G0 X103.911 Y118.926 F6000
G1 F1200
G1 X118.926 Y103.911 E30.37788
G0 X118.926 Y104.449 F6000
G1 F1200
G1 X104.449 Y118.926 E30.99649
G0 X104.986 Y118.926 F6000
G1 F1200
G1 X118.926 Y104.986 E31.59215
G0 X118.926 Y105.523 F6000
G1 F1200
G1 X105.523 Y118.926 E32.16487
G0 X106.061 Y118.926 F6000
G1 F1200
G1 X118.926 Y106.061 E32.71459
G0 X118.926 Y106.598 F6000
G1 F1200
G1 X106.599 Y118.926 E33.24135
G0 X107.135 Y118.926 F6000
G1 F1200
G1 X118.926 Y107.136 E33.74516
G0 X118.926 Y107.673 F6000
G1 F1200
G1 X107.673 Y118.926 E34.22601
G0 X108.211 Y118.926 F6000
G1 F1200
G1 X118.926 Y108.211 E34.68386
G0 X118.926 Y108.748 F6000
G1 F1200
G1 X108.748 Y118.926 E35.11877
G0 X109.285 Y118.926 F6000
G1 F1200
G1 X118.926 Y109.285 E35.53073
G0 X118.926 Y109.823 F6000
G1 F1200
G1 X109.823 Y118.926 E35.91971
G0 X110.36 Y118.926 F6000
G1 F1200
G1 X118.926 Y110.36 E36.28574
G0 X118.926 Y110.897 F6000
G1 F1200
G1 X110.897 Y118.926 E36.62882
G0 X111.435 Y118.926 F6000
G1 F1200
G1 X118.926 Y111.435 E36.94891
G0 X118.926 Y111.972 F6000
G1 F1200
G1 X111.973 Y118.926 E37.24604
G0 X112.509 Y118.926 F6000
G1 F1200
G1 X118.926 Y112.51 E37.52022
G0 X118.926 Y113.047 F6000
G1 F1200
G1 X113.047 Y118.926 E37.77143
G0 X113.585 Y118.926 F6000
G1 F1200
G1 X118.926 Y113.585 E37.99965
G0 X118.926 Y114.122 F6000
G1 F1200
G1 X114.122 Y118.926 E38.20493
G0 X114.659 Y118.926 F6000
G1 F1200
G1 X118.926 Y114.659 E38.38726
G0 X118.926 Y115.197 F6000
G1 F1200
G1 X115.197 Y118.926 E38.54660
G0 X115.734 Y118.926 F6000
G1 F1200
G1 X118.926 Y115.734 E38.68299
G0 X118.926 Y116.271 F6000
G1 F1200
G1 X116.271 Y118.926 E38.79644
G0 X116.809 Y118.926 F6000
G1 F1200
G1 X118.926 Y116.809 E38.88690
G0 X118.926 Y117.347 F6000
G1 F1200
G1 X117.347 Y118.926 E38.95437
G0 X117.883 Y118.926 F6000
G1 F1200
G1 X118.926 Y117.884 E38.99892
G0 X118.926 Y118.421 F6000
G1 F1200
G1 X118.421 Y118.926 E39.02050
G92 E0
G1 Z0.4 F3000
G92 E0
G1 E-5 F2400
M106 S255

;LAYER 1 of 91
G1 E0 F2700
G0 X119.8 Y119.8 Z0.38 F6000
G1 F1200
G1 X100.2 Y119.8 E0.59221
G1 X100.2 Y100.2 E1.18442
G1 X119.8 Y100.2 E1.77664
G1 X119.8 Y119.8 E2.36885
G0 X119.42 Y119.42 F6000
G1 F1200
G1 X100.58 Y119.42 E2.93810
G1 X100.58 Y100.58 E3.50735
G1 X119.42 Y100.58 E4.07659
G1 X119.42 Y119.42 E4.64584
G0 X119.04 Y119.04 F6000
G1 F1200
G1 X100.96 Y119.04 E5.19213
G1 X100.96 Y100.96 E5.73841
G1 X119.04 Y100.96 E6.28470
G1 X119.04 Y119.04 E6.83099
G0 X101.579 Y118.926 F6000
G1 F1200
G1 X101.074 Y118.421 E6.85256
G0 X101.074 Y117.883 F6000
G1 F1200
G1 X102.116 Y118.926 E6.89711
G0 X102.653 Y118.926 F6000
G1 F1200
G1 X101.074 Y117.347 E6.96458
G0 X101.074 Y116.809 F6000
G1 F1200
G1 X103.191 Y118.926 E7.05504
G0 X103.729 Y118.926 F6000
G1 F1200
G1 X101.074 Y116.271 E7.16849
G0 X101.074 Y115.734 F6000
G1 F1200
G1 X104.267 Y118.926 E7.30491
G0 X104.803 Y118.926 F6000
G1 F1200
G1 X101.074 Y115.197 E7.46425
G0 X101.074 Y114.66 F6000
G1 F1200
G1 X105.341 Y118.926 E7.64656
G0 X105.879 Y118.926 F6000
G1 F1200
G1 X101.074 Y114.122 E7.85186
G0 X101.074 Y113.585 F6000
G1 F1200
G1 X106.416 Y118.926 E8.08010
G0 X106.954 Y118.926 F6000
G1 F1200
G1 X101.074 Y113.047 E8.33133
G0 X101.074 Y112.509 F6000
G1 F1200
G1 X107.49 Y118.926 E8.60551
G0 X108.028 Y118.926 F6000
G1 F1200
G1 X101.074 Y111.973 E8.90264
G0 X101.074 Y111.435 F6000
G1 F1200
G1 X108.566 Y118.926 E9.22275
G0 X109.103 Y118.926 F6000
G1 F1200
G1 X101.074 Y110.897 E9.56583
G0 X101.074 Y110.36 F6000
G1 F1200
G1 X109.64 Y118.926 E9.93186
G0 X110.177 Y118.926 F6000
G1 F1200
G1 X101.074 Y109.823 E10.32084
G0 X101.074 Y109.285 F6000
G1 F1200
G1 X110.715 Y118.926 E10.73280
G0 X111.253 Y118.926 F6000
G1 F1200
G1 X101.074 Y108.748 E11.16773
G0 X101.074 Y108.211 F6000
G1 F1200
G1 X111.79 Y118.926 E11.62561
G0 X112.327 Y118.926 F6000
G1 F1200
G1 X101.074 Y107.673 E12.10645
G0 X101.074 Y107.136 F6000
G1 F1200
G1 X112.865 Y118.926 E12.61026
G0 X113.402 Y118.926 F6000
G1 F1200
G1 X101.074 Y106.599 E13.13702
G0 X101.074 Y106.061 F6000
G1 F1200
G1 X113.94 Y118.926 E13.68677
G0 X114.478 Y118.926 F6000
G1 F1200
G1 X101.074 Y105.523 E14.25950
G0 X101.074 Y104.986 F6000
G1 F1200
G1 X115.015 Y118.926 E14.85519
G0 X115.552 Y118.926 F6000
G1 F1200
G1 X101.074 Y104.449 E15.47381
G0 X101.074 Y103.911 F6000
G1 F1200
G1 X116.09 Y118.926 E16.11543
G0 X116.626 Y118.926 F6000
G1 F1200
G1 X101.074 Y103.375 E16.77995
G0 X101.074 Y102.838 F6000
G1 F1200
G1 X117.163 Y118.926 E17.46742
G0 X117.702 Y118.926 F6000
G1 F1200
G1 X101.074 Y102.299 E18.17792
G0 X101.074 Y101.761 F6000
G1 F1200
G1 X118.239 Y118.926 E18.91138
G0 X118.777 Y118.926 F6000
G1 F1200
G1 X101.074 Y101.225 E19.66780
G0 X101.461 Y101.074 F6000
G1 F1200
G1 X118.926 Y118.538 E20.41406
G0 X118.926 Y118 F6000
G1 F1200
G1 X101.999 Y101.074 E21.13733
G0 X102.536 Y101.074 F6000
G1 F1200
G1 X118.926 Y117.463 E21.83766
G0 X118.926 Y116.926 F6000
G1 F1200
G1 X103.073 Y101.074 E22.51504
G0 X103.611 Y101.074 F6000
G1 F1200
G1 X118.926 Y116.388 E23.16944
G0 X118.926 Y115.851 F6000
G1 F1200
G1 X104.148 Y101.074 E23.80089
G0 X104.685 Y101.074 F6000
G1 F1200
G1 X118.926 Y115.315 E24.40941
G0 X118.926 Y114.777 F6000
G1 F1200
G1 X105.223 Y101.074 E24.99494
G0 X105.761 Y101.074 F6000
G1 F1200
G1 X118.926 Y114.239 E25.55749
G0 X118.926 Y113.702 F6000
G1 F1200
G1 X106.298 Y101.074 E26.09709
G0 X106.835 Y101.074 F6000
G1 F1200
G1 X118.926 Y113.164 E26.61372
G0 X118.926 Y112.626 F6000
G1 F1200
G1 X107.373 Y101.074 E27.10736
G0 X107.91 Y101.074 F6000
G1 F1200
G1 X118.926 Y112.09 E27.57808
G0 X118.926 Y111.552 F6000
G1 F1200
G1 X108.447 Y101.074 E28.02583
G0 X108.985 Y101.074 F6000
G1 F1200
G1 X118.926 Y111.014 E28.45059
G0 X118.926 Y110.477 F6000
G1 F1200
G1 X109.522 Y101.074 E28.85240
G0 X110.059 Y101.074 F6000
G1 F1200
G1 X118.926 Y109.94 E29.23127
G0 X118.926 Y109.402 F6000
G1 F1200
G1 X110.597 Y101.074 E29.58715
G0 X111.135 Y101.074 F6000
G1 F1200
G1 X118.926 Y108.865 E29.92006
G0 X118.926 Y108.328 F6000
G1 F1200
G1 X111.672 Y101.074 E30.23003
G0 X112.209 Y101.074 F6000
G1 F1200
G1 X118.926 Y107.791 E30.51705
G0 X118.926 Y107.252 F6000
G1 F1200
G1 X112.747 Y101.074 E30.78106
G0 X113.284 Y101.074 F6000
G1 F1200
G1 X118.926 Y106.715 E31.02212
G0 X118.926 Y106.178 F6000
G1 F1200
G1 X113.821 Y101.074 E31.24024
G0 X114.359 Y101.074 F6000
G1 F1200
G1 X118.926 Y105.64 E31.43536
G0 X118.926 Y105.103 F6000
G1 F1200
G1 X114.896 Y101.074 E31.60755
G0 X115.433 Y101.074 F6000
G1 F1200
G1 X118.926 Y104.566 E31.75678
G0 X118.926 Y104.028 F6000
G1 F1200
G1 X115.971 Y101.074 E31.88303
G0 X116.509 Y101.074 F6000
G1 F1200
G1 X118.926 Y103.491 E31.98631
G0 X118.926 Y102.954 F6000
G1 F1200
G1 X117.046 Y101.074 E32.06664
G0 X117.583 Y101.074 F6000
G1 F1200
G1 X118.926 Y102.416 E32.12401
G0 X118.926 Y101.878 F6000
G1 F1200
G1 X118.121 Y101.074 E32.15838
G0 X118.658 Y101.074 F6000
G1 F1200
G1 X118.926 Y101.341 E32.16981
G92 E0
G1 Z0.6 F3000
G92 E0
G1 E-5 F2400

;LAYER 2 of 91
G1 E0 F2700
G0 X119.8 Y119.8 Z0.58 F6000
G1 F1200
G1 X100.2 Y119.8 E0.59221
G1 X100.2 Y100.2 E1.18442
G1 X119.8 Y100.2 E1.77664
G1 X119.8 Y119.8 E2.36885
G0 X119.42 Y119.42 F6000
G1 F1200
G1 X100.58 Y119.42 E2.93810
G1 X100.58 Y100.58 E3.50735
G1 X119.42 Y100.58 E4.07659
G1 X119.42 Y119.42 E4.64584
G0 X119.04 Y119.04 F6000
G1 F1200
G1 X100.96 Y119.04 E5.19213
G1 X100.96 Y100.96 E5.73841
G1 X119.04 Y100.96 E6.28470
G1 X119.04 Y119.04 E6.83099
G0 X101.074 Y101.342 F6000
G1 F1200
G1 X101.342 Y101.074 E6.84244
G0 X101.879 Y101.074 F6000
G1 F1200
G1 X101.074 Y101.879 E6.87684
G0 X101.074 Y102.417 F6000
G1 F1200
G1 X102.417 Y101.074 E6.93422
G0 X102.954 Y101.074 F6000
G1 F1200
G1 X101.074 Y102.955 E7.01458
G0 X101.074 Y103.491 F6000
G1 F1200
G1 X103.492 Y101.074 E7.11788
G0 X104.029 Y101.074 F6000
G1 F1200
G1 X101.074 Y104.029 E7.24414
G0 X101.074 Y104.567 F6000
G1 F1200
G1 X104.567 Y101.074 E7.39340
G0 X105.104 Y101.074 F6000
G1 F1200
G1 X101.074 Y105.104 E7.56561
G0 X101.074 Y105.641 F6000
G1 F1200
G1 X105.641 Y101.074 E7.76075
G0 X106.179 Y101.074 F6000
G1 F1200
G1 X101.074 Y106.179 E7.97889
G0 X101.074 Y106.716 F6000
G1 F1200
G1 X106.716 Y101.074 E8.21998
G0 X107.253 Y101.074 F6000
G1 F1200
G1 X101.074 Y107.253 E8.48401
G0 X101.074 Y107.791 F6000
G1 F1200
G1 X107.791 Y101.074 E8.77103
G0 X108.328 Y101.074 F6000
G1 F1200
G1 X101.074 Y108.329 E9.08101
G0 X101.074 Y108.865 F6000
G1 F1200
G1 X108.866 Y101.074 E9.41395
G0 X109.403 Y101.074 F6000
G1 F1200
G1 X101.074 Y109.403 E9.76985
G0 X101.074 Y109.941 F6000
G1 F1200
G1 X109.941 Y101.074 E10.14874
G0 X110.478 Y101.074 F6000
G1 F1200
G1 X101.074 Y110.478 E10.55057
G0 X101.074 Y111.015 F6000
G1 F1200
G1 X111.015 Y101.074 E10.97536
G0 X111.553 Y101.074 F6000
G1 F1200
G1 X101.074 Y111.553 E11.42313
G0 X101.074 Y112.09 F6000
G1 F1200
G1 X112.09 Y101.074 E11.89385
G0 X112.627 Y101.074 F6000
G1 F1200
G1 X101.074 Y112.627 E12.38751
G0 X101.074 Y113.165 F6000
G1 F1200
G1 X113.165 Y101.074 E12.90416
G0 X113.702 Y101.074 F6000
G1 F1200
G1 X101.074 Y113.703 E13.44378
G0 X101.074 Y114.239 F6000
G1 F1200
G1 X114.24 Y101.074 E14.00635
G0 X114.777 Y101.074 F6000
G1 F1200
G1 X101.074 Y114.777 E14.59188
G0 X101.074 Y115.315 F6000
G1 F1200
G1 X115.315 Y101.074 E15.20040
G0 X115.852 Y101.074 F6000
G1 F1200
G1 X101.074 Y115.852 E15.83187
G0 X101.074 Y116.389 F6000
G1 F1200
G1 X116.389 Y101.074 E16.48629
G0 X116.927 Y101.074 F6000
G1 F1200
G1 X101.074 Y116.927 E17.16369
G0 X101.074 Y117.464 F6000
G1 F1200
G1 X117.464 Y101.074 E17.86404
G0 X118.001 Y101.074 F6000
G1 F1200
G1 X101.074 Y118.001 E18.58734
G0 X101.074 Y118.539 F6000
G1 F1200
G1 X118.539 Y101.074 E19.33362
G0 X118.926 Y101.224 F6000
G1 F1200
G1 X101.225 Y118.926 E20.09001
G0 X101.761 Y118.926 F6000
G1 F1200
G1 X118.926 Y101.762 E20.82346
G0 X118.926 Y102.299 F6000
G1 F1200
G1 X102.299 Y118.926 E21.53394
G0 X102.837 Y118.926 F6000
G1 F1200
G1 X118.926 Y102.837 E22.22142
G0 X118.926 Y103.374 F6000
G1 F1200
G1 X103.374 Y118.926 E22.88597
G0 X103.911 Y118.926 F6000
G1 F1200
G1 X118.926 Y103.911 E23.52756
G0 X118.926 Y104.449 F6000
G1 F1200
G1 X104.449 Y118.926 E24.14617
G0 X104.986 Y118.926 F6000
G1 F1200
G1 X118.926 Y104.986 E24.74183
G0 X118.926 Y105.523 F6000
G1 F1200
G1 X105.523 Y118.926 E25.31454
G0 X106.061 Y118.926 F6000
G1 F1200
G1 X118.926 Y106.061 E25.86427
G0 X118.926 Y106.598 F6000
G1 F1200
G1 X106.599 Y118.926 E26.39103
G0 X107.135 Y118.926 F6000
G1 F1200
G1 X118.926 Y107.136 E26.89484
G0 X118.926 Y107.673 F6000
G1 F1200
G1 X107.673 Y118.926 E27.37568
G0 X108.211 Y118.926 F6000
G1 F1200
G1 X118.926 Y108.211 E27.83354
G0 X118.926 Y108.748 F6000
G1 F1200
G1 X108.748 Y118.926 E28.26845
G0 X109.285 Y118.926 F6000
G1 F1200
G1 X118.926 Y109.285 E28.68041
G0 X118.926 Y109.823 F6000
G1 F1200
G1 X109.823 Y118.926 E29.06939
G0 X110.36 Y118.926 F6000
G1 F1200
G1 X118.926 Y110.36 E29.43541
G0 X118.926 Y110.897 F6000
G1 F1200
G1 X110.897 Y118.926 E29.77850
G0 X111.435 Y118.926 F6000
G1 F1200
G1 X118.926 Y111.435 E30.09859
G0 X118.926 Y111.972 F6000
G1 F1200
G1 X111.973 Y118.926 E30.39571
G0 X112.509 Y118.926 F6000
G1 F1200
G1 X118.926 Y112.51 E30.66989
G0 X118.926 Y113.047 F6000
G1 F1200
G1 X113.047 Y118.926 E30.92110
G0 X113.585 Y118.926 F6000
G1 F1200
G1 X118.926 Y113.585 E31.14933
G0 X118.926 Y114.122 F6000
G1 F1200
G1 X114.122 Y118.926 E31.35460
G0 X114.659 Y118.926 F6000
G1 F1200
G1 X118.926 Y114.659 E31.53693
G0 X118.926 Y115.197 F6000
G1 F1200
G1 X115.197 Y118.926 E31.69628
G0 X115.734 Y118.926 F6000
G1 F1200
G1 X118.926 Y115.734 E31.83267
G0 X118.926 Y116.271 F6000
G1 F1200
G1 X116.271 Y118.926 E31.94612
G0 X116.809 Y118.926 F6000
G1 F1200
G1 X118.926 Y116.809 E32.03658
G0 X118.926 Y117.347 F6000
G1 F1200
G1 X117.347 Y118.926 E32.10405
G0 X117.883 Y118.926 F6000
G1 F1200
G1 X118.926 Y117.884 E32.14860
G0 X118.926 Y118.421 F6000
G1 F1200
G1 X118.421 Y118.926 E32.17018
G92 E0
G1 Z0.8 F3000
G92 E0
G1 E-5 F2400

;LAYER 3 of 91
G1 E0 F2700
G0 X119.8 Y119.8 Z0.78 F6000
G1 F1200
G1 X100.2 Y119.8 E0.59221
G1 X100.2 Y100.2 E1.18442
G1 X119.8 Y100.2 E1.77664
G1 X119.8 Y119.8 E2.36885
G0 X119.42 Y119.42 F6000
G1 F1200
G1 X100.58 Y119.42 E2.93810
G1 X100.58 Y100.58 E3.50735
G1 X119.42 Y100.58 E4.07659
G1 X119.42 Y119.42 E4.64584
G0 X119.04 Y119.04 F6000
G1 F1200
G1 X100.96 Y119.04 E5.19213
G1 X100.96 Y100.96 E5.73841
G1 X119.04 Y100.96 E6.28470
G1 X119.04 Y119.04 E6.83099
G0 X101.074 Y103.347 F6000
G1 F1200
