;Generated with Pancakes - © 2019 Lieven Libberecht, William Thenaers

;Setup
M140 S50
M104 S200
M105
M190 S50
M109 S200
M82
G21
M201 X500.0 Y500.0 Z100.0 E5000.0
M203 X500.0 Y500.0 Z10.0 E50.0
M204 P500.0 R1000.0 T500.0
M205 X8.0 Y8.0 Z0.4 E5.0
M220 S100.0
M221 S100.0
G28
G92 E0
G1 Z2.0 F3000
G1 X10.1 Y20.0 Z0.28 F5000
G1 X10.1 Y200.0 Z0.28 E15 F1500
G1 X10.4 Y200.0 Z0.28 F5000
G1 X10.4 Y20.0 Z0.28 E30 F1500
G92 E0
G1 Z2.0 F3000
G92 E0
G1 E-5 F2700
M107
G1 E0 F1500

;Print

;LAYER 0 of 51
M106 S85
G1 E0 F2700
G0 X131.894 Y75.712 Z0.2 F6000
G1 F1500
G1 X133.85 Y75.877 E0.05931
G1 X135.843 Y76.161 E0.12014
G1 X137.802 Y76.56 E0.18054
G1 X139.757 Y77.077 E0.24164
G1 X141.63 Y77.692 E0.30121
G1 X143.504 Y78.43 E0.36206
G1 X145.342 Y79.281 E0.42326
G1 X147.047 Y80.194 E0.48170
G1 X148.829 Y81.287 E0.54486
G1 X150.436 Y82.408 E0.60407
G1 X151.999 Y83.639 E0.66418
G1 X153.506 Y84.974 E0.72501
G1 X154.937 Y86.398 E0.78601
G1 X156.261 Y87.881 E0.84608
G1 X157.491 Y89.432 E0.90589
G1 X158.653 Y91.085 E0.96694
G1 X159.703 Y92.78 E1.02718
G1 X160.662 Y94.554 E1.08812
G1 X161.515 Y96.378 E1.14896
G1 X162.246 Y98.213 E1.20864
G1 X162.889 Y100.149 E1.27028
G1 X163.397 Y102.042 E1.32950
G1 X163.801 Y103.985 E1.38946
G1 X164.097 Y105.994 E1.45082
G1 X164.273 Y107.979 E1.51103
G1 X164.332 Y109.993 E1.57191
G1 X164.273 Y112.014 E1.63300
G1 X164.1 Y113.986 E1.69281
G1 X163.814 Y115.937 E1.75239
G1 X163.403 Y117.932 E1.81394
G1 X162.889 Y119.85 E1.87393
G1 X162.25 Y121.775 E1.93522
G1 X161.516 Y123.619 E1.99518
G1 X160.676 Y125.417 E2.05515
G1 X159.706 Y127.214 E2.11685
G1 X158.659 Y128.906 E2.17697
G1 X157.526 Y130.519 E2.23653
G1 X156.253 Y132.127 E2.29849
G1 X154.946 Y133.591 E2.35779
G1 X153.511 Y135.021 E2.41900
G1 X152.03 Y136.334 E2.47881
G1 X150.436 Y137.591 E2.54014
G1 X148.835 Y138.708 E2.59913
G1 X147.115 Y139.765 E2.66012
G1 X145.338 Y140.72 E2.72108
G1 X143.552 Y141.548 E2.78056
G1 X141.643 Y142.303 E2.84259
G1 X139.777 Y142.916 E2.90193
G1 X137.84 Y143.43 E2.96248
G1 X135.843 Y143.838 E3.02407
G1 X133.891 Y144.117 E3.08365
G1 X131.894 Y144.287 E3.14421
G1 X129.901 Y144.339 E3.20445
G1 X127.887 Y144.274 E3.26533
G1 X125.913 Y144.095 E3.32522
G1 X123.922 Y143.798 E3.38604
G1 X121.96 Y143.386 E3.44662
G1 X120.027 Y142.861 E3.50714
G1 X115.371 Y141.5 E3.65371
G1 X110.701 Y140.242 E3.79984
G1 X106.006 Y139.08 E3.94598
G1 X101.286 Y138.018 E4.09216
G1 X96.547 Y137.056 E4.23827
G1 X91.787 Y136.193 E4.38443
G1 X87.011 Y135.428 E4.53058
G1 X82.219 Y134.766 E4.67675
G1 X77.432 Y134.204 E4.82238
G1 X75.77 Y133.97 E4.87309
G1 X74.167 Y133.631 E4.92260
G1 X72.569 Y133.179 E4.97277
G1 X71.02 Y132.625 E5.02248
G1 X69.479 Y131.951 E5.07330
G1 X68.025 Y131.194 E5.12283
G1 X66.608 Y130.328 E5.17301
G1 X65.25 Y129.366 E5.22329
G1 X63.971 Y128.323 E5.27316
G1 X62.737 Y127.165 E5.32429
G1 X61.632 Y125.978 E5.37329
G1 X60.581 Y124.684 E5.42366
G1 X59.634 Y123.338 E5.47338
G1 X58.764 Y121.908 E5.52396
G1 X58.008 Y120.444 E5.57374
G1 X57.344 Y118.911 E5.62422
G1 X56.788 Y117.344 E5.67446
G1 X56.343 Y115.754 E5.72435
G1 X56.008 Y114.144 E5.77404
G1 X55.783 Y112.503 E5.82408
G1 X55.668 Y110.836 E5.87457
G1 X55.667 Y109.195 E5.92415
G1 X55.78 Y107.529 E5.97461
G1 X56.006 Y105.865 E6.02535
G1 X56.335 Y104.277 E6.07435
G1 X56.779 Y102.682 E6.12437
G1 X57.34 Y101.098 E6.17514
G1 X57.99 Y99.595 E6.22462
G1 X58.766 Y98.088 E6.27584
G1 X59.612 Y96.693 E6.32513
G1 X60.56 Y95.344 E6.37495
G1 X61.624 Y94.029 E6.42606
G1 X62.737 Y92.834 E6.47540
G1 X63.974 Y91.673 E6.52666
G1 X65.236 Y90.643 E6.57588
G1 X66.587 Y89.685 E6.62592
G1 X68.006 Y88.815 E6.67622
G1 X69.461 Y88.057 E6.72579
G1 X70.972 Y87.394 E6.77564
G1 X72.54 Y86.829 E6.82600
G1 X74.154 Y86.371 E6.87669
G1 X75.767 Y86.029 E6.92651
G1 X77.405 Y85.797 E6.97650
G1 X77.405 Y85.798 E6.97653
G1 X82.219 Y85.233 E7.12298
G1 X87.011 Y84.571 E7.26915
G1 X91.787 Y83.806 E7.41529
G1 X96.547 Y82.943 E7.56146
G1 X101.286 Y81.981 E7.70757
G1 X106.006 Y80.919 E7.85375
G1 X110.701 Y79.757 E7.99989
G1 X115.371 Y78.499 E8.14602
G1 X120.004 Y77.145 E8.29186
G1 X121.948 Y76.615 E8.35275
G1 X123.88 Y76.209 E8.41240
G1 X125.875 Y75.908 E8.47336
G1 X127.847 Y75.728 E8.53319
G1 X129.861 Y75.66 E8.59408
G1 X131.894 Y75.712 E8.65552
G1 E0 F2700
G0 X123.956 Y76.663 F6000
G1 F1500
G1 X125.933 Y76.365 E8.71593
G1 X127.887 Y76.186 E8.77522
G1 X129.849 Y76.12 E8.83453
G1 X131.862 Y76.171 E8.89538
G1 X133.797 Y76.335 E8.95405
G1 X135.774 Y76.617 E9.01439
G1 X137.713 Y77.011 E9.07418
G1 X139.611 Y77.513 E9.13350
G1 X141.479 Y78.127 E9.19291
G1 X143.312 Y78.848 E9.25242
G1 X145.126 Y79.688 E9.31282
G1 X146.83 Y80.601 E9.37123
G1 X148.564 Y81.663 E9.43267
G1 X150.159 Y82.775 E9.49142
G1 X151.706 Y83.996 E9.55097
G1 X153.192 Y85.311 E9.61092
G1 X154.602 Y86.715 E9.67105
G1 X155.906 Y88.174 E9.73017
G1 X157.125 Y89.712 E9.78947
G1 X158.267 Y91.337 E9.84948
G1 X159.314 Y93.026 E9.90952
G1 X160.252 Y94.763 E9.96917
G1 X161.082 Y96.537 E10.02835
G1 X161.822 Y98.393 E10.08872
G1 X162.441 Y100.258 E10.14809
G1 X162.95 Y102.152 E10.20735
G1 X163.351 Y104.085 E10.26700
G1 X163.641 Y106.049 E10.32698
G1 X163.813 Y108.006 E10.38634
G1 X163.871 Y109.993 E10.44640
G1 X163.813 Y111.995 E10.50692
G1 X163.644 Y113.929 E10.56558
G1 X163.359 Y115.867 E10.62476
G1 X162.959 Y117.808 E10.68464
G1 X162.442 Y119.737 E10.74499
G1 X161.824 Y121.601 E10.80432
G1 X161.089 Y123.447 E10.86436
G1 X160.265 Y125.21 E10.92316
G1 X159.306 Y126.985 E10.98411
G1 X158.284 Y128.638 E11.04284
G1 X157.144 Y130.262 E11.10279
G1 X155.913 Y131.817 E11.16271
G1 X154.602 Y133.285 E11.22218
G1 X153.198 Y134.684 E11.28207
G1 X151.738 Y135.979 E11.34103
G1 X150.169 Y137.216 E11.40140
G1 X148.574 Y138.328 E11.46015
G1 X146.876 Y139.372 E11.52038
G1 X145.152 Y140.298 E11.57951
G1 X143.343 Y141.137 E11.63976
G1 X141.501 Y141.866 E11.69961
G1 X139.634 Y142.478 E11.75898
G1 X137.734 Y142.983 E11.81838
G1 X135.786 Y143.38 E11.87845
G1 X133.839 Y143.659 E11.93788
G1 X131.86 Y143.828 E11.99789
G1 X129.903 Y143.878 E12.05704
G1 X127.908 Y143.814 E12.11735
G1 X125.972 Y143.639 E12.17608
G1 X123.998 Y143.344 E12.23639
G1 X122.075 Y142.94 E12.29576
G1 X120.139 Y142.415 E12.35637
G1 X115.496 Y141.057 E12.50254
G1 X110.816 Y139.796 E12.64899
G1 X106.111 Y138.633 E12.79543
G1 X101.383 Y137.568 E12.94186
G1 X96.634 Y136.604 E13.08828
G1 X91.865 Y135.739 E13.23472
G1 X87.079 Y134.973 E13.38117
G1 X82.278 Y134.309 E13.52762
G1 X77.475 Y133.746 E13.67373
G1 X75.856 Y133.518 E13.72313
G1 X74.273 Y133.184 E13.77202
G1 X72.713 Y132.742 E13.82101
G1 X71.184 Y132.195 E13.87007
G1 X69.688 Y131.541 E13.91940
G1 X68.255 Y130.795 E13.96822
G1 X66.862 Y129.944 E14.01754
G1 X65.521 Y128.994 E14.06720
G1 X64.265 Y127.969 E14.11618
G1 X63.078 Y126.856 E14.16534
G1 X61.973 Y125.669 E14.21434
G1 X60.949 Y124.407 E14.26345
G1 X60.018 Y123.086 E14.31228
G1 X59.161 Y121.675 E14.36216
G1 X58.428 Y120.256 E14.41042
G1 X57.77 Y118.736 E14.46046
G1 X57.228 Y117.211 E14.50936
G1 X56.792 Y115.651 E14.55831
G1 X56.458 Y114.047 E14.60781
G1 X56.241 Y112.468 E14.65597
G1 X56.128 Y110.82 E14.70588
G1 X56.127 Y109.211 E14.75449
G1 X56.238 Y107.578 E14.80395
G1 X56.458 Y105.953 E14.85350
G1 X56.784 Y104.379 E14.90206
G1 X57.22 Y102.815 E14.95112
G1 X57.768 Y101.266 E15.00077
G1 X58.404 Y99.794 E15.04922
G1 X59.164 Y98.32 E15.09933
G1 X59.994 Y96.951 E15.14770
G1 X60.939 Y95.607 E15.19734
G1 X61.972 Y94.33 E15.24697
G1 X63.07 Y93.15 E15.29567
G1 X64.258 Y92.036 E15.34488
G1 X65.525 Y91.002 E15.39429
G1 X66.836 Y90.072 E15.44286
G1 X68.237 Y89.213 E15.49251
G1 X69.659 Y88.472 E15.54096
G1 X71.137 Y87.823 E15.58973
G1 X72.693 Y87.263 E15.63970
G1 X74.253 Y86.82 E15.68870
G1 X75.84 Y86.484 E15.73771
G1 X77.463 Y86.254 E15.78724
G1 X82.278 Y85.69 E15.93372
G1 X87.079 Y85.026 E16.08016
G1 X91.865 Y84.26 E16.22661
G1 X96.634 Y83.395 E16.37306
G1 X101.383 Y82.431 E16.51948
G1 X106.111 Y81.366 E16.66591
G1 X110.816 Y80.203 E16.81235
G1 X115.496 Y78.942 E16.95880
G1 X120.117 Y77.591 E17.10427
G1 X122.064 Y77.061 E17.16524
G1 X123.956 Y76.663 E17.22366
G1 E0 F2700
G0 X131.337 Y84.374 F6000
G1 F1500
G1 X133.103 Y84.528 E17.27722
G1 X134.853 Y84.805 E17.33075
G1 X136.579 Y85.2 E17.38425
G1 X138.274 Y85.713 E17.43776
G1 X139.93 Y86.342 E17.49128
G1 X141.539 Y87.084 E17.54482
G1 X143.092 Y87.935 E17.59833
G1 X144.584 Y88.891 E17.65187
G1 X146.005 Y89.949 E17.70540
G1 X147.349 Y91.102 E17.75890
G1 X148.601 Y92.33 E17.81189
G1 X149.786 Y93.671 E17.86596
G1 X150.865 Y95.075 E17.91946
G1 X151.845 Y96.551 E17.97299
G1 X152.714 Y98.074 E18.02598
G1 X153.488 Y99.687 E18.08003
G1 X154.138 Y101.315 E18.13300
G1 X154.685 Y103.02 E18.18710
G1 X155.108 Y104.74 E18.24062
G1 X155.41 Y106.485 E18.29413
G1 X155.592 Y108.229 E18.34711
G1 X155.652 Y109.999 E18.40062
G1 X155.592 Y111.77 E18.45416
G1 X155.405 Y113.55 E18.50824
G1 X155.1 Y115.294 E18.56173
G1 X154.675 Y117.014 E18.61527
G1 X154.132 Y118.7 E18.66879
G1 X153.474 Y120.344 E18.72229
G1 X152.713 Y121.925 E18.77531
G1 X151.827 Y123.478 E18.82933
G1 X150.845 Y124.953 E18.88287
G1 X149.764 Y126.355 E18.93636
G1 X148.601 Y127.669 E18.98938
G1 X147.324 Y128.922 E19.04344
G1 X145.978 Y130.073 E19.09695
G1 X144.569 Y131.118 E19.14995
G1 X143.078 Y132.073 E19.20345
G1 X141.524 Y132.923 E19.25697
G1 X139.898 Y133.671 E19.31105
G1 X138.241 Y134.297 E19.36457
G1 X136.545 Y134.808 E19.41809
G1 X134.819 Y135.202 E19.47158
G1 X133.067 Y135.475 E19.52516
G1 X131.32 Y135.626 E19.57814
G1 X129.531 Y135.655 E19.63220
G1 X127.763 Y135.562 E19.68569
G1 X126.005 Y135.348 E19.73920
G1 X124.282 Y135.017 E19.79222
G1 X122.57 Y134.564 E19.84572
G1 X120.893 Y133.992 E19.89926
G1 X119.243 Y133.3 E19.95332
G1 X117.662 Y132.503 E20.00682
G1 X116.153 Y131.609 E20.05981
G1 X114.681 Y130.591 E20.11389
G1 X113.298 Y129.486 E20.16738
G1 X111.993 Y128.288 E20.22090
G1 X110.784 Y127.016 E20.27393
G1 X109.646 Y125.635 E20.32800
G1 X108.617 Y124.195 E20.38147
G1 X107.696 Y122.702 E20.43448
G1 X106.866 Y121.118 E20.48851
G1 X106.16 Y119.512 E20.54152
G1 X105.56 Y117.845 E20.59505
G1 X105.074 Y116.124 E20.64908
G1 X104.711 Y114.389 E20.70264
G1 X104.468 Y112.635 E20.75614
G1 X104.347 Y110.868 E20.80966
G1 X104.348 Y109.096 E20.86320
G1 X104.469 Y107.346 E20.91620
G1 X104.717 Y105.576 E20.97020
G1 X105.082 Y103.841 E21.02377
G1 X105.567 Y102.138 E21.07727
G1 X106.167 Y100.471 E21.13081
G1 X106.881 Y98.85 E21.18433
G1 X107.696 Y97.297 E21.23732
G1 X108.636 Y95.775 E21.29137
G1 X109.667 Y94.336 E21.34486
G1 X110.785 Y92.983 E21.39789
G1 X112.019 Y91.686 E21.45198
G1 X113.324 Y90.491 E21.50544
G1 X114.696 Y89.396 E21.55848
G1 X116.168 Y88.381 E21.61251
G1 X117.692 Y87.479 E21.66602
G1 X119.275 Y86.685 E21.71953
G1 X120.893 Y86.007 E21.77253
G1 X122.57 Y85.435 E21.82607
G1 X124.283 Y84.982 E21.87961
G1 X126.039 Y84.645 E21.93363
G1 X127.798 Y84.434 E21.98716
G1 X129.55 Y84.343 E22.04017
G1 X131.337 Y84.374 E22.09417
G1 E0 F2700
G0 X131.361 Y83.915 F6000
G1 F1500
G1 X133.159 Y84.071 E22.14870
G1 X134.941 Y84.353 E22.20321
G1 X136.697 Y84.755 E22.25764
G1 X138.423 Y85.278 E22.31214
G1 X140.108 Y85.917 E22.36659
G1 X141.746 Y86.673 E22.42110
G1 X143.327 Y87.539 E22.47556
G1 X144.846 Y88.513 E22.53008
G1 X146.293 Y89.59 E22.58459
G1 X147.66 Y90.763 E22.63901
G1 X148.935 Y92.013 E22.69296
G1 X150.141 Y93.378 E22.74800
G1 X151.24 Y94.808 E22.80249
G1 X152.237 Y96.309 E22.85694
G1 X153.121 Y97.86 E22.91088
G1 X153.91 Y99.502 E22.96592
G1 X154.571 Y101.16 E23.01985
G1 X155.128 Y102.894 E23.07488
G1 X155.558 Y104.645 E23.12936
G1 X155.866 Y106.422 E23.18385
G1 X156.051 Y108.198 E23.23780
G1 X156.113 Y109.999 E23.29225
G1 X156.051 Y111.802 E23.34676
G1 X155.861 Y113.613 E23.40178
G1 X155.551 Y115.389 E23.45625
G1 X155.117 Y117.14 E23.51076
G1 X154.565 Y118.856 E23.56523
G1 X153.896 Y120.53 E23.61970
G1 X153.121 Y122.139 E23.67366
G1 X152.218 Y123.719 E23.72864
G1 X151.219 Y125.221 E23.78315
G1 X150.118 Y126.649 E23.83763
G1 X148.934 Y127.986 E23.89159
G1 X147.635 Y129.262 E23.94661
G1 X146.265 Y130.433 E24.00106
G1 X144.831 Y131.497 E24.05502
G1 X143.312 Y132.469 E24.10950
G1 X141.73 Y133.335 E24.16400
G1 X140.075 Y134.095 E24.21902
G1 X138.389 Y134.733 E24.27349
G1 X136.662 Y135.253 E24.32799
G1 X134.905 Y135.654 E24.38244
G1 X133.122 Y135.932 E24.43696
G1 X131.343 Y136.085 E24.49091
G1 X129.522 Y136.115 E24.54594
G1 X127.723 Y136.02 E24.60037
G1 X125.934 Y135.802 E24.65483
G1 X124.179 Y135.465 E24.70882
G1 X122.437 Y135.004 E24.76327
G1 X120.729 Y134.423 E24.81778
G1 X119.05 Y133.718 E24.87280
G1 X117.441 Y132.906 E24.92726
G1 X115.904 Y131.996 E24.98123
G1 X114.407 Y130.961 E25.03622
G1 X112.998 Y129.835 E25.09072
G1 X111.671 Y128.617 E25.14514
G1 X110.44 Y127.321 E25.19915
G1 X109.281 Y125.916 E25.25418
G1 X108.233 Y124.449 E25.30865
G1 X107.296 Y122.929 E25.36261
G1 X106.452 Y121.317 E25.41758
G1 X105.732 Y119.682 E25.47156
G1 X105.121 Y117.985 E25.52606
G1 X104.627 Y116.234 E25.58103
G1 X104.257 Y114.467 E25.63558
G1 X104.01 Y112.683 E25.69000
G1 X103.887 Y110.883 E25.74451
G1 X103.888 Y109.08 E25.79899
G1 X104.011 Y107.298 E25.85296
G1 X104.263 Y105.496 E25.90794
G1 X104.635 Y103.731 E25.96244
G1 X105.129 Y101.997 E26.01691
G1 X105.739 Y100.3 E26.07140
G1 X106.467 Y98.65 E26.12589
G1 X107.296 Y97.069 E26.17983
G1 X108.253 Y95.52 E26.23485
G1 X109.303 Y94.056 E26.28928
G1 X110.44 Y92.677 E26.34328
G1 X111.696 Y91.358 E26.39832
G1 X113.025 Y90.141 E26.45276
G1 X114.421 Y89.027 E26.50673
G1 X115.92 Y87.994 E26.56173
G1 X117.472 Y87.075 E26.61623
G1 X119.082 Y86.267 E26.67066
G1 X120.729 Y85.576 E26.72463
G1 X122.437 Y84.995 E26.77914
G1 X124.18 Y84.533 E26.83362
G1 X125.968 Y84.19 E26.88863
G1 X127.758 Y83.976 E26.94310
G1 X129.542 Y83.883 E26.99708
G1 X131.361 Y83.915 E27.05205
G1 E0 F2700
G0 X82.095 Y94.481 F6000
G1 F1500
G1 X83.478 Y94.732 E27.09452
G1 X84.832 Y95.106 E27.13696
G1 X86.148 Y95.6 E27.17943
G1 X87.413 Y96.21 E27.22186
G1 X88.619 Y96.93 E27.26430
G1 X89.757 Y97.755 E27.30677
G1 X90.814 Y98.68 E27.34921
G1 X91.786 Y99.695 E27.39167
G1 X92.663 Y100.794 E27.43416
G1 X93.436 Y101.967 E27.47660
G1 X94.102 Y103.204 E27.51905
G1 X94.654 Y104.497 E27.56153
G1 X95.089 Y105.833 E27.60398
G1 X95.398 Y107.19 E27.64604
G1 X95.59 Y108.596 E27.68891
G1 X95.652 Y109.999 E27.73135
G1 X95.59 Y111.403 E27.77381
G1 X95.401 Y112.796 E27.81628
G1 X95.089 Y114.166 E27.85874
G1 X94.654 Y115.502 E27.90119
G1 X94.102 Y116.795 E27.94367
G1 X93.436 Y118.032 E27.98612
G1 X92.663 Y119.205 E28.02856
G1 X91.786 Y120.304 E28.07105
G1 X90.814 Y121.319 E28.11351
G1 X89.757 Y122.244 E28.15595
G1 X88.619 Y123.069 E28.19842
G1 X87.413 Y123.789 E28.24086
G1 X86.148 Y124.399 E28.28329
G1 X84.832 Y124.893 E28.32576
G1 X83.478 Y125.267 E28.36821
G1 X82.095 Y125.518 E28.41068
G1 X80.695 Y125.644 E28.45315
G1 X79.289 Y125.644 E28.49563
G1 X77.89 Y125.518 E28.53807
G1 X76.506 Y125.267 E28.58057
G1 X75.153 Y124.893 E28.62299
G1 X73.837 Y124.399 E28.66546
G1 X72.571 Y123.789 E28.70792
G1 X71.365 Y123.069 E28.75036
G1 X70.228 Y122.244 E28.79280
G1 X69.17 Y121.319 E28.83527
G1 X68.198 Y120.304 E28.87773
G1 X67.322 Y119.205 E28.92019
G1 X66.549 Y118.032 E28.96264
G1 X65.883 Y116.795 E29.00509
G1 X65.331 Y115.502 E29.04757
G1 X64.896 Y114.166 E29.09002
G1 X64.583 Y112.796 E29.13248
G1 X64.395 Y111.403 E29.17495
G1 X64.332 Y109.999 E29.21742
G1 X64.395 Y108.596 E29.25985
G1 X64.583 Y107.203 E29.30232
G1 X64.896 Y105.833 E29.34478
G1 X65.331 Y104.497 E29.38723
G1 X65.883 Y103.204 E29.42971
G1 X66.549 Y101.967 E29.47216
G1 X67.322 Y100.794 E29.51461
G1 X68.198 Y99.695 E29.55707
G1 X69.17 Y98.68 E29.59953
G1 X70.228 Y97.755 E29.64200
G1 X71.365 Y96.93 E29.68444
G1 X72.571 Y96.21 E29.72688
G1 X73.837 Y95.6 E29.76934
G1 X75.153 Y95.106 E29.81181
G1 X76.506 Y94.732 E29.85423
G1 X77.89 Y94.481 E29.89673
G1 X79.289 Y94.355 E29.93917
G1 X80.695 Y94.355 E29.98165
G1 X82.095 Y94.481 E30.02412
G1 E0 F2700
G0 X82.157 Y94.024 F6000
G1 F1500
G1 X83.58 Y94.283 E30.06783
G1 X84.975 Y94.668 E30.11155
G1 X86.329 Y95.176 E30.15525
G1 X87.631 Y95.804 E30.19892
G1 X88.873 Y96.545 E30.24262
G1 X90.044 Y97.395 E30.28634
G1 X91.132 Y98.347 E30.33002
G1 X92.132 Y99.392 E30.37373
