;Generated with Pancakes - © 2019 Lieven Libberecht, William Thenaers

;Setup
M140 S50
M104 S200
M105
M190 S50
M109 S200
M82
G21
M201 X500.0 Y500.0 Z100.0 E5000.0
M203 X500.0 Y500.0 Z10.0 E50.0
M204 P500.0 R1000.0 T500.0
M205 X8.0 Y8.0 Z0.4 E5.0
M220 S100.0
M221 S100.0
G28
G92 E0
G1 Z2.0 F3000
G1 X10.1 Y20.0 Z0.28 F5000
G1 X10.1 Y200.0 Z0.28 E15 F1500
G1 X10.4 Y200.0 Z0.28 F5000
G1 X10.4 Y20.0 Z0.28 E30 F1500
G92 E0
G1 Z2.0 F3000
G92 E0
G1 E-5 F2700
M107
G1 E0 F1500

;Print

;LAYER 0 of 26
M106 S85
G0 X120.51 Y107.348 Z0.18 F6000
G1 F1200
G1 X120.909 Y107.458 E0.01251
G1 X121.286 Y107.627 E0.02499
G1 X121.633 Y107.852 E0.03748
G1 X121.941 Y108.127 E0.04996
G1 X122.205 Y108.446 E0.06247
G1 X122.416 Y108.801 E0.07495
G1 X122.568 Y109.177 E0.08720
G1 X122.665 Y109.587 E0.09993
G1 X122.697 Y109.999 E0.11242
G1 X122.665 Y110.412 E0.12494
G1 X122.57 Y110.815 E0.13745
G1 X122.416 Y111.198 E0.14992
G1 X122.205 Y111.553 E0.16240
G1 X121.941 Y111.872 E0.17491
G1 X121.633 Y112.147 E0.18738
G1 X121.286 Y112.372 E0.19988
G1 X120.909 Y112.541 E0.21236
G1 X120.51 Y112.651 E0.22487
G1 X120.1 Y112.698 E0.23734
G1 X119.686 Y112.682 E0.24986
G1 X119.28 Y112.603 E0.26235
G1 X118.891 Y112.464 E0.27483
G1 X118.528 Y112.266 E0.28733
G1 X118.2 Y112.016 E0.29979
G1 X117.912 Y111.718 E0.31231
G1 X117.675 Y111.38 E0.32478
G1 X117.491 Y111.009 E0.33730
G1 X117.367 Y110.615 E0.34978
G1 X117.303 Y110.207 E0.36226
G1 X117.303 Y109.792 E0.37479
G1 X117.367 Y109.384 E0.38727
G1 X117.491 Y108.99 E0.39975
G1 X117.675 Y108.619 E0.41227
G1 X117.912 Y108.281 E0.42474
G1 X118.2 Y107.983 E0.43726
G1 X118.528 Y107.733 E0.44972
G1 X118.891 Y107.535 E0.46222
G1 X119.28 Y107.396 E0.47470
G1 X119.686 Y107.317 E0.48719
G1 X120.1 Y107.301 E0.49971
G1 X120.51 Y107.348 E0.51218
G0 X120.971 Y102.765 F6000
G1 F1200
G1 X121.622 Y102.884 E0.53218
G1 X122.257 Y103.059 E0.55208
G1 X122.863 Y103.286 E0.57163
G1 X123.45 Y103.569 E0.59132
G1 X124.018 Y103.908 E0.61131
G1 X124.546 Y104.292 E0.63103
G1 X125.044 Y104.727 E0.65101
G1 X125.495 Y105.199 E0.67074
G1 X125.902 Y105.708 E0.69043
G1 X126.262 Y106.255 E0.71022
G1 X126.571 Y106.83 E0.72994
G1 X126.834 Y107.443 E0.75009
G1 X127.033 Y108.057 E0.76960
G1 X127.178 Y108.696 E0.78939
G1 X127.266 Y109.336 E0.80891
G1 X127.296 Y109.999 E0.82897
G1 X127.266 Y110.658 E0.84890
G1 X127.176 Y111.312 E0.86885
G1 X127.033 Y111.942 E0.88836
G1 X126.834 Y112.556 E0.90787
G1 X126.571 Y113.169 E0.92802
G1 X126.262 Y113.744 E0.94774
G1 X125.902 Y114.291 E0.96753
G1 X125.495 Y114.8 E0.98722
G1 X125.044 Y115.272 E1.00695
G1 X124.546 Y115.707 E1.02693
G1 X124.018 Y116.091 E1.04665
G1 X123.45 Y116.43 E1.06664
G1 X122.863 Y116.713 E1.08633
G1 X122.257 Y116.94 E1.10588
G1 X121.622 Y117.115 E1.12578
G1 X120.971 Y117.234 E1.14578
G1 X120.325 Y117.292 E1.16538
G1 X119.666 Y117.292 E1.18529
G1 X119.021 Y117.234 E1.20485
G1 X118.37 Y117.115 E1.22485
G1 X117.735 Y116.94 E1.24475
G1 X117.129 Y116.713 E1.26431
G1 X116.542 Y116.43 E1.28399
G1 X115.974 Y116.091 E1.30398
G1 X115.446 Y115.707 E1.32371
G1 X114.948 Y115.272 E1.34369
G1 X114.497 Y114.8 E1.36341
G1 X114.09 Y114.291 E1.38310
G1 X113.73 Y113.744 E1.40289
G1 X113.421 Y113.169 E1.42261
G1 X113.158 Y112.556 E1.44277
G1 X112.96 Y111.945 E1.46217
G1 X112.812 Y111.3 E1.48217
G1 X112.726 Y110.658 E1.50174
G1 X112.696 Y109.999 E1.52167
G1 X112.726 Y109.336 E1.54172
G1 X112.812 Y108.699 E1.56115
G1 X112.96 Y108.054 E1.58114
G1 X113.158 Y107.443 E1.60055
G1 X113.421 Y106.83 E1.62070
G1 X113.73 Y106.255 E1.64043
G1 X114.09 Y105.708 E1.66021
G1 X114.497 Y105.199 E1.67990
G1 X114.948 Y104.727 E1.69963
G1 X115.446 Y104.292 E1.71961
G1 X115.974 Y103.908 E1.73933
G1 X116.542 Y103.569 E1.75932
G1 X117.129 Y103.286 E1.77901
G1 X117.735 Y103.059 E1.79856
G1 X118.37 Y102.884 E1.81846
G1 X119.021 Y102.765 E1.83846
G1 X119.666 Y102.707 E1.85803
G1 X120.325 Y102.707 E1.87794
G1 X120.971 Y102.765 E1.89754
G0 X96.03 Y102.369 F6000
G1 F1200
G1 X96.71 Y102.493 E1.91842
G1 X97.376 Y102.677 E1.93930
G1 X98.023 Y102.919 E1.96017
G1 X98.645 Y103.219 E1.98104
G1 X99.238 Y103.573 E2.00190
G1 X99.797 Y103.98 E2.02280
G1 X100.317 Y104.434 E2.04365
G1 X100.795 Y104.933 E2.06453
G1 X101.226 Y105.473 E2.08541
G1 X101.606 Y106.05 E2.10628
G1 X101.933 Y106.658 E2.12714
G1 X102.205 Y107.294 E2.14804
G1 X102.419 Y107.951 E2.16892
G1 X102.569 Y108.611 E2.18937
G1 X102.665 Y109.309 E2.21066
G1 X102.696 Y109.999 E2.23153
G1 X102.665 Y110.69 E2.25243
G1 X102.572 Y111.375 E2.27331
G1 X102.419 Y112.048 E2.29417
G1 X102.205 Y112.705 E2.31505
G1 X101.933 Y113.341 E2.33595
G1 X101.606 Y113.949 E2.35680
G1 X101.226 Y114.526 E2.37768
G1 X100.795 Y115.066 E2.39856
G1 X100.317 Y115.565 E2.41943
G1 X99.797 Y116.019 E2.44029
G1 X99.238 Y116.426 E2.46118
G1 X98.645 Y116.78 E2.48205
G1 X98.023 Y117.08 E2.50292
G1 X97.376 Y117.322 E2.52379
G1 X96.71 Y117.506 E2.54467
G1 X96.03 Y117.63 E2.56555
G1 X95.341 Y117.692 E2.58645
G1 X94.65 Y117.692 E2.60733
G1 X93.962 Y117.63 E2.62820
G1 X93.282 Y117.506 E2.64909
G1 X92.616 Y117.322 E2.66997
G1 X91.969 Y117.08 E2.69084
G1 X91.347 Y116.78 E2.71170
G1 X90.754 Y116.426 E2.73257
G1 X90.195 Y116.019 E2.75346
G1 X89.675 Y115.565 E2.77432
G1 X89.197 Y115.066 E2.79520
G1 X88.766 Y114.526 E2.81607
G1 X88.386 Y113.949 E2.83695
G1 X88.059 Y113.341 E2.85781
G1 X87.787 Y112.705 E2.87871
G1 X87.573 Y112.048 E2.89959
G1 X87.419 Y111.375 E2.92045
G1 X87.327 Y110.69 E2.94133
G1 X87.296 Y109.999 E2.96223
G1 X87.327 Y109.309 E2.98310
G1 X87.419 Y108.624 E3.00398
G1 X87.573 Y107.951 E3.02484
G1 X87.787 Y107.294 E3.04572
G1 X88.059 Y106.658 E3.06662
G1 X88.386 Y106.05 E3.08748
G1 X88.766 Y105.473 E3.10835
G1 X89.197 Y104.933 E3.12923
G1 X89.675 Y104.434 E3.15011
G1 X90.195 Y103.98 E3.17097
G1 X90.754 Y103.573 E3.19186
G1 X91.347 Y103.219 E3.21273
G1 X91.969 Y102.919 E3.23359
G1 X92.616 Y102.677 E3.25446
G1 X93.282 Y102.493 E3.27534
G1 X93.962 Y102.369 E3.29623
G1 X94.65 Y102.307 E3.31710
G1 X95.341 Y102.307 E3.33798
G1 X96.03 Y102.369 E3.35888
G0 X120.653 Y97.316 F6000
G1 F1200
G1 X121.544 Y97.394 E3.38590
G1 X122.41 Y97.532 E3.41240
G1 X123.265 Y97.728 E3.43890
G1 X124.104 Y97.983 E3.46540
G1 X124.923 Y98.295 E3.49188
G1 X125.718 Y98.662 E3.51834
G1 X126.487 Y99.084 E3.54484
G1 X127.225 Y99.557 E3.57132
G1 X127.928 Y100.082 E3.59784
G1 X128.592 Y100.653 E3.62430
G1 X129.206 Y101.254 E3.65026
G1 X129.787 Y101.911 E3.67676
G1 X130.332 Y102.621 E3.70380
G1 X130.807 Y103.336 E3.72974
G1 X131.249 Y104.113 E3.75675
G1 X131.628 Y104.904 E3.78325
G1 X131.952 Y105.719 E3.80975
G1 X132.219 Y106.554 E3.83624
G1 X132.428 Y107.405 E3.86271
G1 X132.577 Y108.269 E3.88920
G1 X132.666 Y109.123 E3.91515
G1 X132.696 Y109.999 E3.94163
G1 X132.667 Y110.859 E3.96763
G1 X132.572 Y111.765 E3.99516
G1 X132.421 Y112.628 E4.02163
G1 X132.209 Y113.48 E4.04815
G1 X131.94 Y114.314 E4.07463
G1 X131.614 Y115.128 E4.10113
G1 X131.233 Y115.917 E4.12760
G1 X130.797 Y116.678 E4.15410
G1 X130.312 Y117.407 E4.18056
G1 X129.787 Y118.088 E4.20654
G1 X129.206 Y118.745 E4.23304
G1 X128.567 Y119.371 E4.26007
G1 X127.901 Y119.94 E4.28653
G1 X127.21 Y120.452 E4.31252
G1 X126.457 Y120.932 E4.33950
G1 X125.687 Y121.353 E4.36602
G1 X124.89 Y121.718 E4.39250
G1 X124.07 Y122.028 E4.41899
G1 X123.231 Y122.281 E4.44547
G1 X122.375 Y122.475 E4.47199
G1 X121.509 Y122.609 E4.49846
G1 X120.653 Y122.683 E4.52442
G1 X119.759 Y122.697 E4.55144
G1 X118.883 Y122.65 E4.57795
G1 X118.014 Y122.544 E4.60440
G1 X117.153 Y122.377 E4.63090
G1 X116.306 Y122.151 E4.65739
G1 X115.476 Y121.868 E4.68388
G1 X114.668 Y121.528 E4.71037
G1 X113.886 Y121.133 E4.73684
G1 X113.146 Y120.695 E4.76282
G1 X112.425 Y120.197 E4.78930
G1 X111.727 Y119.638 E4.81632
G1 X111.082 Y119.045 E4.84279
G1 X110.489 Y118.422 E4.86878
G1 X109.921 Y117.731 E4.89581
G1 X109.411 Y117.018 E4.92229
G1 X108.953 Y116.271 E4.94877
G1 X108.547 Y115.494 E4.97526
G1 X108.2 Y114.707 E5.00124
G1 X107.903 Y113.882 E5.02774
G1 X107.665 Y113.039 E5.05420
G1 X107.482 Y112.163 E5.08124
G1 X107.363 Y111.295 E5.10772
G1 X107.303 Y110.421 E5.13419
G1 X107.303 Y109.561 E5.16017
G1 X107.366 Y108.669 E5.18719
G1 X107.488 Y107.801 E5.21367
G1 X107.67 Y106.943 E5.24018
G1 X107.91 Y106.101 E5.26663
G1 X108.207 Y105.276 E5.29312
G1 X108.562 Y104.474 E5.31962
G1 X108.97 Y103.698 E5.34611
G1 X109.432 Y102.952 E5.37263
G1 X109.942 Y102.24 E5.39909
G1 X110.489 Y101.577 E5.42506
G1 X111.106 Y100.93 E5.45207
G1 X111.753 Y100.339 E5.47855
G1 X112.425 Y99.802 E5.50454
G1 X113.161 Y99.295 E5.53154
G1 X113.916 Y98.849 E5.55804
G1 X114.7 Y98.457 E5.58452
G1 X115.509 Y98.119 E5.61102
G1 X116.339 Y97.837 E5.63750
G1 X117.17 Y97.618 E5.66347
G1 X118.048 Y97.45 E5.69048
G1 X118.919 Y97.346 E5.71698
G1 X119.777 Y97.301 E5.74294
G1 X120.653 Y97.316 E5.76941
G0 X124.909 Y126.588 F6000
G1 F1200
G1 X123.963 Y126.838 E5.79898
G1 X122.949 Y127.046 E5.83025
G1 X121.967 Y127.186 E5.86023
G1 X120.953 Y127.273 E5.89098
G1 X119.959 Y127.299 E5.92102
G1 X118.946 Y127.267 E5.95164
G1 X117.953 Y127.178 E5.98177
G1 X116.949 Y127.028 E6.01244
G1 X115.956 Y126.82 E6.04309
G1 X114.987 Y126.558 E6.07342
G1 X112.65 Y125.875 E6.14699
G1 X110.318 Y125.246 E6.21997
G1 X107.973 Y124.666 E6.29296
G1 X105.616 Y124.136 E6.36595
G1 X103.249 Y123.656 E6.43893
G1 X100.872 Y123.224 E6.51192
G1 X98.485 Y122.842 E6.58496
G1 X96.093 Y122.512 E6.65792
G1 X93.695 Y122.23 E6.73088
G1 X92.884 Y122.116 E6.75562
G1 X92.054 Y121.942 E6.78125
G1 X91.257 Y121.717 E6.80627
G1 X90.468 Y121.435 E6.83159
G1 X89.691 Y121.097 E6.85719
G1 X88.96 Y120.716 E6.88209
G1 X88.238 Y120.276 E6.90764
G1 X87.55 Y119.789 E6.93311
G1 X86.898 Y119.258 E6.95852
G1 X86.289 Y118.687 E6.98374
G1 X85.724 Y118.081 E7.00877
G1 X85.198 Y117.435 E7.03395
G1 X84.708 Y116.739 E7.05966
G1 X84.277 Y116.032 E7.08468
G1 X83.887 Y115.279 E7.11031
G1 X83.553 Y114.51 E7.13564
G1 X83.277 Y113.734 E7.16052
G1 X83.047 Y112.914 E7.18626
G1 X82.876 Y112.094 E7.21156
G1 X82.763 Y111.278 E7.23646
G1 X82.704 Y110.428 E7.26220
G1 X82.703 Y109.604 E7.28710
G1 X82.76 Y108.754 E7.31284
G1 X82.87 Y107.938 E7.33772
G1 X83.039 Y107.118 E7.36301
G1 X83.267 Y106.298 E7.38873
G1 X83.541 Y105.52 E7.41365
G1 X83.879 Y104.738 E7.43939
G1 X84.263 Y103.991 E7.46477
G1 X84.689 Y103.288 E7.48961
G1 X85.178 Y102.591 E7.51533
G1 X85.715 Y101.927 E7.54113
G1 X86.277 Y101.324 E7.56604
G1 X86.875 Y100.762 E7.59084
G1 X87.534 Y100.222 E7.61658
G1 X88.217 Y99.737 E7.64189
G1 X88.923 Y99.304 E7.66691
G1 X89.665 Y98.916 E7.69221
G1 X90.437 Y98.576 E7.71770
G1 X91.225 Y98.292 E7.74301
G1 X92.022 Y98.065 E7.76805
G1 X92.855 Y97.888 E7.79378
G1 X93.678 Y97.771 E7.81890
G1 X96.093 Y97.487 E7.89237
G1 X98.485 Y97.157 E7.96533
G1 X100.872 Y96.775 E8.03837
G1 X103.249 Y96.343 E8.11136
G1 X105.616 Y95.863 E8.18434
G1 X107.973 Y95.333 E8.25733
G1 X110.318 Y94.753 E8.33032
G1 X112.65 Y94.124 E8.40330
G1 X114.964 Y93.448 E8.47614
G1 X115.94 Y93.182 E8.50671
G1 X116.909 Y92.978 E8.53663
G1 X117.912 Y92.826 E8.56728
G1 X118.905 Y92.735 E8.59741
G1 X119.919 Y92.7 E8.62806
G1 X120.932 Y92.725 E8.65868
G1 X121.927 Y92.808 E8.68885
G1 X122.949 Y92.953 E8.72004
G1 X123.924 Y93.152 E8.75011
G1 X124.908 Y93.411 E8.78085
G1 X125.872 Y93.727 E8.81150
G1 X126.785 Y94.088 E8.84117
G1 X127.711 Y94.516 E8.87199
G1 X127.711 Y94.515 E8.87202
G1 X128.59 Y94.986 E8.90215
G1 X129.478 Y95.529 E8.93360
G1 X130.278 Y96.087 E8.96307
G1 X131.071 Y96.71 E8.99354
G1 X131.835 Y97.386 E9.02436
G1 X132.565 Y98.112 E9.05547
G1 X133.228 Y98.855 E9.08556
G1 X133.855 Y99.645 E9.11603
G1 X134.429 Y100.463 E9.14623
G1 X134.955 Y101.31 E9.17635
G1 X135.436 Y102.197 E9.20684
G1 X135.873 Y103.128 E9.23792
G1 X136.239 Y104.046 E9.26778
G1 X136.568 Y105.033 E9.29921
G1 X136.821 Y105.977 E9.32874
G1 X137.029 Y106.975 E9.35954
G1 X137.176 Y107.972 E9.38999
G1 X137.266 Y108.986 E9.42075
G1 X137.296 Y109.993 E9.45119
G1 X137.266 Y111.013 E9.48202
G1 X137.179 Y112.006 E9.51214
G1 X137.036 Y112.985 E9.54204
G1 X136.831 Y113.981 E9.57276
G1 X136.568 Y114.966 E9.60357
G1 X136.257 Y115.904 E9.63342
G1 X135.874 Y116.869 E9.66479
G1 X135.451 Y117.774 E9.69498
G1 X134.967 Y118.669 E9.72572
G1 X134.452 Y119.502 E9.75531
G1 X133.868 Y120.336 E9.78608
G1 X133.241 Y121.128 E9.81660
G1 X132.57 Y121.881 E9.84707
G1 X131.865 Y122.586 E9.87720
G1 X131.865 Y122.585 E9.87723
G1 X131.087 Y123.276 E9.90867
G1 X130.32 Y123.881 E9.93818
G1 X129.467 Y124.477 E9.96963
G1 X128.635 Y124.988 E9.99913
G1 X127.736 Y125.471 E10.02996
G1 X126.832 Y125.891 E10.06008
G1 X125.866 Y126.274 E10.09148
G1 X124.909 Y126.588 E10.12191
G0 X98.553 Y97.612 F6000
G1 F1200
G1 X100.949 Y97.228 E10.19523
G1 X103.336 Y96.795 E10.26853
G1 X105.712 Y96.313 E10.34178
G1 X108.079 Y95.781 E10.41509
G1 X110.433 Y95.198 E10.48836
G1 X112.774 Y94.567 E10.56162
G1 X115.093 Y93.89 E10.63461
G1 X116.053 Y93.628 E10.66468
G1 X116.986 Y93.432 E10.69348
G1 X117.972 Y93.282 E10.72362
G1 X118.928 Y93.195 E10.75262
G1 X119.924 Y93.16 E10.78274
G1 X120.917 Y93.185 E10.81275
G1 X121.875 Y93.265 E10.84180
G1 X122.86 Y93.405 E10.87186
G1 X123.822 Y93.601 E10.90152
G1 X124.783 Y93.854 E10.93155
G1 X125.71 Y94.158 E10.96102
G1 X126.6 Y94.51 E10.98994
G1 X127.527 Y94.938 E11.02079
G1 X128.359 Y95.383 E11.04930
G1 X129.226 Y95.914 E11.08002
G1 X129.998 Y96.452 E11.10845
G1 X130.771 Y97.059 E11.13815
G1 X131.53 Y97.731 E11.16878
G1 X132.231 Y98.428 E11.19865
G1 X132.875 Y99.15 E11.22788
G1 X133.478 Y99.909 E11.25717
G1 X134.044 Y100.715 E11.28693
G1 X134.564 Y101.553 E11.31672
G1 X135.027 Y102.406 E11.34605
G1 X135.45 Y103.308 E11.37615
G1 X135.806 Y104.201 E11.40520
G1 X136.127 Y105.162 E11.43581
G1 X136.373 Y106.083 E11.46462
G1 X136.576 Y107.052 E11.49453
G1 X136.719 Y108.027 E11.52430
G1 X136.806 Y109 E11.55382
G1 X136.836 Y109.993 E11.58384
G1 X136.806 Y110.994 E11.61410
G1 X136.722 Y111.952 E11.64315
G1 X136.585 Y112.892 E11.67186
G1 X136.38 Y113.888 E11.70258
G1 X136.131 Y114.821 E11.73176
G1 X135.825 Y115.745 E11.76117
G1 X135.45 Y116.689 E11.79186
G1 X135.04 Y117.566 E11.82111
G1 X134.564 Y118.447 E11.85137
G1 X134.075 Y119.238 E11.87946
G1 X133.502 Y120.057 E11.90967
G1 X132.88 Y120.842 E11.93993
G1 X132.235 Y121.566 E11.96922
G1 X131.562 Y122.239 E11.99798
G1 X130.794 Y122.921 E12.02902
G1 X130.042 Y123.514 E12.05795
G1 X129.222 Y124.088 E12.08820
G1 X128.402 Y124.591 E12.11726
G1 X127.53 Y125.06 E12.14718
G1 X126.662 Y125.463 E12.17609
G1 X125.698 Y125.845 E12.20742
G1 X124.788 Y126.144 E12.23637
G1 X123.856 Y126.39 E12.26549
G1 X122.859 Y126.595 E12.29625
G1 X121.916 Y126.729 E12.32502
G1 X120.936 Y126.813 E12.35474
G1 X119.962 Y126.839 E12.38418
G1 X118.967 Y126.807 E12.41426
G1 X118.011 Y126.722 E12.44326
G1 X117.024 Y126.574 E12.47342
G1 X116.067 Y126.374 E12.50296
G1 X115.116 Y126.116 E12.53273
G1 X112.774 Y125.432 E12.60645
G1 X110.433 Y124.801 E12.67971
G1 X108.079 Y124.218 E12.75298
G1 X105.712 Y123.686 E12.82629
G1 X103.336 Y123.204 E12.89954
G1 X100.949 Y122.771 E12.97284
G1 X98.553 Y122.387 E13.04616
G1 X96.151 Y122.056 E13.11942
G1 X93.759 Y121.774 E13.19219
G1 X92.952 Y121.661 E13.21681
G1 X92.172 Y121.497 E13.24090
G1 X91.392 Y121.277 E13.26538
G1 X90.638 Y121.007 E13.28958
G1 X89.893 Y120.683 E13.31413
G1 X89.183 Y120.313 E13.33832
G1 X88.488 Y119.89 E13.36290
G1 X87.831 Y119.424 E13.38724
G1 X87.208 Y118.917 E13.41151
G1 X86.604 Y118.351 E13.43652
G1 X86.067 Y117.774 E13.46034
G1 X85.565 Y117.158 E13.48435
G1 X85.093 Y116.486 E13.50916
G1 X84.677 Y115.804 E13.53330
G1 X84.304 Y115.084 E13.55780
G1 X83.979 Y114.336 E13.58244
G1 X83.718 Y113.601 E13.60601
G1 X83.493 Y112.8 E13.63115
G1 X83.331 Y112.024 E13.65510
G1 X83.221 Y111.227 E13.67941
G1 X83.164 Y110.41 E13.70415
G1 X83.163 Y109.62 E13.72802
G1 X83.218 Y108.8 E13.75285
G1 X83.323 Y108.021 E13.77661
G1 X83.49 Y107.211 E13.80159
G1 X83.704 Y106.442 E13.82571
G1 X83.971 Y105.685 E13.84997
G1 X84.296 Y104.932 E13.87475
G1 X84.667 Y104.212 E13.89922
G1 X85.066 Y103.552 E13.92252
G1 X85.547 Y102.866 E13.94784
G1 X86.058 Y102.235 E13.97237
G1 X86.614 Y101.638 E13.99702
G1 X87.172 Y101.114 E14.02015
G1 X87.821 Y100.582 E14.04550
G1 X88.472 Y100.12 E14.06962
G1 X89.142 Y99.709 E14.09337
