;Generated with Pancakes - © 2019 Lieven Libberecht, William Thenaers

;Setup
M140 S50
M104 S200
M105
M190 S50
M109 S200
M82
G21
M201 X500.0 Y500.0 Z100.0 E5000.0
M203 X500.0 Y500.0 Z10.0 E50.0
M204 P500.0 R1000.0 T500.0
M205 X8.0 Y8.0 Z0.4 E5.0
M220 S100.0
M221 S100.0
G28
G92 E0
G1 Z2.0 F3000
G1 X10.1 Y20.0 Z0.28 F5000
G1 X10.1 Y200.0 Z0.28 E15 F1500
G1 X10.4 Y200.0 Z0.28 F5000
G1 X10.4 Y20.0 Z0.28 E30 F1500
G92 E0
G1 Z2.0 F3000
G92 E0
G1 E-5 F2700
M107
G1 E0 F1500

;Print

;LAYER 0 of 113
M106 S85
G1 E0 F2700
G0 X122.3 Y122.3 Z0.18 F6000
G1 F1200
G1 X97.7 Y122.3 E0.74329
G1 X97.7 Y97.7 E1.48657
G1 X122.3 Y97.7 E2.22986
G1 X122.3 Y122.3 E2.97315
G0 X121.92 Y121.92 F6000
G1 F1200
G1 X98.08 Y121.92 E3.69347
G1 X98.08 Y98.08 E4.41379
G1 X121.92 Y98.08 E5.13412
G1 X121.92 Y121.92 E5.85444
G0 X121.54 Y121.54 F6000
G1 F1200
G1 X98.46 Y121.54 E6.55180
G1 X98.46 Y98.46 E7.24916
G1 X121.54 Y98.46 E7.94652
G1 X121.54 Y121.54 E8.64388
G0 X98.574 Y98.843 F6000
G1 F1200
G1 X98.842 Y98.574 E8.65535
G0 X99.38 Y98.574 F6000
G1 F1200
G1 X98.574 Y99.38 E8.68979
G0 X98.574 Y99.918 F6000
G1 F1200
G1 X99.918 Y98.574 E8.74722
G0 X100.455 Y98.574 F6000
G1 F1200
G1 X98.574 Y100.455 E8.82760
G0 X98.574 Y100.992 F6000
G1 F1200
G1 X100.992 Y98.574 E8.93092
G0 X101.53 Y98.574 F6000
G1 F1200
G1 X98.574 Y101.53 E9.05723
G0 X98.574 Y102.067 F6000
G1 F1200
G1 X102.068 Y98.574 E9.20651
G0 X102.604 Y98.574 F6000
G1 F1200
G1 X98.574 Y102.605 E9.37873
G0 X98.574 Y103.142 F6000
G1 F1200
G1 X103.142 Y98.574 E9.57393
G0 X103.68 Y98.574 F6000
G1 F1200
G1 X98.574 Y103.679 E9.79209
G0 X98.574 Y104.217 F6000
G1 F1200
G1 X104.216 Y98.574 E10.03319
G0 X104.754 Y98.574 F6000
G1 F1200
G1 X98.574 Y104.754 E10.29727
G0 X98.574 Y105.292 F6000
G1 F1200
G1 X105.292 Y98.574 E10.58433
G0 X105.829 Y98.574 F6000
G1 F1200
G1 X98.574 Y105.829 E10.89434
G0 X98.574 Y106.366 F6000
G1 F1200
G1 X106.366 Y98.574 E11.22729
G0 X106.904 Y98.574 F6000
G1 F1200
G1 X98.574 Y106.904 E11.58323
G0 X98.574 Y107.441 F6000
G1 F1200
G1 X107.442 Y98.574 E11.96215
G0 X107.978 Y98.574 F6000
G1 F1200
G1 X98.574 Y107.979 E12.36400
G0 X98.574 Y108.516 F6000
G1 F1200
G1 X108.516 Y98.574 E12.78883
G0 X109.054 Y98.574 F6000
G1 F1200
G1 X98.574 Y109.053 E13.23662
G0 X98.574 Y109.591 F6000
G1 F1200
G1 X109.59 Y98.574 E13.70736
G0 X110.128 Y98.574 F6000
G1 F1200
G1 X98.574 Y110.128 E14.20107
G0 X98.574 Y110.666 F6000
G1 F1200
G1 X110.666 Y98.574 E14.71776
G0 X111.203 Y98.574 F6000
G1 F1200
G1 X98.574 Y111.203 E15.25740
G0 X98.574 Y111.74 F6000
G1 F1200
G1 X111.74 Y98.574 E15.81999
G0 X112.278 Y98.574 F6000
G1 F1200
G1 X98.574 Y112.278 E16.40557
G0 X98.574 Y112.815 F6000
G1 F1200
G1 X112.816 Y98.574 E17.01411
G0 X113.352 Y98.574 F6000
G1 F1200
G1 X98.574 Y113.353 E17.64560
G0 X98.574 Y113.89 F6000
G1 F1200
G1 X113.89 Y98.574 E18.30006
G0 X114.428 Y98.574 F6000
G1 F1200
G1 X98.574 Y114.428 E18.97750
G0 X98.574 Y114.965 F6000
G1 F1200
G1 X114.964 Y98.574 E19.67788
G0 X115.502 Y98.574 F6000
G1 F1200
G1 X98.574 Y115.502 E20.40121
G0 X98.574 Y116.04 F6000
G1 F1200
G1 X116.04 Y98.574 E21.14754
G0 X116.577 Y98.574 F6000
G1 F1200
G1 X98.574 Y116.577 E21.91682
G0 X98.574 Y117.114 F6000
G1 F1200
G1 X117.114 Y98.574 E22.70904
G0 X117.652 Y98.574 F6000
G1 F1200
G1 X98.574 Y117.652 E23.52425
G0 X98.574 Y118.189 F6000
G1 F1200
G1 X118.19 Y98.574 E24.36242
G0 X118.726 Y98.574 F6000
G1 F1200
G1 X98.574 Y118.727 E25.22355
G0 X98.574 Y119.264 F6000
G1 F1200
G1 X119.264 Y98.574 E26.10764
G0 X119.802 Y98.574 F6000
G1 F1200
G1 X98.574 Y119.802 E27.01472
G0 X98.574 Y120.339 F6000
G1 F1200
G1 X120.339 Y98.574 E27.94474
G0 X120.876 Y98.574 F6000
G1 F1200
G1 X98.574 Y120.876 E28.89771
G0 X98.574 Y121.414 F6000
G1 F1200
G1 X121.414 Y98.574 E29.87367
G0 X121.426 Y99.099 F6000
G1 F1200
G1 X99.099 Y121.426 E30.82771
G0 X99.636 Y121.426 F6000
G1 F1200
G1 X121.426 Y99.636 E31.75881
G0 X121.426 Y100.174 F6000
G1 F1200
G1 X100.174 Y121.426 E32.66691
G0 X100.711 Y121.426 F6000
G1 F1200
G1 X121.426 Y100.712 E33.55205
G0 X121.426 Y101.248 F6000
G1 F1200
G1 X101.249 Y121.426 E34.41424
G0 X101.786 Y121.426 F6000
G1 F1200
G1 X121.426 Y101.786 E35.25346
G0 X121.426 Y102.324 F6000
G1 F1200
G1 X102.324 Y121.426 E36.06970
G0 X102.861 Y121.426 F6000
G1 F1200
G1 X121.426 Y102.861 E36.86299
G0 X121.426 Y103.398 F6000
G1 F1200
G1 X103.398 Y121.426 E37.63333
G0 X103.936 Y121.426 F6000
G1 F1200
G1 X121.426 Y103.936 E38.38068
G0 X121.426 Y104.473 F6000
G1 F1200
G1 X104.473 Y121.426 E39.10509
G0 X105.01 Y121.426 F6000
G1 F1200
G1 X121.426 Y105.01 E39.80655
G0 X121.426 Y105.548 F6000
G1 F1200
G1 X105.548 Y121.426 E40.48502
G0 X106.085 Y121.426 F6000
G1 F1200
G1 X121.426 Y106.086 E41.14053
G0 X121.426 Y106.622 F6000
G1 F1200
G1 X106.623 Y121.426 E41.77309
G0 X107.16 Y121.426 F6000
G1 F1200
G1 X121.426 Y107.16 E42.38268
G0 X121.426 Y107.698 F6000
G1 F1200
G1 X107.698 Y121.426 E42.96928
G0 X108.235 Y121.426 F6000
G1 F1200
G1 X121.426 Y108.235 E43.53293
G0 X121.426 Y108.772 F6000
G1 F1200
G1 X108.772 Y121.426 E44.07364
G0 X109.31 Y121.426 F6000
G1 F1200
G1 X121.426 Y109.31 E44.59136
G0 X121.426 Y109.847 F6000
G1 F1200
G1 X109.847 Y121.426 E45.08614
G0 X110.384 Y121.426 F6000
G1 F1200
G1 X121.426 Y110.384 E45.55797
G0 X121.426 Y110.922 F6000
G1 F1200
G1 X110.922 Y121.426 E46.00681
G0 X111.459 Y121.426 F6000
G1 F1200
G1 X121.426 Y111.46 E46.43268
G0 X121.426 Y111.996 F6000
G1 F1200
G1 X111.997 Y121.426 E46.83560
G0 X112.534 Y121.426 F6000
G1 F1200
G1 X121.426 Y112.534 E47.21556
G0 X121.426 Y113.072 F6000
G1 F1200
G1 X113.072 Y121.426 E47.57253
G0 X113.609 Y121.426 F6000
G1 F1200
G1 X121.426 Y113.609 E47.90655
G0 X121.426 Y114.146 F6000
G1 F1200
G1 X114.146 Y121.426 E48.21763
G0 X114.684 Y121.426 F6000
G1 F1200
G1 X121.426 Y114.684 E48.50572
G0 X121.426 Y115.221 F6000
G1 F1200
G1 X115.221 Y121.426 E48.77086
G0 X115.758 Y121.426 F6000
G1 F1200
G1 X121.426 Y115.758 E49.01306
G0 X121.426 Y116.296 F6000
G1 F1200
G1 X116.296 Y121.426 E49.23226
G0 X116.833 Y121.426 F6000
G1 F1200
G1 X121.426 Y116.834 E49.42850
G0 X121.426 Y117.37 F6000
G1 F1200
G1 X117.371 Y121.426 E49.60179
G0 X117.908 Y121.426 F6000
G1 F1200
G1 X121.426 Y117.908 E49.75212
G0 X121.426 Y118.446 F6000
G1 F1200
G1 X118.446 Y121.426 E49.87946
G0 X118.983 Y121.426 F6000
G1 F1200
G1 X121.426 Y118.983 E49.98385
G0 X121.426 Y119.52 F6000
G1 F1200
G1 X119.52 Y121.426 E50.06529
G0 X120.058 Y121.426 F6000
G1 F1200
G1 X121.426 Y120.058 E50.12375
G0 X121.426 Y120.596 F6000
G1 F1200
G1 X120.595 Y121.426 E50.15923
G0 X121.132 Y121.426 F6000
G1 F1200
G1 X121.426 Y121.132 E50.17180
G92 E0
G1 Z0.4 F3000
G92 E0
G1 E-5 F2400
M106 S170

;LAYER 1 of 113
G1 E0 F2700
G0 X122.3 Y122.3 Z0.38 F6000
G1 F1200
G1 X97.7 Y122.3 E0.74329
G1 X97.7 Y97.7 E1.48657
G1 X122.3 Y97.7 E2.22986
G1 X122.3 Y122.3 E2.97315
G0 X121.92 Y121.92 F6000
G1 F1200
G1 X98.08 Y121.92 E3.69347
G1 X98.08 Y98.08 E4.41379
G1 X121.92 Y98.08 E5.13412
G1 X121.92 Y121.92 E5.85444
G0 X121.54 Y121.54 F6000
G1 F1200
G1 X98.46 Y121.54 E6.55180
G1 X98.46 Y98.46 E7.24916
G1 X121.54 Y98.46 E7.94652
G1 X121.54 Y121.54 E8.64388
G0 X121.158 Y98.574 F6000
G1 F1200
G1 X121.426 Y98.842 E8.65533
G0 X121.426 Y99.379 F6000
G1 F1200
G1 X120.62 Y98.574 E8.68975
G0 X120.082 Y98.574 F6000
G1 F1200
G1 X121.426 Y99.917 E8.74716
G0 X121.426 Y100.454 F6000
G1 F1200
G1 X119.545 Y98.574 E8.82751
G0 X119.008 Y98.574 F6000
G1 F1200
G1 X121.426 Y100.991 E8.93081
G0 X121.426 Y101.529 F6000
G1 F1200
G1 X118.47 Y98.574 E9.05710
G0 X117.933 Y98.574 F6000
G1 F1200
G1 X121.426 Y102.067 E9.20636
G0 X121.426 Y102.604 F6000
G1 F1200
G1 X117.396 Y98.574 E9.37856
G0 X116.858 Y98.574 F6000
G1 F1200
G1 X121.426 Y103.141 E9.57373
G0 X121.426 Y103.679 F6000
G1 F1200
G1 X116.321 Y98.574 E9.79187
G0 X115.784 Y98.574 F6000
G1 F1200
G1 X121.426 Y104.216 E10.03296
G0 X121.426 Y104.754 F6000
G1 F1200
G1 X115.246 Y98.574 E10.29703
G0 X114.708 Y98.574 F6000
G1 F1200
G1 X121.426 Y105.291 E10.58407
G0 X121.426 Y105.828 F6000
G1 F1200
G1 X114.171 Y98.574 E10.89406
G0 X113.634 Y98.574 F6000
G1 F1200
G1 X121.426 Y106.365 E11.22699
G0 X121.426 Y106.903 F6000
G1 F1200
G1 X113.096 Y98.574 E11.58291
G0 X112.559 Y98.574 F6000
G1 F1200
G1 X121.426 Y107.441 E11.96180
G0 X121.426 Y107.978 F6000
G1 F1200
G1 X112.022 Y98.574 E12.36364
G0 X111.484 Y98.574 F6000
G1 F1200
G1 X121.426 Y108.515 E12.78844
G0 X121.426 Y109.053 F6000
G1 F1200
G1 X110.947 Y98.574 E13.23621
G0 X110.41 Y98.574 F6000
G1 F1200
G1 X121.426 Y109.59 E13.70693
G0 X121.426 Y110.127 F6000
G1 F1200
G1 X109.872 Y98.574 E14.20062
G0 X109.334 Y98.574 F6000
G1 F1200
G1 X121.426 Y110.665 E14.71729
G0 X121.426 Y111.202 F6000
G1 F1200
G1 X108.797 Y98.574 E15.25691
G0 X108.26 Y98.574 F6000
G1 F1200
G1 X121.426 Y111.739 E15.81948
G0 X121.426 Y112.278 F6000
G1 F1200
G1 X107.722 Y98.574 E16.40505
G0 X107.185 Y98.574 F6000
G1 F1200
G1 X121.426 Y112.815 E17.01358
G0 X121.426 Y113.352 F6000
G1 F1200
G1 X106.648 Y98.574 E17.64504
G0 X106.11 Y98.574 F6000
G1 F1200
G1 X121.426 Y113.889 E18.29948
G0 X121.426 Y114.428 F6000
G1 F1200
G1 X105.571 Y98.574 E18.97695
G0 X105.035 Y98.574 F6000
G1 F1200
G1 X121.426 Y114.964 E19.67732
G0 X121.426 Y115.501 F6000
G1 F1200
G1 X104.498 Y98.574 E20.40064
G0 X103.96 Y98.574 F6000
G1 F1200
G1 X121.426 Y116.039 E21.14694
G0 X121.426 Y116.578 F6000
G1 F1200
G1 X103.423 Y98.574 E21.91624
G0 X102.886 Y98.574 F6000
G1 F1200
G1 X121.426 Y117.113 E22.70844
G0 X121.426 Y117.651 F6000
G1 F1200
G1 X102.348 Y98.574 E23.52363
G0 X101.811 Y98.574 F6000
G1 F1200
G1 X121.426 Y118.189 E24.36178
G0 X121.426 Y118.727 F6000
G1 F1200
G1 X101.273 Y98.574 E25.22293
G0 X100.736 Y98.574 F6000
G1 F1200
G1 X121.426 Y119.264 E26.10702
G0 X121.426 Y119.802 F6000
G1 F1200
G1 X100.198 Y98.574 E27.01410
G0 X99.661 Y98.574 F6000
G1 F1200
G1 X121.426 Y120.338 E27.94410
G0 X121.426 Y120.876 F6000
G1 F1200
G1 X99.124 Y98.574 E28.89707
G0 X98.586 Y98.574 F6000
G1 F1200
G1 X121.426 Y121.414 E29.87303
G0 X120.901 Y121.426 F6000
G1 F1200
G1 X98.574 Y99.099 E30.82707
G0 X98.574 Y99.637 F6000
G1 F1200
G1 X120.365 Y121.426 E31.75817
G0 X119.827 Y121.426 F6000
G1 F1200
G1 X98.574 Y100.174 E32.66629
G0 X98.574 Y100.711 F6000
G1 F1200
G1 X119.288 Y121.426 E33.55143
G0 X118.752 Y121.426 F6000
G1 F1200
G1 X98.574 Y101.249 E34.41362
G0 X98.574 Y101.786 F6000
G1 F1200
G1 X118.215 Y121.426 E35.25287
G0 X117.677 Y121.426 F6000
G1 F1200
G1 X98.574 Y102.324 E36.06912
G0 X98.574 Y102.861 F6000
G1 F1200
G1 X117.14 Y121.426 E36.86243
G0 X116.602 Y121.426 F6000
G1 F1200
G1 X98.574 Y103.399 E37.63275
G0 X98.574 Y103.936 F6000
G1 F1200
G1 X116.063 Y121.426 E38.38008
G0 X115.528 Y121.426 F6000
G1 F1200
G1 X98.574 Y104.473 E39.10451
G0 X98.574 Y105.01 F6000
G1 F1200
G1 X114.99 Y121.426 E39.80597
G0 X114.452 Y121.426 F6000
G1 F1200
G1 X98.574 Y105.548 E40.48445
G0 X98.574 Y106.085 F6000
G1 F1200
G1 X113.914 Y121.426 E41.13995
G0 X113.378 Y121.426 F6000
G1 F1200
G1 X98.574 Y106.622 E41.77253
G0 X98.574 Y107.16 F6000
G1 F1200
G1 X112.84 Y121.426 E42.38212
G0 X112.303 Y121.426 F6000
G1 F1200
G1 X98.574 Y107.698 E42.96874
G0 X98.574 Y108.235 F6000
G1 F1200
G1 X111.765 Y121.426 E43.53240
G0 X111.229 Y121.426 F6000
G1 F1200
G1 X98.574 Y108.772 E44.07313
G0 X98.574 Y109.31 F6000
G1 F1200
G1 X110.691 Y121.426 E44.59087
G0 X110.154 Y121.426 F6000
G1 F1200
G1 X98.574 Y109.847 E45.08567
G0 X98.574 Y110.384 F6000
G1 F1200
G1 X109.616 Y121.426 E45.55750
G0 X109.078 Y121.426 F6000
G1 F1200
G1 X98.574 Y110.923 E46.00632
G0 X98.574 Y111.46 F6000
G1 F1200
G1 X108.54 Y121.426 E46.43217
G0 X108.004 Y121.426 F6000
G1 F1200
G1 X98.574 Y111.996 E46.83511
G0 X98.574 Y112.534 F6000
G1 F1200
G1 X107.466 Y121.426 E47.21507
G0 X106.928 Y121.426 F6000
G1 F1200
G1 X98.574 Y113.072 E47.57204
G0 X98.574 Y113.609 F6000
G1 F1200
G1 X106.391 Y121.426 E47.90606
G0 X105.855 Y121.426 F6000
G1 F1200
G1 X98.574 Y114.146 E48.21716
G0 X98.574 Y114.684 F6000
G1 F1200
G1 X105.316 Y121.426 E48.50525
G0 X104.779 Y121.426 F6000
G1 F1200
G1 X98.574 Y115.221 E48.77039
G0 X98.574 Y115.758 F6000
G1 F1200
G1 X104.242 Y121.426 E49.01259
G0 X103.705 Y121.426 F6000
G1 F1200
G1 X98.574 Y116.296 E49.23181
G0 X98.574 Y116.833 F6000
G1 F1200
G1 X103.167 Y121.426 E49.42807
G0 X102.63 Y121.426 F6000
G1 F1200
G1 X98.574 Y117.371 E49.60137
G0 X98.574 Y117.908 F6000
G1 F1200
G1 X102.092 Y121.426 E49.75169
G0 X101.554 Y121.426 F6000
G1 F1200
G1 X98.574 Y118.447 E49.87901
G0 X98.574 Y118.984 F6000
G1 F1200
G1 X101.017 Y121.426 E49.98338
G0 X100.481 Y121.426 F6000
G1 F1200
G1 X98.574 Y119.52 E50.06484
G0 X98.574 Y120.058 F6000
G1 F1200
G1 X99.942 Y121.426 E50.12330
G0 X99.404 Y121.426 F6000
G1 F1200
G1 X98.574 Y120.595 E50.15878
G0 X98.574 Y121.132 F6000
G1 F1200
G1 X98.869 Y121.426 E50.17137
G92 E0
G1 Z0.6 F3000
G92 E0
G1 E-5 F2400

;LAYER 2 of 113
G1 E0 F2700
G0 X122.3 Y122.3 Z0.58 F6000
G1 F1200
G1 X97.7 Y122.3 E0.74329
G1 X97.7 Y97.7 E1.48657
G1 X122.3 Y97.7 E2.22986
G1 X122.3 Y122.3 E2.97315
G0 X121.92 Y121.92 F6000
G1 F1200
G1 X98.08 Y121.92 E3.69347
G1 X98.08 Y98.08 E4.41379
G1 X121.92 Y98.08 E5.13412
G1 X121.92 Y121.92 E5.85444
G0 X121.54 Y121.54 F6000
G1 F1200
G1 X98.46 Y121.54 E6.55180
G1 X98.46 Y98.46 E7.24916
G1 X121.54 Y98.46 E7.94652
G1 X121.54 Y121.54 E8.64388
G0 X98.574 Y98.843 F6000
G1 F1200
G1 X98.842 Y98.574 E8.65535
G0 X99.38 Y98.574 F6000
G1 F1200
G1 X98.574 Y99.38 E8.68979
G0 X98.574 Y99.918 F6000
G1 F1200
G1 X99.918 Y98.574 E8.74722
G0 X100.455 Y98.574 F6000
G1 F1200
G1 X98.574 Y100.455 E8.82760
G0 X98.574 Y100.992 F6000
G1 F1200
G1 X100.992 Y98.574 E8.93092
G0 X101.53 Y98.574 F6000
G1 F1200
G1 X98.574 Y101.53 E9.05723
G0 X98.574 Y102.067 F6000
G1 F1200
G1 X102.068 Y98.574 E9.20651
G0 X102.604 Y98.574 F6000
G1 F1200
G1 X98.574 Y102.605 E9.37873
G0 X98.574 Y103.142 F6000
G1 F1200
G1 X103.142 Y98.574 E9.57393
G0 X103.68 Y98.574 F6000
G1 F1200
G1 X98.574 Y103.679 E9.79209
G0 X98.574 Y104.217 F6000
G1 F1200
G1 X104.216 Y98.574 E10.03319
G0 X104.754 Y98.574 F6000
G1 F1200
G1 X98.574 Y104.754 E10.29727
G0 X98.574 Y105.292 F6000
G1 F1200
G1 X105.292 Y98.574 E10.58433
G0 X105.829 Y98.574 F6000
G1 F1200
G1 X98.574 Y105.829 E10.89434
G0 X98.574 Y106.366 F6000
G1 F1200
G1 X106.366 Y98.574 E11.22729
G0 X106.904 Y98.574 F6000
G1 F1200
G1 X98.574 Y106.904 E11.58323
G0 X98.574 Y107.441 F6000
G1 F1200
G1 X107.442 Y98.574 E11.96215
G0 X107.978 Y98.574 F6000
G1 F1200
G1 X98.574 Y107.979 E12.36400
G0 X98.574 Y108.516 F6000
G1 F1200
G1 X108.516 Y98.574 E12.78883
G0 X109.054 Y98.574 F6000
G1 F1200
G1 X98.574 Y109.053 E13.23662
G0 X98.574 Y109.591 F6000
G1 F1200
G1 X109.59 Y98.574 E13.70736
G0 X110.128 Y98.574 F6000
G1 F1200
G1 X98.574 Y110.128 E14.20107
G0 X98.574 Y110.666 F6000
G1 F1200
G1 X110.666 Y98.574 E14.71776
G0 X111.203 Y98.574 F6000
G1 F1200
G1 X98.574 Y111.203 E15.25740
G0 X98.574 Y111.74 F6000
G1 F1200
G1 X111.74 Y98.574 E15.81999
G0 X112.278 Y98.574 F6000
G1 F1200
G1 X98.574 Y112.278 E16.40557
G0 X98.574 Y112.815 F6000
G1 F1200
G1 X112.816 Y98.574 E17.01411
G0 X113.352 Y98.574 F6000
G1 F1200
G1 X98.574 Y113.353 E17.64560
G0 X98.574 Y113.89 F6000
G1 F1200
G1 X113.89 Y98.574 E18.30006
G0 X114.428 Y98.574 F6000
G1 F1200
G1 X98.574 Y114.428 E18.97750
G0 X98.574 Y114.965 F6000
G1 F1200
G1 X114.964 Y98.574 E19.67788
G0 X115.502 Y98.574 F6000
G1 F1200
G1 X98.574 Y115.502 E20.40121
G0 X98.574 Y116.04 F6000
G1 F1200
G1 X116.04 Y98.574 E21.14754
G0 X116.577 Y98.574 F6000
G1 F1200
G1 X98.574 Y116.577 E21.91682
G0 X98.574 Y117.114 F6000
G1 F1200
G1 X117.114 Y98.574 E22.70904
G0 X117.652 Y98.574 F6000
G1 F1200
G1 X98.574 Y117.652 E23.52425
G0 X98.574 Y118.189 F6000
G1 F1200
G1 X118.19 Y98.574 E24.36242
G0 X118.726 Y98.574 F6000
G1 F1200
G1 X98.574 Y118.727 E25.22355
G0 X98.574 Y119.264 F6000
G1 F1200
G1 X119.264 Y98.574 E26.10764
G0 X119.802 Y98.574 F6000
G1 F1200
G1 X98.574 Y119.802 E27.01472
G0 X98.574 Y120.339 F6000
G1 F1200
G1 X120.339 Y98.574 E27.94474
G0 X120.876 Y98.574 F6000
G1 F1200
G1 X98.574 Y120.876 E28.89771
G0 X98.574 Y121.414 F6000
G1 F1200
G1 X121.414 Y98.574 E29.87367
G0 X121.426 Y99.099 F6000
G1 F1200
G1 X99.099 Y121.426 E30.82771
G0 X99.636 Y121.426 F6000
G1 F1200
G1 X121.426 Y99.636 E31.75881
G0 X121.426 Y100.174 F6000
