;Generated with Pancakes - © 2019 Lieven Libberecht, William Thenaers

;Setup
M140 S50
M104 S200
M105
M190 S50
M109 S200
M82
G21
M201 X500.0 Y500.0 Z100.0 E5000.0
M203 X500.0 Y500.0 Z10.0 E50.0
M204 P500.0 R1000.0 T500.0
M205 X8.0 Y8.0 Z0.4 E5.0
M220 S100.0
M221 S100.0
G28
G92 E0
G1 Z2.0 F3000
G1 X10.1 Y20.0 Z0.28 F5000
G1 X10.1 Y200.0 Z0.28 E15 F1500
G1 X10.4 Y200.0 Z0.28 F5000
G1 X10.4 Y20.0 Z0.28 E30 F1500
G92 E0
G1 Z2.0 F3000
G92 E0
G92 E0
G1 E-5 F2700
M107
G1 E0 F1500

;Print

;LAYER 0 of 101
M107
G1 E0 F2700
G0 X114.36 Y114.36 Z0.18 F6000
G1 F1200
G1 X93.14 Y114.36 E0.64116
G1 X93.14 Y93.14 E1.28232
G1 X114.36 Y93.14 E1.92348
G1 X114.36 Y114.36 E2.56464
G0 X113.98 Y113.98 F6000
G1 F1200
G1 X93.52 Y113.98 E3.18284
G1 X93.52 Y93.52 E3.80103
G1 X113.98 Y93.52 E4.41923
G1 X113.98 Y113.98 E5.03743
G0 X113.6 Y113.6 F6000
G1 F1200
G1 X93.9 Y113.6 E5.63266
G1 X93.9 Y93.9 E6.22790
G1 X113.6 Y93.9 E6.82313
G1 X113.6 Y113.6 E7.41836
G0 X113.22 Y113.22 F6000
G1 F1200
G1 X94.28 Y113.22 E7.99063
G1 X94.28 Y94.28 E8.56290
G1 X113.22 Y94.28 E9.13517
G1 X113.22 Y113.22 E9.70744
G0 X112.84 Y112.84 F6000
G1 F1200
G1 X94.66 Y112.84 E10.25675
G1 X94.66 Y94.66 E10.80606
G1 X112.84 Y94.66 E11.35537
G1 X112.84 Y112.84 E11.90467
G0 X112.46 Y112.46 F6000
G1 F1200
G1 X95.04 Y112.46 E12.43102
G1 X95.04 Y95.04 E12.95736
G1 X112.46 Y95.04 E13.48370
G1 X112.46 Y112.46 E14.01005
G0 X112.08 Y112.08 F6000
G1 F1200
G1 X95.42 Y112.08 E14.51343
G1 X95.42 Y95.42 E15.01681
G1 X112.08 Y95.42 E15.52019
G1 X112.08 Y112.08 E16.02357
G0 X111.7 Y111.7 F6000
G1 F1200
G1 X95.8 Y111.7 E16.50398
G1 X95.8 Y95.8 E16.98440
G1 X111.7 Y95.8 E17.46482
G1 X111.7 Y111.7 E17.94524
G0 X111.32 Y111.32 F6000
G1 F1200
G1 X96.18 Y111.32 E18.40269
G1 X96.18 Y96.18 E18.86014
G1 X111.32 Y96.18 E19.31760
G1 X111.32 Y111.32 E19.77505
G0 X110.94 Y110.94 F6000
G1 F1200
G1 X96.56 Y110.94 E20.20954
G1 X96.56 Y96.56 E20.64403
G1 X110.94 Y96.56 E21.07852
G1 X110.94 Y110.94 E21.51301
G0 X110.56 Y110.56 F6000
G1 F1200
G1 X96.94 Y110.56 E21.92454
G1 X96.94 Y96.94 E22.33607
G1 X110.56 Y96.94 E22.74759
G1 X110.56 Y110.56 E23.15912
G0 X110.18 Y110.18 F6000
G1 F1200
G1 X97.32 Y110.18 E23.54768
G1 X97.32 Y97.32 E23.93625
G1 X110.18 Y97.32 E24.32481
G1 X110.18 Y110.18 E24.71337
G0 X109.8 Y109.8 F6000
G1 F1200
G1 X97.7 Y109.8 E25.07897
G1 X97.7 Y97.7 E25.44457
G1 X109.8 Y97.7 E25.81017
G1 X109.8 Y109.8 E26.17578
G0 X109.42 Y109.42 F6000
G1 F1200
G1 X98.08 Y109.42 E26.51841
G1 X98.08 Y98.08 E26.86105
G1 X109.42 Y98.08 E27.20369
G1 X109.42 Y109.42 E27.54632
G0 X109.04 Y109.04 F6000
G1 F1200
G1 X98.46 Y109.04 E27.86600
G1 X98.46 Y98.46 E28.18567
G1 X109.04 Y98.46 E28.50534
G1 X109.04 Y109.04 E28.82502
G0 X98.574 Y98.843 F6000
G1 F1200
G1 X98.842 Y98.574 E28.83649
G0 X99.38 Y98.574 F6000
G1 F1200
G1 X98.574 Y99.38 E28.87093
G0 X98.574 Y99.918 F6000
G1 F1200
G1 X99.918 Y98.574 E28.92836
G0 X100.455 Y98.574 F6000
G1 F1200
G1 X98.574 Y100.455 E29.00874
G0 X98.574 Y100.992 F6000
G1 F1200
G1 X100.992 Y98.574 E29.11206
G0 X101.53 Y98.574 F6000
G1 F1200
G1 X98.574 Y101.53 E29.23837
G0 X98.574 Y102.067 F6000
G1 F1200
G1 X102.068 Y98.574 E29.38765
G0 X102.604 Y98.574 F6000
G1 F1200
G1 X98.574 Y102.605 E29.55987
G0 X98.574 Y103.142 F6000
G1 F1200
G1 X103.142 Y98.574 E29.75506
G0 X103.68 Y98.574 F6000
G1 F1200
G1 X98.574 Y103.679 E29.97322
G0 X98.574 Y104.217 F6000
G1 F1200
G1 X104.216 Y98.574 E30.21433
G0 X104.754 Y98.574 F6000
G1 F1200
G1 X98.574 Y104.754 E30.47840
G0 X98.574 Y105.292 F6000
G1 F1200
G1 X105.292 Y98.574 E30.76547
G0 X105.829 Y98.574 F6000
G1 F1200
G1 X98.574 Y105.829 E31.07547
G0 X98.574 Y106.366 F6000
G1 F1200
G1 X106.366 Y98.574 E31.40843
G0 X106.904 Y98.574 F6000
G1 F1200
G1 X98.574 Y106.904 E31.76437
G0 X98.574 Y107.441 F6000
G1 F1200
G1 X107.442 Y98.574 E32.14328
G0 X107.978 Y98.574 F6000
G1 F1200
G1 X98.574 Y107.979 E32.54514
G0 X98.574 Y108.516 F6000
G1 F1200
G1 X108.516 Y98.574 E32.96997
G0 X108.926 Y98.702 F6000
G1 F1200
G1 X98.701 Y108.926 E33.40686
G0 X99.239 Y108.926 F6000
G1 F1200
G1 X108.926 Y99.238 E33.82081
G0 X108.926 Y99.776 F6000
G1 F1200
G1 X99.776 Y108.926 E34.21180
G0 X100.314 Y108.926 F6000
G1 F1200
G1 X108.926 Y100.314 E34.57979
G0 X108.926 Y100.851 F6000
G1 F1200
G1 X100.851 Y108.926 E34.92484
G0 X101.388 Y108.926 F6000
G1 F1200
G1 X108.926 Y101.388 E35.24694
G0 X108.926 Y101.926 F6000
G1 F1200
G1 X101.926 Y108.926 E35.54605
G0 X102.463 Y108.926 F6000
G1 F1200
G1 X108.926 Y102.464 E35.82219
G0 X108.926 Y103 F6000
G1 F1200
G1 X103.001 Y108.926 E36.07539
G0 X103.538 Y108.926 F6000
G1 F1200
G1 X108.926 Y103.538 E36.30562
G0 X108.926 Y104.076 F6000
G1 F1200
G1 X104.076 Y108.926 E36.51287
G0 X104.613 Y108.926 F6000
G1 F1200
G1 X108.926 Y104.612 E36.69718
G0 X108.926 Y105.15 F6000
G1 F1200
G1 X105.15 Y108.926 E36.85853
G0 X105.688 Y108.926 F6000
G1 F1200
G1 X108.926 Y105.688 E36.99689
G0 X108.926 Y106.225 F6000
G1 F1200
G1 X106.225 Y108.926 E37.11231
G0 X106.762 Y108.926 F6000
G1 F1200
G1 X108.926 Y106.762 E37.20478
G0 X108.926 Y107.3 F6000
G1 F1200
G1 X107.3 Y108.926 E37.27426
G0 X107.837 Y108.926 F6000
G1 F1200
G1 X108.926 Y107.838 E37.32077
G0 X108.926 Y108.374 F6000
G1 F1200
G1 X108.375 Y108.926 E37.34433
G0 X102.258 Y110.56 F6000
G1 F1200
G1 X98.56 Y114.258 E37.50235
G1 X98.56 Y118.218 E37.62200
G1 X106.218 Y110.56 E37.94923
G1 X110.178 Y110.56 E38.06888
G1 X99.298 Y121.44 E38.53379
G1 X103.257 Y121.44 E38.65341
G1 X121.44 Y103.257 E39.43037
G1 X121.44 Y107.217 E39.55002
G1 X107.216 Y121.44 E40.15780
G1 X111.176 Y121.44 E40.27745
G1 X121.44 Y111.177 E40.71601
G1 X121.44 Y115.136 E40.83563
G1 X115.136 Y121.44 E41.10501
G1 X119.096 Y121.44 E41.22466
G1 X121.44 Y119.096 E41.32482
G1 X110.56 Y106.217 E41.83423
G1 X118.217 Y98.56 E42.16141
G1 X121.44 Y99.297 E42.26131
G1 X110.56 Y110.177 E42.72621
G1 X114.258 Y98.56 E43.09458
G1 X110.56 Y102.258 E43.25259
G92 E0
G1 Z0.4 F3000
G92 E0
G1 E-5 F2400
M106 S255

;LAYER 1 of 101
G1 E0 F2700
G0 X109.8 Y109.8 Z0.38 F6000
G1 F1200
G1 X97.7 Y109.8 E0.36560
G1 X97.7 Y97.7 E0.73120
G1 X109.8 Y97.7 E1.09680
G1 X109.8 Y109.8 E1.46240
G0 X109.42 Y109.42 F6000
G1 F1200
G1 X98.08 Y109.42 E1.80504
G1 X98.08 Y98.08 E2.14768
G1 X109.42 Y98.08 E2.49031
G1 X109.42 Y109.42 E2.83295
G0 X109.04 Y109.04 F6000
G1 F1200
G1 X98.46 Y109.04 E3.15262
G1 X98.46 Y98.46 E3.47230
G1 X109.04 Y98.46 E3.79197
G1 X109.04 Y109.04 E4.11164
G0 X98.728 Y108.926 F6000
G1 F1200
G1 X98.574 Y108.772 E4.11822
G0 X98.574 Y108.235 F6000
G1 F1200
G1 X99.265 Y108.926 E4.14775
G0 X99.802 Y108.926 F6000
G1 F1200
G1 X98.574 Y107.698 E4.20022
G0 X98.574 Y107.16 F6000
G1 F1200
G1 X100.34 Y108.926 E4.27569
G0 X100.878 Y108.926 F6000
G1 F1200
G1 X98.574 Y106.622 E4.37414
G0 X98.574 Y106.085 F6000
G1 F1200
G1 X101.415 Y108.926 E4.49553
G0 X101.952 Y108.926 F6000
G1 F1200
G1 X98.574 Y105.548 E4.63988
G0 X98.574 Y105.01 F6000
G1 F1200
G1 X102.49 Y108.926 E4.80721
G0 X103.027 Y108.926 F6000
G1 F1200
G1 X98.574 Y104.473 E4.99749
G0 X98.574 Y103.936 F6000
G1 F1200
G1 X103.564 Y108.926 E5.21071
G0 X104.101 Y108.926 F6000
G1 F1200
G1 X98.574 Y103.399 E5.44688
G0 X98.574 Y102.861 F6000
G1 F1200
G1 X104.639 Y108.926 E5.70604
G0 X105.176 Y108.926 F6000
G1 F1200
G1 X98.574 Y102.324 E5.98815
G0 X98.574 Y101.786 F6000
G1 F1200
G1 X105.714 Y108.926 E6.29324
G0 X106.251 Y108.926 F6000
G1 F1200
G1 X98.574 Y101.249 E6.62128
G0 X98.574 Y100.711 F6000
G1 F1200
G1 X106.789 Y108.926 E6.97231
G0 X107.326 Y108.926 F6000
G1 F1200
G1 X98.574 Y100.174 E7.34629
G0 X98.574 Y99.637 F6000
G1 F1200
G1 X107.864 Y108.926 E7.74323
G0 X108.401 Y108.926 F6000
G1 F1200
G1 X98.574 Y99.099 E8.16314
G0 X98.586 Y98.574 F6000
G1 F1200
G1 X108.926 Y108.914 E8.60497
G0 X108.926 Y108.376 F6000
G1 F1200
G1 X99.124 Y98.574 E9.02382
G0 X99.661 Y98.574 F6000
G1 F1200
G1 X108.926 Y107.839 E9.41971
G0 X108.926 Y107.302 F6000
G1 F1200
G1 X100.198 Y98.574 E9.79266
G0 X100.736 Y98.574 F6000
G1 F1200
G1 X108.926 Y106.764 E10.14262
G0 X108.926 Y106.227 F6000
G1 F1200
G1 X101.272 Y98.574 E10.46966
G0 X101.811 Y98.574 F6000
G1 F1200
G1 X108.926 Y105.689 E10.77369
G0 X108.926 Y105.152 F6000
G1 F1200
G1 X102.348 Y98.574 E11.05477
G0 X102.886 Y98.574 F6000
G1 F1200
G1 X108.926 Y104.614 E11.31286
G0 X108.926 Y104.077 F6000
G1 F1200
G1 X103.423 Y98.574 E11.54800
G0 X103.96 Y98.574 F6000
G1 F1200
G1 X108.926 Y103.54 E11.76020
G0 X108.926 Y103.002 F6000
G1 F1200
G1 X104.498 Y98.574 E11.94941
G0 X105.035 Y98.574 F6000
G1 F1200
G1 X108.926 Y102.465 E12.11568
G0 X108.926 Y101.929 F6000
G1 F1200
G1 X105.571 Y98.574 E12.25904
G0 X106.11 Y98.574 F6000
G1 F1200
G1 X108.926 Y101.39 E12.37936
G0 X108.926 Y100.852 F6000
G1 F1200
G1 X106.648 Y98.574 E12.47670
G0 X107.185 Y98.574 F6000
G1 F1200
G1 X108.926 Y100.315 E12.55110
G0 X108.926 Y99.778 F6000
G1 F1200
G1 X107.722 Y98.574 E12.60254
G0 X108.26 Y98.574 F6000
G1 F1200
G1 X108.926 Y99.24 E12.63100
G0 X108.926 Y98.703 F6000
G1 F1200
G1 X108.797 Y98.574 E12.63652
G0 X102.258 Y110.56 F6000
G1 F1200
G1 X98.56 Y114.258 E12.79453
G1 X98.56 Y118.218 E12.91418
G1 X106.218 Y110.56 E13.24141
G1 X110.178 Y110.56 E13.36106
G1 X99.298 Y121.44 E13.82597
G1 X103.257 Y121.44 E13.94559
G1 X121.44 Y103.257 E14.72255
G1 X121.44 Y107.217 E14.84221
G1 X107.216 Y121.44 E15.44998
G1 X111.176 Y121.44 E15.56963
G1 X121.44 Y111.177 E16.00819
G1 X121.44 Y115.136 E16.12782
G1 X115.136 Y121.44 E16.39719
G1 X119.096 Y121.44 E16.51684
G1 X121.44 Y119.096 E16.61700
G1 X110.56 Y106.217 E17.12641
G1 X118.217 Y98.56 E17.45359
G1 X121.44 Y99.297 E17.55349
G1 X110.56 Y110.177 E18.01839
G1 X114.258 Y98.56 E18.38676
G1 X110.56 Y102.258 E18.54477
G92 E0
G1 Z0.6 F3000
G92 E0
G1 E-5 F2400

;LAYER 2 of 101
G1 E0 F2700
G0 X109.8 Y109.8 Z0.58 F6000
G1 F1200
G1 X97.7 Y109.8 E0.36560
G1 X97.7 Y97.7 E0.73120
G1 X109.8 Y97.7 E1.09680
G1 X109.8 Y109.8 E1.46240
G0 X109.42 Y109.42 F6000
G1 F1200
G1 X98.08 Y109.42 E1.80504
G1 X98.08 Y98.08 E2.14768
G1 X109.42 Y98.08 E2.49031
G1 X109.42 Y109.42 E2.83295
G0 X109.04 Y109.04 F6000
G1 F1200
G1 X98.46 Y109.04 E3.15262
G1 X98.46 Y98.46 E3.47230
G1 X109.04 Y98.46 E3.79197
G1 X109.04 Y109.04 E4.11164
G0 X98.574 Y98.843 F6000
G1 F1200
G1 X98.842 Y98.574 E4.12312
G0 X99.38 Y98.574 F6000
G1 F1200
G1 X98.574 Y99.38 E4.15756
G0 X98.574 Y99.918 F6000
G1 F1200
G1 X99.918 Y98.574 E4.21499
G0 X100.455 Y98.574 F6000
G1 F1200
G1 X98.574 Y100.455 E4.29536
G0 X98.574 Y100.992 F6000
G1 F1200
G1 X100.992 Y98.574 E4.39869
G0 X101.53 Y98.574 F6000
G1 F1200
G1 X98.574 Y101.53 E4.52500
G0 X98.574 Y102.067 F6000
G1 F1200
G1 X102.068 Y98.574 E4.67427
G0 X102.604 Y98.574 F6000
G1 F1200
G1 X98.574 Y102.605 E4.84650
G0 X98.574 Y103.142 F6000
G1 F1200
G1 X103.142 Y98.574 E5.04169
G0 X103.68 Y98.574 F6000
G1 F1200
G1 X98.574 Y103.679 E5.25985
G0 X98.574 Y104.217 F6000
G1 F1200
G1 X104.216 Y98.574 E5.50096
G0 X104.754 Y98.574 F6000
G1 F1200
G1 X98.574 Y104.754 E5.76503
G0 X98.574 Y105.292 F6000
G1 F1200
G1 X105.292 Y98.574 E6.05209
G0 X105.829 Y98.574 F6000
G1 F1200
G1 X98.574 Y105.829 E6.36210
G0 X98.574 Y106.366 F6000
G1 F1200
G1 X106.366 Y98.574 E6.69506
G0 X106.904 Y98.574 F6000
G1 F1200
G1 X98.574 Y106.904 E7.05100
G0 X98.574 Y107.441 F6000
G1 F1200
G1 X107.442 Y98.574 E7.42991
G0 X107.978 Y98.574 F6000
G1 F1200
G1 X98.574 Y107.979 E7.83177
G0 X98.574 Y108.516 F6000
G1 F1200
G1 X108.516 Y98.574 E8.25659
G0 X108.926 Y98.702 F6000
G1 F1200
G1 X98.701 Y108.926 E8.69349
G0 X99.239 Y108.926 F6000
G1 F1200
G1 X108.926 Y99.238 E9.10744
G0 X108.926 Y99.776 F6000
G1 F1200
G1 X99.776 Y108.926 E9.49842
G0 X100.314 Y108.926 F6000
G1 F1200
G1 X108.926 Y100.314 E9.86641
G0 X108.926 Y100.851 F6000
G1 F1200
G1 X100.851 Y108.926 E10.21146
G0 X101.388 Y108.926 F6000
G1 F1200
G1 X108.926 Y101.388 E10.53356
G0 X108.926 Y101.926 F6000
G1 F1200
G1 X101.926 Y108.926 E10.83268
G0 X102.463 Y108.926 F6000
G1 F1200
G1 X108.926 Y102.464 E11.10882
G0 X108.926 Y103 F6000
G1 F1200
G1 X103.001 Y108.926 E11.36202
G0 X103.538 Y108.926 F6000
G1 F1200
G1 X108.926 Y103.538 E11.59225
G0 X108.926 Y104.076 F6000
G1 F1200
G1 X104.076 Y108.926 E11.79949
G0 X104.613 Y108.926 F6000
G1 F1200
G1 X108.926 Y104.612 E11.98381
G0 X108.926 Y105.15 F6000
G1 F1200
G1 X105.15 Y108.926 E12.14516
G0 X105.688 Y108.926 F6000
G1 F1200
G1 X108.926 Y105.688 E12.28352
G0 X108.926 Y106.225 F6000
G1 F1200
G1 X106.225 Y108.926 E12.39893
G0 X106.762 Y108.926 F6000
G1 F1200
G1 X108.926 Y106.762 E12.49140
G0 X108.926 Y107.3 F6000
G1 F1200
G1 X107.3 Y108.926 E12.56088
G0 X107.837 Y108.926 F6000
G1 F1200
G1 X108.926 Y107.838 E12.60739
G0 X108.926 Y108.374 F6000
G1 F1200
G1 X108.375 Y108.926 E12.63096
G0 X102.258 Y110.56 F6000
G1 F1200
G1 X98.56 Y114.258 E12.78898
G1 X98.56 Y118.218 E12.90863
G1 X106.218 Y110.56 E13.23586
G1 X110.178 Y110.56 E13.35551
G1 X99.298 Y121.44 E13.82041
G1 X103.257 Y121.44 E13.94003
G1 X121.44 Y103.257 E14.71700
G1 X121.44 Y107.217 E14.83665
G1 X107.216 Y121.44 E15.44443
G1 X111.176 Y121.44 E15.56408
G1 X121.44 Y111.177 E16.00264
G1 X121.44 Y115.136 E16.12226
G1 X115.136 Y121.44 E16.39163
G1 X119.096 Y121.44 E16.51128
G1 X121.44 Y119.096 E16.61144
G1 X110.56 Y106.217 E17.12085
G1 X118.217 Y98.56 E17.44804
G1 X121.44 Y99.297 E17.54793
G1 X110.56 Y110.177 E18.01284
G1 X114.258 Y98.56 E18.38120
G1 X110.56 Y102.258 E18.53922
G92 E0
G1 Z0.8 F3000
G92 E0
G1 E-5 F2400

;LAYER 3 of 101
G1 E0 F2700
G0 X109.8 Y109.8 Z0.78 F6000
G1 F1200
G1 X97.7 Y109.8 E0.36560
G1 X97.7 Y97.7 E0.73120
G1 X109.8 Y97.7 E1.09680
G1 X109.8 Y109.8 E1.46240
G0 X109.42 Y109.42 F6000
G1 F1200
G1 X98.08 Y109.42 E1.80504
G1 X98.08 Y98.08 E2.14768
G1 X109.42 Y98.08 E2.49031
G1 X109.42 Y109.42 E2.83295
G0 X109.04 Y109.04 F6000
G1 F1200
G1 X98.46 Y109.04 E3.15262
G1 X98.46 Y98.46 E3.47230
G1 X109.04 Y98.46 E3.79197
G1 X109.04 Y109.04 E4.11164
G0 X98.574 Y105.252 F6000
G1 F1200
G1 X100.695 Y108.926 E4.23982
G0 X102.258 Y110.56 F6000
G1 F1200
G1 X98.56 Y114.258 E4.39784
G1 X98.56 Y118.218 E4.51749
G1 X106.218 Y110.56 E4.84472
G1 X110.178 Y110.56 E4.96437
G1 X99.298 Y121.44 E5.42928
G1 X103.257 Y121.44 E5.54890
G1 X121.44 Y103.257 E6.32586
G1 X121.44 Y107.217 E6.44551
G1 X107.216 Y121.44 E7.05329
G1 X111.176 Y121.44 E7.17294
G1 X121.44 Y111.177 E7.61150
G1 X121.44 Y115.136 E7.73112
G1 X115.136 Y121.44 E8.00050
G1 X119.096 Y121.44 E8.12015
G1 X121.44 Y119.096 E8.22031
G1 X110.56 Y106.217 E8.72972
G1 X118.217 Y98.56 E9.05690
G1 X121.44 Y99.297 E9.15680
G1 X110.56 Y110.177 E9.62170
G1 X114.258 Y98.56 E9.99007
G1 X110.56 Y102.258 E10.14808
G0 X107.911 Y98.574 F6000
G1 F1200
G1 X101.934 Y108.926 E10.50926
G0 X107.161 Y108.926 F6000
G1 F1200
G1 X101.184 Y98.574 E10.87044
G0 X98.574 Y103.547 F6000
G1 F1200
G1 X101.445 Y98.574 E11.04394
G0 X107.65 Y98.574 F6000
G1 F1200
G1 X108.926 Y100.783 E11.12102
G0 X108.401 Y108.926 F6000
G1 F1200
G1 X108.926 Y108.016 E11.15276
G92 E0
G1 Z1 F3000
G92 E0
G1 E-5 F2400

;LAYER 4 of 101
G1 E0 F2700
G0 X109.8 Y109.8 Z0.98 F6000
G1 F1200
G1 X97.7 Y109.8 E0.36560
G1 X97.7 Y97.7 E0.73120
G1 X109.8 Y97.7 E1.09680
G1 X109.8 Y109.8 E1.46240
G0 X109.42 Y109.42 F6000
G1 F1200
G1 X98.08 Y109.42 E1.80504
G1 X98.08 Y98.08 E2.14768
G1 X109.42 Y98.08 E2.49031
G1 X109.42 Y109.42 E2.83295
G0 X109.04 Y109.04 F6000
G1 F1200
G1 X98.46 Y109.04 E3.15262
G1 X98.46 Y98.46 E3.47230
G1 X109.04 Y98.46 E3.79197
G1 X109.04 Y109.04 E4.11164
G0 X98.574 Y105.252 F6000
G1 F1200
G1 X100.695 Y108.926 E4.23982
G0 X102.258 Y110.56 F6000
G1 F1200
G1 X98.56 Y114.258 E4.39784
G1 X98.56 Y118.218 E4.51749
G1 X106.218 Y110.56 E4.84472
G1 X110.178 Y110.56 E4.96437
G1 X99.298 Y121.44 E5.42928
G1 X103.257 Y121.44 E5.54890
G1 X121.44 Y103.257 E6.32586
G1 X121.44 Y107.217 E6.44551
G1 X107.216 Y121.44 E7.05329
G1 X111.176 Y121.44 E7.17294
G1 X121.44 Y111.177 E7.61150
G1 X121.44 Y115.136 E7.73112
G1 X115.136 Y121.44 E8.00050
G1 X119.096 Y121.44 E8.12015
G1 X121.44 Y119.096 E8.22031
G1 X110.56 Y106.217 E8.72972
G1 X118.217 Y98.56 E9.05690
G1 X121.44 Y99.297 E9.15680
G1 X110.56 Y110.177 E9.62170
G1 X114.258 Y98.56 E9.99007
G1 X110.56 Y102.258 E10.14808
G0 X107.911 Y98.574 F6000
G1 F1200
G1 X101.934 Y108.926 E10.50926
G0 X107.161 Y108.926 F6000
G1 F1200
G1 X101.184 Y98.574 E10.87044
G0 X98.574 Y103.547 F6000
G1 F1200
