;Generated with Pancakes - © 2019 Lieven Libberecht, William Thenaers

;Setup
M140 S50
M104 S200
M105
M190 S50
M109 S200
M82
G21
M201 X500.0 Y500.0 Z100.0 E5000.0
M203 X500.0 Y500.0 Z10.0 E50.0
M204 P500.0 R1000.0 T500.0
M205 X8.0 Y8.0 Z0.4 E5.0
M220 S100.0
M221 S100.0
G28
G92 E0
G1 Z2.0 F3000
G1 X10.1 Y20.0 Z0.28 F5000
G1 X10.1 Y200.0 Z0.28 E15 F1500
G1 X10.4 Y200.0 Z0.28 F5000
G1 X10.4 Y20.0 Z0.28 E30 F1500
G92 E0
G1 Z2.0 F3000
G92 E0
G1 E-5 F2700
M107
G1 E0 F1500

;Print

;LAYER 0 of 26
M106 S85
G0 X124.909 Y126.588 Z0.18 F6000
G1 E0 F2700
G1 F1200
G1 X123.963 Y126.838 E0.04473
G1 X122.949 Y127.046 E0.09205
G1 X121.967 Y127.186 E0.13740
G1 X120.953 Y127.273 E0.18392
G1 X119.959 Y127.299 E0.22938
G1 X118.946 Y127.267 E0.27571
G1 X117.953 Y127.178 E0.32128
G1 X116.949 Y127.028 E0.36769
G1 X115.956 Y126.82 E0.41407
G1 X114.987 Y126.558 E0.45996
G1 X112.65 Y125.875 E0.57126
G1 X110.318 Y125.246 E0.68168
G1 X107.973 Y124.666 E0.79211
G1 X105.616 Y124.136 E0.90255
G1 X103.249 Y123.656 E1.01295
G1 X100.872 Y123.224 E1.12340
G1 X98.485 Y122.842 E1.23390
G1 X96.093 Y122.512 E1.34429
G1 X93.695 Y122.23 E1.45467
G1 X92.884 Y122.116 E1.49211
G1 X92.054 Y121.942 E1.53087
G1 X91.257 Y121.717 E1.56873
G1 X90.468 Y121.435 E1.60704
G1 X89.691 Y121.097 E1.64577
G1 X88.96 Y120.716 E1.68345
G1 X88.238 Y120.276 E1.72211
G1 X87.55 Y119.789 E1.76064
G1 X86.898 Y119.258 E1.79908
G1 X86.289 Y118.687 E1.83724
G1 X85.724 Y118.081 E1.87512
G1 X85.198 Y117.435 E1.91320
G1 X84.708 Y116.739 E1.95211
G1 X84.277 Y116.032 E1.98996
G1 X83.887 Y115.279 E2.02873
G1 X83.553 Y114.51 E2.06706
G1 X83.277 Y113.734 E2.10471
G1 X83.047 Y112.914 E2.14364
G1 X82.876 Y112.094 E2.18193
G1 X82.763 Y111.278 E2.21959
G1 X82.704 Y110.428 E2.25854
G1 X82.703 Y109.604 E2.29621
G1 X82.76 Y108.754 E2.33516
G1 X82.87 Y107.938 E2.37280
G1 X83.039 Y107.118 E2.41107
G1 X83.267 Y106.298 E2.44998
G1 X83.541 Y105.52 E2.48768
G1 X83.879 Y104.738 E2.52663
G1 X84.263 Y103.991 E2.56502
G1 X84.689 Y103.288 E2.60260
G1 X85.178 Y102.591 E2.64152
G1 X85.715 Y101.927 E2.68056
G1 X86.277 Y101.324 E2.71825
G1 X86.875 Y100.762 E2.75576
G1 X87.534 Y100.222 E2.79471
G1 X88.217 Y99.737 E2.83300
G1 X88.923 Y99.304 E2.87086
G1 X89.665 Y98.916 E2.90914
G1 X90.437 Y98.576 E2.94770
G1 X91.225 Y98.292 E2.98599
G1 X92.022 Y98.065 E3.02388
G1 X92.855 Y97.888 E3.06281
G1 X93.678 Y97.771 E3.10081
G1 X96.093 Y97.487 E3.21197
G1 X98.485 Y97.157 E3.32235
G1 X100.872 Y96.775 E3.43286
G1 X103.249 Y96.343 E3.54330
G1 X105.616 Y95.863 E3.65371
G1 X107.973 Y95.333 E3.76415
G1 X110.318 Y94.753 E3.87458
G1 X112.65 Y94.124 E3.98500
G1 X114.964 Y93.448 E4.09520
G1 X115.94 Y93.182 E4.14145
G1 X116.909 Y92.978 E4.18671
G1 X117.912 Y92.826 E4.23309
G1 X118.905 Y92.735 E4.27867
G1 X119.919 Y92.7 E4.32506
G1 X120.932 Y92.725 E4.37138
G1 X121.927 Y92.808 E4.41702
G1 X122.949 Y92.953 E4.46421
G1 X123.924 Y93.152 E4.50970
G1 X124.908 Y93.411 E4.55622
G1 X125.872 Y93.727 E4.60259
G1 X126.785 Y94.088 E4.64747
G1 X127.711 Y94.516 E4.69411
G1 X127.711 Y94.515 E4.69415
G1 X128.59 Y94.986 E4.73974
G1 X129.478 Y95.529 E4.78732
G1 X130.278 Y96.087 E4.83191
G1 X131.071 Y96.71 E4.87801
G1 X131.835 Y97.386 E4.92465
G1 X132.565 Y98.112 E4.97171
G1 X133.228 Y98.855 E5.01723
G1 X133.855 Y99.645 E5.06334
G1 X134.429 Y100.463 E5.10902
G1 X134.955 Y101.31 E5.15460
G1 X135.436 Y102.197 E5.20073
G1 X135.873 Y103.128 E5.24774
G1 X136.239 Y104.046 E5.29292
G1 X136.568 Y105.033 E5.34048
G1 X136.821 Y105.977 E5.38516
G1 X137.029 Y106.975 E5.43176
G1 X137.176 Y107.972 E5.47783
G1 X137.266 Y108.986 E5.52437
G1 X137.296 Y109.993 E5.57042
G1 X137.266 Y111.013 E5.61707
G1 X137.179 Y112.006 E5.66264
G1 X137.036 Y112.985 E5.70787
G1 X136.831 Y113.981 E5.75436
G1 X136.568 Y114.966 E5.80096
G1 X136.257 Y115.904 E5.84614
G1 X135.874 Y116.869 E5.89360
G1 X135.451 Y117.774 E5.93927
G1 X134.967 Y118.669 E5.98578
G1 X134.452 Y119.502 E6.03055
G1 X133.868 Y120.336 E6.07710
G1 X133.241 Y121.128 E6.12327
G1 X132.57 Y121.881 E6.16938
G1 X131.865 Y122.586 E6.21496
G1 X131.865 Y122.585 E6.21500
G1 X131.087 Y123.276 E6.26257
G1 X130.32 Y123.881 E6.30723
G1 X129.467 Y124.477 E6.35480
G1 X128.635 Y124.988 E6.39943
G1 X127.736 Y125.471 E6.44609
G1 X126.832 Y125.891 E6.49166
G1 X125.866 Y126.274 E6.53916
G1 X124.909 Y126.588 E6.58520
G0 X120.653 Y97.316 F6000
G1 F1200
G1 X121.544 Y97.394 E6.62609
G1 X122.41 Y97.532 E6.66618
G1 X123.265 Y97.728 E6.70628
G1 X124.104 Y97.983 E6.74637
G1 X124.923 Y98.295 E6.78643
G1 X125.718 Y98.662 E6.82646
G1 X126.487 Y99.084 E6.86656
G1 X127.225 Y99.557 E6.90663
G1 X127.928 Y100.082 E6.94674
G1 X128.592 Y100.653 E6.98677
G1 X129.206 Y101.254 E7.02605
G1 X129.787 Y101.911 E7.06614
G1 X130.332 Y102.621 E7.10706
G1 X130.807 Y103.336 E7.14630
G1 X131.249 Y104.113 E7.18717
G1 X131.628 Y104.904 E7.22726
G1 X131.952 Y105.719 E7.26736
G1 X132.219 Y106.554 E7.30743
G1 X132.428 Y107.405 E7.34749
G1 X132.577 Y108.269 E7.38757
G1 X132.666 Y109.123 E7.42682
G1 X132.696 Y109.999 E7.46689
G1 X132.667 Y110.859 E7.50623
G1 X132.572 Y111.765 E7.54787
G1 X132.421 Y112.628 E7.58792
G1 X132.209 Y113.48 E7.62806
G1 X131.94 Y114.314 E7.66812
G1 X131.614 Y115.128 E7.70820
G1 X131.233 Y115.917 E7.74826
G1 X130.797 Y116.678 E7.78835
G1 X130.312 Y117.407 E7.82838
G1 X129.787 Y118.088 E7.86769
G1 X129.206 Y118.745 E7.90778
G1 X128.567 Y119.371 E7.94867
G1 X127.901 Y119.94 E7.98872
G1 X127.21 Y120.452 E8.02803
G1 X126.457 Y120.932 E8.06886
G1 X125.687 Y121.353 E8.10897
G1 X124.89 Y121.718 E8.14905
G1 X124.07 Y122.028 E8.18912
G1 X123.231 Y122.281 E8.22918
G1 X122.375 Y122.475 E8.26931
G1 X121.509 Y122.609 E8.30937
G1 X120.653 Y122.683 E8.34864
G1 X119.759 Y122.697 E8.38952
G1 X118.883 Y122.65 E8.42962
G1 X118.014 Y122.544 E8.46964
G1 X117.153 Y122.377 E8.50973
G1 X116.306 Y122.151 E8.54981
G1 X115.476 Y121.868 E8.58990
G1 X114.668 Y121.528 E8.62997
G1 X113.886 Y121.133 E8.67002
G1 X113.146 Y120.695 E8.70933
G1 X112.425 Y120.197 E8.74939
G1 X111.727 Y119.638 E8.79027
G1 X111.082 Y119.045 E8.83032
G1 X110.489 Y118.422 E8.86964
G1 X109.921 Y117.731 E8.91053
G1 X109.411 Y117.018 E8.95061
G1 X108.953 Y116.271 E8.99066
G1 X108.547 Y115.494 E9.03074
G1 X108.2 Y114.707 E9.07006
G1 X107.903 Y113.882 E9.11014
G1 X107.665 Y113.039 E9.15018
G1 X107.482 Y112.163 E9.19109
G1 X107.363 Y111.295 E9.23115
G1 X107.303 Y110.421 E9.27119
G1 X107.303 Y109.561 E9.31051
G1 X107.366 Y108.669 E9.35139
G1 X107.488 Y107.801 E9.39146
G1 X107.67 Y106.943 E9.43155
G1 X107.91 Y106.101 E9.47158
G1 X108.207 Y105.276 E9.51166
G1 X108.562 Y104.474 E9.55176
G1 X108.97 Y103.698 E9.59183
G1 X109.432 Y102.952 E9.63195
G1 X109.942 Y102.24 E9.67198
G1 X110.489 Y101.577 E9.71128
G1 X111.106 Y100.93 E9.75215
G1 X111.753 Y100.339 E9.79221
G1 X112.425 Y99.802 E9.83153
G1 X113.161 Y99.295 E9.87239
G1 X113.916 Y98.849 E9.91247
G1 X114.7 Y98.457 E9.95254
G1 X115.509 Y98.119 E9.99262
G1 X116.339 Y97.837 E10.03270
G1 X117.17 Y97.618 E10.07198
G1 X118.048 Y97.45 E10.11285
G1 X118.919 Y97.346 E10.15295
G1 X119.777 Y97.301 E10.19222
G1 X120.653 Y97.316 E10.23228
G0 X96.03 Y102.369 F6000
G1 F1200
G1 X96.71 Y102.493 E10.26387
G1 X97.376 Y102.677 E10.29546
G1 X98.023 Y102.919 E10.32704
G1 X98.645 Y103.219 E10.35861
G1 X99.238 Y103.573 E10.39018
G1 X99.797 Y103.98 E10.42179
G1 X100.317 Y104.434 E10.45335
G1 X100.795 Y104.933 E10.48493
G1 X101.226 Y105.473 E10.51652
G1 X101.606 Y106.05 E10.54810
G1 X101.933 Y106.658 E10.57966
G1 X102.205 Y107.294 E10.61128
G1 X102.419 Y107.951 E10.64287
G1 X102.569 Y108.611 E10.67381
G1 X102.665 Y109.309 E10.70602
G1 X102.696 Y109.999 E10.73759
G1 X102.665 Y110.69 E10.76922
G1 X102.572 Y111.375 E10.80082
G1 X102.419 Y112.048 E10.83237
G1 X102.205 Y112.705 E10.86395
G1 X101.933 Y113.341 E10.89558
G1 X101.606 Y113.949 E10.92714
G1 X101.226 Y114.526 E10.95872
G1 X100.795 Y115.066 E10.99030
G1 X100.317 Y115.565 E11.02189
G1 X99.797 Y116.019 E11.05345
G1 X99.238 Y116.426 E11.08506
G1 X98.645 Y116.78 E11.11663
G1 X98.023 Y117.08 E11.14820
G1 X97.376 Y117.322 E11.17978
G1 X96.71 Y117.506 E11.21136
G1 X96.03 Y117.63 E11.24296
G1 X95.341 Y117.692 E11.27459
G1 X94.65 Y117.692 E11.30618
G1 X93.962 Y117.63 E11.33775
G1 X93.282 Y117.506 E11.36935
G1 X92.616 Y117.322 E11.40094
G1 X91.969 Y117.08 E11.43252
G1 X91.347 Y116.78 E11.46409
G1 X90.754 Y116.426 E11.49566
G1 X90.195 Y116.019 E11.52727
G1 X89.675 Y115.565 E11.55882
G1 X89.197 Y115.066 E11.59041
G1 X88.766 Y114.526 E11.62200
G1 X88.386 Y113.949 E11.65358
G1 X88.059 Y113.341 E11.68514
G1 X87.787 Y112.705 E11.71676
G1 X87.573 Y112.048 E11.74835
G1 X87.419 Y111.375 E11.77991
G1 X87.327 Y110.69 E11.81151
G1 X87.296 Y109.999 E11.84313
G1 X87.327 Y109.309 E11.87470
G1 X87.419 Y108.624 E11.90630
G1 X87.573 Y107.951 E11.93786
G1 X87.787 Y107.294 E11.96944
G1 X88.059 Y106.658 E12.00107
G1 X88.386 Y106.05 E12.03263
G1 X88.766 Y105.473 E12.06421
G1 X89.197 Y104.933 E12.09579
G1 X89.675 Y104.434 E12.12738
G1 X90.195 Y103.98 E12.15894
G1 X90.754 Y103.573 E12.19055
G1 X91.347 Y103.219 E12.22212
G1 X91.969 Y102.919 E12.25369
G1 X92.616 Y102.677 E12.28527
G1 X93.282 Y102.493 E12.31685
G1 X93.962 Y102.369 E12.34845
G1 X94.65 Y102.307 E12.38003
G1 X95.341 Y102.307 E12.41162
G1 X96.03 Y102.369 E12.44324
G0 X120.971 Y102.765 F6000
G1 F1200
G1 X121.622 Y102.884 E12.47350
G1 X122.257 Y103.059 E12.50361
G1 X122.863 Y103.286 E12.53319
G1 X123.45 Y103.569 E12.56298
G1 X124.018 Y103.908 E12.59322
G1 X124.546 Y104.292 E12.62306
G1 X125.044 Y104.727 E12.65329
G1 X125.495 Y105.199 E12.68314
G1 X125.902 Y105.708 E12.71293
G1 X126.262 Y106.255 E12.74286
G1 X126.571 Y106.83 E12.77270
G1 X126.834 Y107.443 E12.80320
G1 X127.033 Y108.057 E12.83270
G1 X127.178 Y108.696 E12.86266
G1 X127.266 Y109.336 E12.89219
G1 X127.296 Y109.999 E12.92253
G1 X127.266 Y110.658 E12.95269
G1 X127.176 Y111.312 E12.98287
G1 X127.033 Y111.942 E13.01240
G1 X126.834 Y112.556 E13.04190
G1 X126.571 Y113.169 E13.07240
G1 X126.262 Y113.744 E13.10224
G1 X125.902 Y114.291 E13.13217
G1 X125.495 Y114.8 E13.16197
G1 X125.044 Y115.272 E13.19181
G1 X124.546 Y115.707 E13.22204
G1 X124.018 Y116.091 E13.25188
G1 X123.45 Y116.43 E13.28212
G1 X122.863 Y116.713 E13.31191
G1 X122.257 Y116.94 E13.34149
G1 X121.622 Y117.115 E13.37161
G1 X120.971 Y117.234 E13.40186
G1 X120.325 Y117.292 E13.43151
G1 X119.666 Y117.292 E13.46163
G1 X119.021 Y117.234 E13.49124
G1 X118.37 Y117.115 E13.52149
G1 X117.735 Y116.94 E13.55160
G1 X117.129 Y116.713 E13.58119
G1 X116.542 Y116.43 E13.61098
G1 X115.974 Y116.091 E13.64121
G1 X115.446 Y115.707 E13.67106
G1 X114.948 Y115.272 E13.70129
G1 X114.497 Y114.8 E13.73113
G1 X114.09 Y114.291 E13.76092
G1 X113.73 Y113.744 E13.79086
G1 X113.421 Y113.169 E13.82070
G1 X113.158 Y112.556 E13.85119
G1 X112.96 Y111.945 E13.88055
G1 X112.812 Y111.3 E13.91081
G1 X112.726 Y110.658 E13.94042
G1 X112.696 Y109.999 E13.97057
G1 X112.726 Y109.336 E14.00091
G1 X112.812 Y108.699 E14.03030
G1 X112.96 Y108.054 E14.06055
G1 X113.158 Y107.443 E14.08991
G1 X113.421 Y106.83 E14.12040
G1 X113.73 Y106.255 E14.15025
G1 X114.09 Y105.708 E14.18018
G1 X114.497 Y105.199 E14.20997
G1 X114.948 Y104.727 E14.23982
G1 X115.446 Y104.292 E14.27004
G1 X115.974 Y103.908 E14.29989
G1 X116.542 Y103.569 E14.33013
G1 X117.129 Y103.286 E14.35992
G1 X117.735 Y103.059 E14.38950
G1 X118.37 Y102.884 E14.41961
G1 X119.021 Y102.765 E14.44987
G1 X119.666 Y102.707 E14.47947
G1 X120.325 Y102.707 E14.50960
G1 X120.971 Y102.765 E14.53925
G0 X120.51 Y107.348 F6000
G1 F1200
G1 X120.909 Y107.458 E14.55817
G1 X121.286 Y107.627 E14.57705
G1 X121.633 Y107.852 E14.59596
G1 X121.941 Y108.127 E14.61483
G1 X122.205 Y108.446 E14.63376
G1 X122.416 Y108.801 E14.65264
G1 X122.568 Y109.177 E14.67118
G1 X122.665 Y109.587 E14.69044
G1 X122.697 Y109.999 E14.70933
G1 X122.665 Y110.412 E14.72827
G1 X122.57 Y110.815 E14.74720
G1 X122.416 Y111.198 E14.76607
G1 X122.205 Y111.553 E14.78495
G1 X121.941 Y111.872 E14.80388
G1 X121.633 Y112.147 E14.82275
G1 X121.286 Y112.372 E14.84166
G1 X120.909 Y112.541 E14.86054
G1 X120.51 Y112.651 E14.87947
G1 X120.1 Y112.698 E14.89833
G1 X119.686 Y112.682 E14.91727
G1 X119.28 Y112.603 E14.93618
G1 X118.891 Y112.464 E14.95506
G1 X118.528 Y112.266 E14.97396
G1 X118.2 Y112.016 E14.99282
G1 X117.912 Y111.718 E15.01176
G1 X117.675 Y111.38 E15.03063
G1 X117.491 Y111.009 E15.04957
G1 X117.367 Y110.615 E15.06845
G1 X117.303 Y110.207 E15.08733
G1 X117.303 Y109.792 E15.10630
G1 X117.367 Y109.384 E15.12518
G1 X117.491 Y108.99 E15.14406
G1 X117.675 Y108.619 E15.16299
G1 X117.912 Y108.281 E15.18186
G1 X118.2 Y107.983 E15.20081
G1 X118.528 Y107.733 E15.21966
G1 X118.891 Y107.535 E15.23856
G1 X119.28 Y107.396 E15.25745
G1 X119.686 Y107.317 E15.27636
G1 X120.1 Y107.301 E15.29530
G1 X120.51 Y107.348 E15.31416
G0 X120.917 Y93.185 F6000
G1 F1200
G1 X121.875 Y93.265 E15.35811
G1 X122.86 Y93.405 E15.40359
G1 X123.822 Y93.601 E15.44847
G1 X124.783 Y93.854 E15.49390
G1 X125.71 Y94.158 E15.53850
G1 X126.6 Y94.51 E15.58225
G1 X127.527 Y94.938 E15.62892
G1 X128.359 Y95.383 E15.67206
G1 X129.226 Y95.914 E15.71853
G1 X129.998 Y96.452 E15.76155
G1 X130.771 Y97.059 E15.80648
G1 X131.53 Y97.731 E15.85282
G1 X132.231 Y98.428 E15.89801
G1 X132.875 Y99.15 E15.94224
G1 X133.478 Y99.909 E15.98656
G1 X134.044 Y100.715 E16.03158
G1 X134.564 Y101.553 E16.07666
G1 X135.027 Y102.406 E16.12103
G1 X135.45 Y103.308 E16.16657
G1 X135.806 Y104.201 E16.21052
G1 X136.127 Y105.162 E16.25684
G1 X136.373 Y106.083 E16.30042
G1 X136.576 Y107.052 E16.34568
G1 X136.719 Y108.027 E16.39072
G1 X136.806 Y109 E16.43538
G1 X136.836 Y109.993 E16.48080
G1 X136.806 Y110.994 E16.52658
G1 X136.722 Y111.952 E16.57054
G1 X136.585 Y112.892 E16.61397
G1 X136.38 Y113.888 E16.66045
G1 X136.131 Y114.821 E16.70460
G1 X135.825 Y115.745 E16.74909
G1 X135.45 Y116.689 E16.79553
G1 X135.04 Y117.566 E16.83978
G1 X134.564 Y118.447 E16.88556
G1 X134.075 Y119.238 E16.92807
G1 X133.502 Y120.057 E16.97376
G1 X132.88 Y120.842 E17.01955
G1 X132.235 Y121.566 E17.06388
G1 X131.562 Y122.239 E17.10739
G1 X130.794 Y122.921 E17.15434
G1 X130.042 Y123.514 E17.19812
G1 X129.222 Y124.088 E17.24388
G1 X128.402 Y124.591 E17.28785
G1 X127.53 Y125.06 E17.33312
G1 X126.662 Y125.463 E17.37686
G1 X125.698 Y125.845 E17.42427
G1 X124.788 Y126.144 E17.46805
G1 X123.856 Y126.39 E17.51212
G1 X122.859 Y126.595 E17.55865
G1 X121.916 Y126.729 E17.60219
G1 X120.936 Y126.813 E17.64716
G1 X119.962 Y126.839 E17.69170
G1 X118.967 Y126.807 E17.73721
G1 X118.011 Y126.722 E17.78108
G1 X117.024 Y126.574 E17.82671
G1 X116.067 Y126.374 E17.87140
G1 X115.116 Y126.116 E17.91645
G1 X112.774 Y125.432 E18.02798
G1 X110.433 Y124.801 E18.13882
G1 X108.079 Y124.218 E18.24968
G1 X105.712 Y123.686 E18.36059
G1 X103.336 Y123.204 E18.47141
G1 X100.949 Y122.771 E18.58232
G1 X98.553 Y122.387 E18.69324
G1 X96.151 Y122.056 E18.80409
G1 X93.759 Y121.774 E18.91419
G1 X92.952 Y121.661 E18.95145
G1 X92.172 Y121.497 E18.98788
G1 X91.392 Y121.277 E19.02493
G1 X90.638 Y121.007 E19.06154
G1 X89.893 Y120.683 E19.09868
G1 X89.183 Y120.313 E19.13528
G1 X88.488 Y119.89 E19.17247
G1 X87.831 Y119.424 E19.20930
G1 X87.208 Y118.917 E19.24602
G1 X86.604 Y118.351 E19.28386
G1 X86.067 Y117.774 E19.31989
G1 X85.565 Y117.158 E19.35621
G1 X85.093 Y116.486 E19.39376
G1 X84.677 Y115.804 E19.43027
G1 X84.304 Y115.084 E19.46734
G1 X83.979 Y114.336 E19.50463
G1 X83.718 Y113.601 E19.54028
G1 X83.493 Y112.8 E19.57832
G1 X83.331 Y112.024 E19.61456
G1 X83.221 Y111.227 E19.65133
G1 X83.164 Y110.41 E19.68877
G1 X83.163 Y109.62 E19.72489
G1 X83.218 Y108.8 E19.76246
G1 X83.323 Y108.021 E19.79839
G1 X83.49 Y107.211 E19.83620
G1 X83.704 Y106.442 E19.87269
G1 X83.971 Y105.685 E19.90938
G1 X84.296 Y104.932 E19.94688
G1 X84.667 Y104.212 E19.98390
G1 X85.066 Y103.552 E20.01916
G1 X85.547 Y102.866 E20.05746
G1 X86.058 Y102.235 E20.09458
G1 X86.614 Y101.638 E20.13187
G1 X87.172 Y101.114 E20.16687
G1 X87.821 Y100.582 E20.20523
G1 X88.472 Y100.12 E20.24172
G1 X89.142 Y99.709 E20.27765
G1 X89.87 Y99.328 E20.31522
G1 X90.603 Y99.006 E20.35181
G1 X91.375 Y98.727 E20.38934
G1 X92.126 Y98.513 E20.42504
G1 X92.943 Y98.34 E20.46321
G1 X93.732 Y98.228 E20.49965
G1 X96.151 Y97.943 E20.61099
