;Generated with Pancakes - © 2019 Lieven Libberecht, William Thenaers

;Setup
M140 S50
M104 S200
M105
M190 S50
M109 S200
M82
G21
M201 X500.0 Y500.0 Z100.0 E5000.0
M203 X500.0 Y500.0 Z10.0 E50.0
M204 P500.0 R1000.0 T500.0
M205 X8.0 Y8.0 Z0.4 E5.0
M220 S100.0
M221 S100.0
G28
G92 E0
G1 Z2.0 F3000
G1 X10.1 Y20.0 Z0.28 F5000
G1 X10.1 Y200.0 Z0.28 E15 F1500
G1 X10.4 Y200.0 Z0.28 F5000
G1 X10.4 Y20.0 Z0.28 E30 F1500
G92 E0
G1 Z2.0 F3000
G92 E0
G1 E-5 F2700
M107
G1 E0 F1500

;Print

;LAYER 0 of 57
M106 S85
G0 X116.05 Y116.05 Z0.18 F6000
G1 F1200
G1 X103.95 Y116.05 E0.36560
G1 X103.95 Y103.95 E0.73120
G1 X116.05 Y103.95 E1.09680
G1 X116.05 Y116.05 E1.46240
G0 X115.59 Y115.59 F6000
G1 F1200
G1 X104.41 Y115.59 E1.80020
G1 X104.41 Y104.41 E2.13801
G1 X115.59 Y104.41 E2.47581
G1 X115.59 Y115.59 E2.81361
G0 X115.13 Y115.13 F6000
G1 F1200
G1 X104.87 Y115.13 E3.12362
G1 X104.87 Y104.87 E3.43362
G1 X115.13 Y104.87 E3.74363
G1 X115.13 Y115.13 E4.05363
G0 X105.326 Y105.1 F6000
G1 F1200
G1 X105.1 Y105.326 E4.06329
G0 X105.1 Y105.977 F6000
G1 F1200
G1 X105.976 Y105.1 E4.10074
G0 X106.628 Y105.1 F6000
G1 F1200
G1 X105.1 Y106.627 E4.16601
G0 X105.1 Y107.278 F6000
G1 F1200
G1 X107.278 Y105.1 E4.25908
G0 X107.928 Y105.1 F6000
G1 F1200
G1 X105.1 Y107.928 E4.37992
G0 X105.1 Y108.579 F6000
G1 F1200
G1 X108.579 Y105.1 E4.52858
G0 X109.23 Y105.1 F6000
G1 F1200
G1 X105.1 Y109.23 E4.70506
G0 X105.1 Y109.88 F6000
G1 F1200
G1 X109.88 Y105.1 E4.90931
G0 X110.53 Y105.1 F6000
G1 F1200
G1 X105.1 Y110.53 E5.14133
G0 X105.1 Y111.181 F6000
G1 F1200
G1 X111.181 Y105.1 E5.40118
G0 X111.832 Y105.1 F6000
G1 F1200
G1 X105.1 Y111.832 E5.68884
G0 X105.1 Y112.482 F6000
G1 F1200
G1 X112.482 Y105.1 E6.00427
G0 X113.132 Y105.1 F6000
G1 F1200
G1 X105.1 Y113.133 E6.34750
G0 X105.1 Y113.783 F6000
G1 F1200
G1 X113.783 Y105.1 E6.71853
G0 X114.434 Y105.1 F6000
G1 F1200
G1 X105.1 Y114.434 E7.11737
G0 X105.284 Y114.9 F6000
G1 F1200
G1 X114.9 Y105.284 E7.52827
G0 X114.9 Y105.934 F6000
G1 F1200
G1 X105.935 Y114.9 E7.91137
G0 X106.585 Y114.9 F6000
G1 F1200
G1 X114.9 Y106.586 E8.26665
G0 X114.9 Y107.236 F6000
G1 F1200
G1 X107.236 Y114.9 E8.59413
G0 X107.886 Y114.9 F6000
G1 F1200
G1 X114.9 Y107.886 E8.89385
G0 X114.9 Y108.537 F6000
G1 F1200
G1 X108.537 Y114.9 E9.16574
G0 X109.188 Y114.9 F6000
G1 F1200
G1 X114.9 Y109.188 E9.40981
G0 X114.9 Y109.838 F6000
G1 F1200
G1 X109.838 Y114.9 E9.62611
G0 X110.488 Y114.9 F6000
G1 F1200
G1 X114.9 Y110.488 E9.81464
G0 X114.9 Y111.139 F6000
G1 F1200
G1 X111.139 Y114.9 E9.97535
G0 X111.79 Y114.9 F6000
G1 F1200
G1 X114.9 Y111.79 E10.10824
G0 X114.9 Y112.44 F6000
G1 F1200
G1 X112.44 Y114.9 E10.21336
G0 X113.091 Y114.9 F6000
G1 F1200
G1 X114.9 Y113.09 E10.29068
G0 X114.9 Y113.742 F6000
G1 F1200
G1 X113.741 Y114.9 E10.34018
G0 X114.392 Y114.9 F6000
G1 F1200
G1 X114.9 Y114.392 E10.36189
G92 E0
G1 Z0.4 F3000
G92 E0
G1 E-5 F2400
M106 S170

;LAYER 1 of 57
G0 X116.05 Y116.05 Z0.38 F6000
G1 F1200
G1 X103.95 Y116.05 E0.36560
G1 X103.95 Y103.95 E0.73120
G1 X116.05 Y103.95 E1.09680
G1 X116.05 Y116.05 E1.46240
G0 X115.59 Y115.59 F6000
G1 F1200
G1 X104.41 Y115.59 E1.80020
G1 X104.41 Y104.41 E2.13801
G1 X115.59 Y104.41 E2.47581
G1 X115.59 Y115.59 E2.81361
G0 X115.13 Y115.13 F6000
G1 F1200
G1 X104.87 Y115.13 E3.12362
G1 X104.87 Y104.87 E3.43362
G1 X115.13 Y104.87 E3.74363
G1 X115.13 Y115.13 E4.05363
G0 X114.9 Y105.325 F6000
G1 F1200
G1 X114.674 Y105.1 E4.06327
G0 X114.024 Y105.1 F6000
G1 F1200
G1 X114.9 Y105.976 E4.10070
G0 X114.9 Y106.627 F6000
G1 F1200
G1 X113.373 Y105.1 E4.16595
G0 X112.722 Y105.1 F6000
G1 F1200
G1 X114.9 Y107.278 E4.25901
G0 X114.9 Y107.927 F6000
G1 F1200
G1 X112.072 Y105.1 E4.37983
G0 X111.421 Y105.1 F6000
G1 F1200
G1 X114.9 Y108.578 E4.52847
G0 X114.9 Y109.229 F6000
G1 F1200
G1 X110.77 Y105.1 E4.70493
G0 X110.12 Y105.1 F6000
G1 F1200
G1 X114.9 Y109.879 E4.90916
G0 X114.9 Y110.529 F6000
G1 F1200
G1 X109.47 Y105.1 E5.14116
G0 X108.819 Y105.1 F6000
G1 F1200
G1 X114.9 Y111.18 E5.40098
G0 X114.9 Y111.831 F6000
G1 F1200
G1 X108.168 Y105.1 E5.68862
G0 X107.518 Y105.1 F6000
G1 F1200
G1 X114.9 Y112.481 E6.00404
G0 X114.9 Y113.132 F6000
G1 F1200
G1 X106.868 Y105.1 E6.34725
G0 X106.217 Y105.1 F6000
G1 F1200
G1 X114.9 Y113.783 E6.71827
G0 X114.9 Y114.433 F6000
G1 F1200
G1 X105.566 Y105.1 E7.11710
G0 X105.1 Y105.284 F6000
G1 F1200
G1 X114.717 Y114.9 E7.52801
G0 X114.066 Y114.9 F6000
G1 F1200
G1 X105.1 Y105.934 E7.91113
G0 X105.1 Y106.585 F6000
G1 F1200
G1 X113.415 Y114.9 E8.26644
G0 X112.765 Y114.9 F6000
G1 F1200
G1 X105.1 Y107.236 E8.59394
G0 X105.1 Y107.886 F6000
G1 F1200
G1 X112.115 Y114.9 E8.89367
G0 X111.464 Y114.9 F6000
G1 F1200
G1 X105.1 Y108.537 E9.16559
G0 X105.1 Y109.188 F6000
G1 F1200
G1 X110.813 Y114.9 E9.40969
G0 X110.163 Y114.9 F6000
G1 F1200
G1 X105.1 Y109.838 E9.62601
G0 X105.1 Y110.488 F6000
G1 F1200
G1 X109.513 Y114.9 E9.81456
G0 X108.862 Y114.9 F6000
G1 F1200
G1 X105.1 Y111.139 E9.97529
G0 X105.1 Y111.79 F6000
G1 F1200
G1 X108.211 Y114.9 E10.10820
G0 X107.561 Y114.9 F6000
G1 F1200
G1 X105.1 Y112.44 E10.21334
G0 X105.1 Y113.09 F6000
G1 F1200
G1 X106.91 Y114.9 E10.29068
G0 X106.259 Y114.9 F6000
G1 F1200
G1 X105.1 Y113.741 E10.34020
G0 X105.1 Y114.392 F6000
G1 F1200
G1 X105.609 Y114.9 E10.36193
G92 E0
G1 Z0.6 F3000
G92 E0
G1 E-5 F2400

;LAYER 2 of 57
G0 X116.05 Y116.05 Z0.58 F6000
G1 F1200
G1 X103.95 Y116.05 E0.36560
G1 X103.95 Y103.95 E0.73120
G1 X116.05 Y103.95 E1.09680
G1 X116.05 Y116.05 E1.46240
G0 X115.59 Y115.59 F6000
G1 F1200
G1 X104.41 Y115.59 E1.80020
G1 X104.41 Y104.41 E2.13801
G1 X115.59 Y104.41 E2.47581
G1 X115.59 Y115.59 E2.81361
G0 X115.13 Y115.13 F6000
G1 F1200
G1 X104.87 Y115.13 E3.12362
G1 X104.87 Y104.87 E3.43362
G1 X115.13 Y104.87 E3.74363
G1 X115.13 Y115.13 E4.05363
G0 X105.326 Y105.1 F6000
G1 F1200
G1 X105.1 Y105.326 E4.06329
G0 X105.1 Y105.977 F6000
G1 F1200
G1 X105.976 Y105.1 E4.10074
G0 X106.628 Y105.1 F6000
G1 F1200
G1 X105.1 Y106.627 E4.16601
G0 X105.1 Y107.278 F6000
G1 F1200
G1 X107.278 Y105.1 E4.25908
G0 X107.928 Y105.1 F6000
G1 F1200
G1 X105.1 Y107.928 E4.37992
G0 X105.1 Y108.579 F6000
G1 F1200
G1 X108.579 Y105.1 E4.52858
G0 X109.23 Y105.1 F6000
G1 F1200
G1 X105.1 Y109.23 E4.70506
G0 X105.1 Y109.88 F6000
G1 F1200
G1 X109.88 Y105.1 E4.90931
G0 X110.53 Y105.1 F6000
G1 F1200
G1 X105.1 Y110.53 E5.14133
G0 X105.1 Y111.181 F6000
G1 F1200
G1 X111.181 Y105.1 E5.40118
G0 X111.832 Y105.1 F6000
G1 F1200
G1 X105.1 Y111.832 E5.68884
G0 X105.1 Y112.482 F6000
G1 F1200
G1 X112.482 Y105.1 E6.00427
G0 X113.132 Y105.1 F6000
G1 F1200
G1 X105.1 Y113.133 E6.34750
G0 X105.1 Y113.783 F6000
G1 F1200
G1 X113.783 Y105.1 E6.71853
G0 X114.434 Y105.1 F6000
G1 F1200
G1 X105.1 Y114.434 E7.11737
G0 X105.284 Y114.9 F6000
G1 F1200
G1 X114.9 Y105.284 E7.52827
G0 X114.9 Y105.934 F6000
G1 F1200
G1 X105.935 Y114.9 E7.91137
G0 X106.585 Y114.9 F6000
G1 F1200
G1 X114.9 Y106.586 E8.26665
G0 X114.9 Y107.236 F6000
G1 F1200
G1 X107.236 Y114.9 E8.59413
G0 X107.886 Y114.9 F6000
G1 F1200
G1 X114.9 Y107.886 E8.89385
G0 X114.9 Y108.537 F6000
G1 F1200
G1 X108.537 Y114.9 E9.16574
G0 X109.188 Y114.9 F6000
G1 F1200
G1 X114.9 Y109.188 E9.40981
G0 X114.9 Y109.838 F6000
G1 F1200
G1 X109.838 Y114.9 E9.62611
G0 X110.488 Y114.9 F6000
G1 F1200
G1 X114.9 Y110.488 E9.81464
G0 X114.9 Y111.139 F6000
G1 F1200
G1 X111.139 Y114.9 E9.97535
G0 X111.79 Y114.9 F6000
G1 F1200
G1 X114.9 Y111.79 E10.10824
G0 X114.9 Y112.44 F6000
G1 F1200
G1 X112.44 Y114.9 E10.21336
G0 X113.091 Y114.9 F6000
G1 F1200
G1 X114.9 Y113.09 E10.29068
G0 X114.9 Y113.742 F6000
G1 F1200
G1 X113.741 Y114.9 E10.34018
G0 X114.392 Y114.9 F6000
G1 F1200
G1 X114.9 Y114.392 E10.36189
G92 E0
G1 Z0.8 F3000
G92 E0
G1 E-5 F2400

;LAYER 3 of 57
G0 X116.05 Y116.05 Z0.78 F6000
G1 F1200
G1 X103.95 Y116.05 E0.36560
G1 X103.95 Y103.95 E0.73120
G1 X116.05 Y103.95 E1.09680
G1 X116.05 Y116.05 E1.46240
G0 X115.59 Y115.59 F6000
G1 F1200
G1 X104.41 Y115.59 E1.80020
G1 X104.41 Y104.41 E2.13801
G1 X115.59 Y104.41 E2.47581
G1 X115.59 Y115.59 E2.81361
G0 X115.13 Y115.13 F6000
G1 F1200
G1 X104.87 Y115.13 E3.12362
G1 X104.87 Y104.87 E3.43362
G1 X115.13 Y104.87 E3.74363
G1 X115.13 Y115.13 E4.05363
G0 X114.9 Y106.408 F6000
G1 F1200
G1 X114.145 Y105.1 E4.09926
G0 X107.679 Y105.1 F6000
G1 F1200
G1 X113.337 Y114.9 E4.44118
G0 X113.336 Y105.1 F6000
G1 F1200
G1 X107.678 Y114.9 E4.78309
G0 X106.87 Y114.9 F6000
G1 F1200
G1 X105.1 Y111.834 E4.89006
G0 X105.1 Y108.165 F6000
G1 F1200
G1 X106.869 Y105.1 E4.99698
G0 X114.144 Y114.9 F6000
G1 F1200
G1 X114.9 Y113.59 E5.04268
G92 E0
G1 Z1 F3000
G92 E0
G1 E-5 F2400

;LAYER 4 of 57
G0 X116.05 Y116.05 Z0.98 F6000
G1 F1200
G1 X103.95 Y116.05 E0.36560
G1 X103.95 Y103.95 E0.73120
G1 X116.05 Y103.95 E1.09680
G1 X116.05 Y116.05 E1.46240
G0 X115.59 Y115.59 F6000
G1 F1200
G1 X104.41 Y115.59 E1.80020
G1 X104.41 Y104.41 E2.13801
G1 X115.59 Y104.41 E2.47581
G1 X115.59 Y115.59 E2.81361
G0 X115.13 Y115.13 F6000
G1 F1200
G1 X104.87 Y115.13 E3.12362
G1 X104.87 Y104.87 E3.43362
G1 X115.13 Y104.87 E3.74363
G1 X115.13 Y115.13 E4.05363
G0 X114.9 Y106.408 F6000
G1 F1200
G1 X114.145 Y105.1 E4.09926
G0 X107.679 Y105.1 F6000
G1 F1200
G1 X113.337 Y114.9 E4.44118
G0 X113.336 Y105.1 F6000
G1 F1200
G1 X107.678 Y114.9 E4.78309
G0 X106.87 Y114.9 F6000
G1 F1200
G1 X105.1 Y111.834 E4.89006
G0 X105.1 Y108.165 F6000
G1 F1200
G1 X106.869 Y105.1 E4.99698
G0 X114.144 Y114.9 F6000
G1 F1200
G1 X114.9 Y113.59 E5.04268
G92 E0
G1 Z1.2 F3000
G92 E0
G1 E-5 F2400

;LAYER 5 of 57
G0 X116.05 Y116.05 Z1.18 F6000
G1 F1200
G1 X103.95 Y116.05 E0.36560
G1 X103.95 Y103.95 E0.73120
G1 X116.05 Y103.95 E1.09680
G1 X116.05 Y116.05 E1.46240
G0 X115.59 Y115.59 F6000
G1 F1200
G1 X104.41 Y115.59 E1.80020
G1 X104.41 Y104.41 E2.13801
G1 X115.59 Y104.41 E2.47581
G1 X115.59 Y115.59 E2.81361
G0 X115.13 Y115.13 F6000
G1 F1200
G1 X104.87 Y115.13 E3.12362
G1 X104.87 Y104.87 E3.43362
G1 X115.13 Y104.87 E3.74363
G1 X115.13 Y115.13 E4.05363
G0 X114.9 Y106.408 F6000
G1 F1200
G1 X114.145 Y105.1 E4.09926
G0 X107.679 Y105.1 F6000
G1 F1200
G1 X113.337 Y114.9 E4.44118
G0 X113.336 Y105.1 F6000
G1 F1200
G1 X107.678 Y114.9 E4.78309
G0 X106.87 Y114.9 F6000
G1 F1200
G1 X105.1 Y111.834 E4.89006
G0 X105.1 Y108.165 F6000
G1 F1200
G1 X106.869 Y105.1 E4.99698
G0 X114.144 Y114.9 F6000
G1 F1200
G1 X114.9 Y113.59 E5.04268
G92 E0
G1 Z1.4 F3000
G92 E0
G1 E-5 F2400

;LAYER 6 of 57
G0 X116.05 Y116.05 Z1.38 F6000
G1 F1200
G1 X103.95 Y116.05 E0.36560
G1 X103.95 Y103.95 E0.73120
G1 X116.05 Y103.95 E1.09680
G1 X116.05 Y116.05 E1.46240
G0 X115.59 Y115.59 F6000
G1 F1200
G1 X104.41 Y115.59 E1.80020
G1 X104.41 Y104.41 E2.13801
G1 X115.59 Y104.41 E2.47581
G1 X115.59 Y115.59 E2.81361
G0 X115.13 Y115.13 F6000
G1 F1200
G1 X104.87 Y115.13 E3.12362
G1 X104.87 Y104.87 E3.43362
G1 X115.13 Y104.87 E3.74363
G1 X115.13 Y115.13 E4.05363
G0 X114.9 Y106.408 F6000
G1 F1200
G1 X114.145 Y105.1 E4.09926
G0 X107.679 Y105.1 F6000
G1 F1200
G1 X113.337 Y114.9 E4.44118
G0 X113.336 Y105.1 F6000
G1 F1200
G1 X107.678 Y114.9 E4.78309
G0 X106.87 Y114.9 F6000
G1 F1200
G1 X105.1 Y111.834 E4.89006
G0 X105.1 Y108.165 F6000
G1 F1200
G1 X106.869 Y105.1 E4.99698
G0 X114.144 Y114.9 F6000
G1 F1200
G1 X114.9 Y113.59 E5.04268
G92 E0
G1 Z1.6 F3000
G92 E0
G1 E-5 F2400

;LAYER 7 of 57
G0 X116.05 Y116.05 Z1.58 F6000
G1 F1200
G1 X103.95 Y116.05 E0.36560
G1 X103.95 Y103.95 E0.73120
G1 X116.05 Y103.95 E1.09680
G1 X116.05 Y116.05 E1.46240
G0 X115.59 Y115.59 F6000
G1 F1200
G1 X104.41 Y115.59 E1.80020
G1 X104.41 Y104.41 E2.13801
G1 X115.59 Y104.41 E2.47581
G1 X115.59 Y115.59 E2.81361
G0 X115.13 Y115.13 F6000
G1 F1200
G1 X104.87 Y115.13 E3.12362
G1 X104.87 Y104.87 E3.43362
G1 X115.13 Y104.87 E3.74363
G1 X115.13 Y115.13 E4.05363
G0 X114.9 Y106.408 F6000
G1 F1200
G1 X114.145 Y105.1 E4.09926
G0 X107.679 Y105.1 F6000
G1 F1200
G1 X113.337 Y114.9 E4.44118
G0 X113.336 Y105.1 F6000
G1 F1200
G1 X107.678 Y114.9 E4.78309
G0 X106.87 Y114.9 F6000
G1 F1200
G1 X105.1 Y111.834 E4.89006
G0 X105.1 Y108.165 F6000
G1 F1200
G1 X106.869 Y105.1 E4.99698
G0 X114.144 Y114.9 F6000
G1 F1200
G1 X114.9 Y113.59 E5.04268
G92 E0
G1 Z1.8 F3000
G92 E0
G1 E-5 F2400

;LAYER 8 of 57
G0 X116.05 Y116.05 Z1.78 F6000
G1 F1200
G1 X103.95 Y116.05 E0.36560
G1 X103.95 Y103.95 E0.73120
G1 X116.05 Y103.95 E1.09680
G1 X116.05 Y116.05 E1.46240
G0 X115.59 Y115.59 F6000
G1 F1200
G1 X104.41 Y115.59 E1.80020
G1 X104.41 Y104.41 E2.13801
G1 X115.59 Y104.41 E2.47581
G1 X115.59 Y115.59 E2.81361
G0 X115.13 Y115.13 F6000
G1 F1200
G1 X104.87 Y115.13 E3.12362
G1 X104.87 Y104.87 E3.43362
G1 X115.13 Y104.87 E3.74363
G1 X115.13 Y115.13 E4.05363
G0 X114.9 Y106.408 F6000
G1 F1200
G1 X114.145 Y105.1 E4.09926
G0 X107.679 Y105.1 F6000
G1 F1200
G1 X113.337 Y114.9 E4.44118
G0 X113.336 Y105.1 F6000
G1 F1200
G1 X107.678 Y114.9 E4.78309
G0 X106.87 Y114.9 F6000
G1 F1200
G1 X105.1 Y111.834 E4.89006
G0 X105.1 Y108.165 F6000
G1 F1200
G1 X106.869 Y105.1 E4.99698
G0 X114.144 Y114.9 F6000
G1 F1200
G1 X114.9 Y113.59 E5.04268
G92 E0
G1 Z2 F3000
G92 E0
G1 E-5 F2400

;LAYER 9 of 57
G0 X116.05 Y116.05 Z1.98 F6000
G1 F1200
G1 X103.95 Y116.05 E0.36560
G1 X103.95 Y103.95 E0.73120
G1 X116.05 Y103.95 E1.09680
G1 X116.05 Y116.05 E1.46240
G0 X115.59 Y115.59 F6000
G1 F1200
G1 X104.41 Y115.59 E1.80020
G1 X104.41 Y104.41 E2.13801
G1 X115.59 Y104.41 E2.47581
G1 X115.59 Y115.59 E2.81361
G0 X115.13 Y115.13 F6000
G1 F1200
G1 X104.87 Y115.13 E3.12362
G1 X104.87 Y104.87 E3.43362
G1 X115.13 Y104.87 E3.74363
G1 X115.13 Y115.13 E4.05363
G0 X114.9 Y106.408 F6000
G1 F1200
G1 X114.145 Y105.1 E4.09926
G0 X107.679 Y105.1 F6000
G1 F1200
G1 X113.337 Y114.9 E4.44118
G0 X113.336 Y105.1 F6000
G1 F1200
G1 X107.678 Y114.9 E4.78309
G0 X106.87 Y114.9 F6000
G1 F1200
G1 X105.1 Y111.834 E4.89006
G0 X105.1 Y108.165 F6000
G1 F1200
G1 X106.869 Y105.1 E4.99698
G0 X114.144 Y114.9 F6000
G1 F1200
G1 X114.9 Y113.59 E5.04268
G92 E0
G1 Z2.2 F3000
G92 E0
G1 E-5 F2400

;LAYER 10 of 57
G0 X116.05 Y116.05 Z2.18 F6000
G1 F1200
G1 X103.95 Y116.05 E0.36560
G1 X103.95 Y103.95 E0.73120
G1 X116.05 Y103.95 E1.09680
G1 X116.05 Y116.05 E1.46240
G0 X115.59 Y115.59 F6000
G1 F1200
G1 X104.41 Y115.59 E1.80020
G1 X104.41 Y104.41 E2.13801
G1 X115.59 Y104.41 E2.47581
G1 X115.59 Y115.59 E2.81361
G0 X115.13 Y115.13 F6000
G1 F1200
G1 X104.87 Y115.13 E3.12362
G1 X104.87 Y104.87 E3.43362
G1 X115.13 Y104.87 E3.74363
G1 X115.13 Y115.13 E4.05363
G0 X114.9 Y106.408 F6000
G1 F1200
G1 X114.145 Y105.1 E4.09926
G0 X107.679 Y105.1 F6000
G1 F1200
G1 X113.337 Y114.9 E4.44118
G0 X113.336 Y105.1 F6000
G1 F1200
G1 X107.678 Y114.9 E4.78309
G0 X106.87 Y114.9 F6000
G1 F1200
G1 X105.1 Y111.834 E4.89006
G0 X105.1 Y108.165 F6000
G1 F1200
G1 X106.869 Y105.1 E4.99698
G0 X114.144 Y114.9 F6000
G1 F1200
G1 X114.9 Y113.59 E5.04268
G92 E0
G1 Z2.4 F3000
G92 E0
G1 E-5 F2400

;LAYER 11 of 57
G0 X116.05 Y116.05 Z2.38 F6000
G1 F1200
G1 X103.95 Y116.05 E0.36560
G1 X103.95 Y103.95 E0.73120
G1 X116.05 Y103.95 E1.09680
G1 X116.05 Y116.05 E1.46240
G0 X115.59 Y115.59 F6000
G1 F1200
G1 X104.41 Y115.59 E1.80020
G1 X104.41 Y104.41 E2.13801
G1 X115.59 Y104.41 E2.47581
G1 X115.59 Y115.59 E2.81361
G0 X115.13 Y115.13 F6000
G1 F1200
G1 X104.87 Y115.13 E3.12362
G1 X104.87 Y104.87 E3.43362
G1 X115.13 Y104.87 E3.74363
G1 X115.13 Y115.13 E4.05363
G0 X114.9 Y106.408 F6000
G1 F1200
G1 X114.145 Y105.1 E4.09926
G0 X107.679 Y105.1 F6000
G1 F1200
G1 X113.337 Y114.9 E4.44118
G0 X113.336 Y105.1 F6000
G1 F1200
G1 X107.678 Y114.9 E4.78309
G0 X106.87 Y114.9 F6000
G1 F1200
G1 X105.1 Y111.834 E4.89006
G0 X105.1 Y108.165 F6000
G1 F1200
G1 X106.869 Y105.1 E4.99698
G0 X114.144 Y114.9 F6000
G1 F1200
G1 X114.9 Y113.59 E5.04268
G92 E0
G1 Z2.6 F3000
G92 E0
G1 E-5 F2400

;LAYER 12 of 57
G0 X116.05 Y116.05 Z2.58 F6000
G1 F1200
G1 X103.95 Y116.05 E0.36560
G1 X103.95 Y103.95 E0.73120
G1 X116.05 Y103.95 E1.09680
G1 X116.05 Y116.05 E1.46240
G0 X115.59 Y115.59 F6000
G1 F1200
G1 X104.41 Y115.59 E1.80020
G1 X104.41 Y104.41 E2.13801
G1 X115.59 Y104.41 E2.47581
G1 X115.59 Y115.59 E2.81361
G0 X115.13 Y115.13 F6000
G1 F1200
G1 X104.87 Y115.13 E3.12362
G1 X104.87 Y104.87 E3.43362
G1 X115.13 Y104.87 E3.74363
G1 X115.13 Y115.13 E4.05363
G0 X114.9 Y106.408 F6000
G1 F1200
G1 X114.145 Y105.1 E4.09926
G0 X107.679 Y105.1 F6000
G1 F1200
G1 X113.337 Y114.9 E4.44118
