;Generated with Pancakes - © 2019 Lieven Libberecht, William Thenaers

;Setup
M140 S50
M104 S200
M105
M190 S50
M109 S200
M82
G21
M201 X500.0 Y500.0 Z100.0 E5000.0
M203 X500.0 Y500.0 Z10.0 E50.0
M204 P500.0 R1000.0 T500.0
M205 X8.0 Y8.0 Z0.4 E5.0
M220 S100.0
M221 S100.0
G28
G92 E0
G1 Z2.0 F3000
G1 X10.1 Y20.0 Z0.28 F5000
G1 X10.1 Y200.0 Z0.28 E15 F1500
G1 X10.4 Y200.0 Z0.28 F5000
G1 X10.4 Y20.0 Z0.28 E30 F1500
G92 E0
G1 Z2.0 F3000
G92 E0
G1 E-5 F2700
M107
G1 E0 F1500

;Print

;LAYER 0 of 113
M106 S85
G0 X122.3 Y122.3 Z0.18 F6000
G1 F1200
G1 X97.7 Y122.3 E0.74329
G1 X97.7 Y97.7 E1.48657
G1 X122.3 Y97.7 E2.22986
G1 X122.3 Y122.3 E2.97315
G0 X121.84 Y121.84 F6000
G1 F1200
G1 X98.16 Y121.84 E3.68864
G1 X98.16 Y98.16 E4.40412
G1 X121.84 Y98.16 E5.11961
G1 X121.84 Y121.84 E5.83510
G0 X121.38 Y121.38 F6000
G1 F1200
G1 X98.62 Y121.38 E6.52279
G1 X98.62 Y98.62 E7.21048
G1 X121.38 Y98.62 E7.89818
G1 X121.38 Y121.38 E8.58587
G0 X99.076 Y98.85 F6000
G1 F1200
G1 X98.85 Y99.076 E8.59552
G0 X98.85 Y99.727 F6000
G1 F1200
G1 X99.727 Y98.85 E8.63300
G0 X100.377 Y98.85 F6000
G1 F1200
G1 X98.85 Y100.377 E8.69825
G0 X98.85 Y101.027 F6000
G1 F1200
G1 X101.027 Y98.85 E8.79127
G0 X101.678 Y98.85 F6000
G1 F1200
G1 X98.85 Y101.678 E8.91211
G0 X98.85 Y102.329 F6000
G1 F1200
G1 X102.329 Y98.85 E9.06077
G0 X102.979 Y98.85 F6000
G1 F1200
G1 X98.85 Y102.979 E9.23721
G0 X98.85 Y103.63 F6000
G1 F1200
G1 X103.629 Y98.85 E9.44143
G0 X104.28 Y98.85 F6000
G1 F1200
G1 X98.85 Y104.28 E9.67346
G0 X98.85 Y104.931 F6000
G1 F1200
G1 X104.931 Y98.85 E9.93330
G0 X105.581 Y98.85 F6000
G1 F1200
G1 X98.85 Y105.581 E10.22092
G0 X98.85 Y106.232 F6000
G1 F1200
G1 X106.232 Y98.85 E10.53636
G0 X106.883 Y98.85 F6000
G1 F1200
G1 X98.85 Y106.883 E10.87961
G0 X98.85 Y107.533 F6000
G1 F1200
G1 X107.533 Y98.85 E11.25064
G0 X108.183 Y98.85 F6000
G1 F1200
G1 X98.85 Y108.183 E11.64944
G0 X98.85 Y108.834 F6000
G1 F1200
G1 X108.834 Y98.85 E12.07606
G0 X109.485 Y98.85 F6000
G1 F1200
G1 X98.85 Y109.485 E12.53050
G0 X98.85 Y110.135 F6000
G1 F1200
G1 X110.135 Y98.85 E13.01271
G0 X110.785 Y98.85 F6000
G1 F1200
G1 X98.85 Y110.785 E13.52269
G0 X98.85 Y111.436 F6000
G1 F1200
G1 X111.436 Y98.85 E14.06050
G0 X112.087 Y98.85 F6000
G1 F1200
G1 X98.85 Y112.087 E14.62612
G0 X98.85 Y112.737 F6000
G1 F1200
G1 X112.737 Y98.85 E15.21952
G0 X113.388 Y98.85 F6000
G1 F1200
G1 X98.85 Y113.388 E15.84073
G0 X98.85 Y114.039 F6000
G1 F1200
G1 X114.039 Y98.85 E16.48976
G0 X114.689 Y98.85 F6000
G1 F1200
G1 X98.85 Y114.689 E17.16657
G0 X98.85 Y115.339 F6000
G1 F1200
G1 X115.339 Y98.85 E17.87115
G0 X115.99 Y98.85 F6000
G1 F1200
G1 X98.85 Y115.99 E18.60354
G0 X98.85 Y116.641 F6000
G1 F1200
G1 X116.641 Y98.85 E19.36376
G0 X117.291 Y98.85 F6000
G1 F1200
G1 X98.85 Y117.291 E20.15175
G0 X98.85 Y117.941 F6000
G1 F1200
G1 X117.941 Y98.85 E20.96751
G0 X118.592 Y98.85 F6000
G1 F1200
G1 X98.85 Y118.592 E21.81110
G0 X98.85 Y119.243 F6000
G1 F1200
G1 X119.243 Y98.85 E22.68249
G0 X119.893 Y98.85 F6000
G1 F1200
G1 X98.85 Y119.893 E23.58167
G0 X98.85 Y120.544 F6000
G1 F1200
G1 X120.543 Y98.85 E24.50864
G0 X121.15 Y98.894 F6000
G1 F1200
G1 X98.894 Y121.15 E25.45965
G0 X99.545 Y121.15 F6000
G1 F1200
G1 X121.15 Y99.545 E26.38283
G0 X121.15 Y100.195 F6000
G1 F1200
G1 X100.195 Y121.15 E27.27825
G0 X100.846 Y121.15 F6000
G1 F1200
G1 X121.15 Y100.846 E28.14584
G0 X121.15 Y101.497 F6000
G1 F1200
G1 X101.497 Y121.15 E28.98562
G0 X102.147 Y121.15 F6000
G1 F1200
G1 X121.15 Y102.147 E29.79763
G0 X121.15 Y102.797 F6000
G1 F1200
G1 X102.797 Y121.15 E30.58186
G0 X103.448 Y121.15 F6000
G1 F1200
G1 X121.15 Y103.448 E31.33827
G0 X121.15 Y104.099 F6000
G1 F1200
G1 X104.099 Y121.15 E32.06686
G0 X104.749 Y121.15 F6000
G1 F1200
G1 X121.15 Y104.749 E32.76769
G0 X121.15 Y105.399 F6000
G1 F1200
G1 X105.399 Y121.15 E33.44073
G0 X106.05 Y121.15 F6000
G1 F1200
G1 X121.15 Y106.05 E34.08596
G0 X121.15 Y106.701 F6000
G1 F1200
G1 X106.701 Y121.15 E34.70337
G0 X107.351 Y121.15 F6000
G1 F1200
G1 X121.15 Y107.351 E35.29300
G0 X121.15 Y108.002 F6000
G1 F1200
G1 X108.002 Y121.15 E35.85482
G0 X108.653 Y121.15 F6000
G1 F1200
G1 X121.15 Y108.653 E36.38882
G0 X121.15 Y109.303 F6000
G1 F1200
G1 X109.303 Y121.15 E36.89505
G0 X109.953 Y121.15 F6000
G1 F1200
G1 X121.15 Y109.953 E37.37350
G0 X121.15 Y110.604 F6000
G1 F1200
G1 X110.604 Y121.15 E37.82414
G0 X111.255 Y121.15 F6000
G1 F1200
G1 X121.15 Y111.255 E38.24695
G0 X121.15 Y111.905 F6000
G1 F1200
G1 X111.905 Y121.15 E38.64199
G0 X112.555 Y121.15 F6000
G1 F1200
G1 X121.15 Y112.555 E39.00926
G0 X121.15 Y113.206 F6000
G1 F1200
G1 X113.206 Y121.15 E39.34871
G0 X113.857 Y121.15 F6000
G1 F1200
G1 X121.15 Y113.857 E39.66034
G0 X121.15 Y114.507 F6000
G1 F1200
G1 X114.507 Y121.15 E39.94420
G0 X115.158 Y121.15 F6000
G1 F1200
G1 X121.15 Y115.157 E40.20026
G0 X121.15 Y115.808 F6000
G1 F1200
G1 X115.808 Y121.15 E40.42853
G0 X116.459 Y121.15 F6000
G1 F1200
G1 X121.15 Y116.459 E40.62898
G0 X121.15 Y117.109 F6000
G1 F1200
G1 X117.109 Y121.15 E40.80165
G0 X117.76 Y121.15 F6000
G1 F1200
G1 X121.15 Y117.76 E40.94650
G0 X121.15 Y118.411 F6000
G1 F1200
G1 X118.411 Y121.15 E41.06354
G0 X119.061 Y121.15 F6000
G1 F1200
G1 X121.15 Y119.061 E41.15281
G0 X121.15 Y119.711 F6000
G1 F1200
G1 X119.711 Y121.15 E41.21430
G0 X120.362 Y121.15 F6000
G1 F1200
G1 X121.15 Y120.362 E41.24797
G0 X121.15 Y121.013 F6000
G1 F1200
G1 X121.013 Y121.15 E41.25382
G92 E0
G1 Z0.4 F3000
G92 E0
G1 E-5 F2400
M106 S170

;LAYER 1 of 113
G0 X122.3 Y122.3 Z0.38 F6000
G1 F1200
G1 X97.7 Y122.3 E0.74329
G1 X97.7 Y97.7 E1.48657
G1 X122.3 Y97.7 E2.22986
G1 X122.3 Y122.3 E2.97315
G0 X121.84 Y121.84 F6000
G1 F1200
G1 X98.16 Y121.84 E3.68864
G1 X98.16 Y98.16 E4.40412
G1 X121.84 Y98.16 E5.11961
G1 X121.84 Y121.84 E5.83510
G0 X121.38 Y121.38 F6000
G1 F1200
G1 X98.62 Y121.38 E6.52279
G1 X98.62 Y98.62 E7.21048
G1 X121.38 Y98.62 E7.89818
G1 X121.38 Y121.38 E8.58587
G0 X121.15 Y99.075 F6000
G1 F1200
G1 X120.924 Y98.85 E8.59550
G0 X120.273 Y98.85 F6000
G1 F1200
G1 X121.15 Y99.726 E8.63296
G0 X121.15 Y100.376 F6000
G1 F1200
G1 X119.623 Y98.85 E8.69818
G0 X118.973 Y98.85 F6000
G1 F1200
G1 X121.15 Y101.026 E8.79119
G0 X121.15 Y101.677 F6000
G1 F1200
G1 X118.322 Y98.85 E8.91201
G0 X117.671 Y98.85 F6000
G1 F1200
G1 X121.15 Y102.328 E9.06064
G0 X121.15 Y102.978 F6000
G1 F1200
G1 X117.021 Y98.85 E9.23706
G0 X116.371 Y98.85 F6000
G1 F1200
G1 X121.15 Y103.629 E9.44126
G0 X121.15 Y104.279 F6000
G1 F1200
G1 X115.72 Y98.85 E9.67327
G0 X115.069 Y98.85 F6000
G1 F1200
G1 X121.15 Y104.93 E9.93309
G0 X121.15 Y105.581 F6000
G1 F1200
G1 X114.419 Y98.85 E10.22071
G0 X113.768 Y98.85 F6000
G1 F1200
G1 X121.15 Y106.231 E10.53612
G0 X121.15 Y106.882 F6000
G1 F1200
G1 X113.117 Y98.85 E10.87935
G0 X112.467 Y98.85 F6000
G1 F1200
G1 X121.15 Y107.533 E11.25038
G0 X121.15 Y108.182 F6000
G1 F1200
G1 X111.817 Y98.85 E11.64916
G0 X111.166 Y98.85 F6000
G1 F1200
G1 X121.15 Y108.833 E12.07576
G0 X121.15 Y109.485 F6000
G1 F1200
G1 X110.515 Y98.85 E12.53020
G0 X109.865 Y98.85 F6000
G1 F1200
G1 X121.15 Y110.134 E13.01239
G0 X121.15 Y110.784 F6000
G1 F1200
G1 X109.215 Y98.85 E13.52235
G0 X108.564 Y98.85 F6000
G1 F1200
G1 X121.15 Y111.435 E14.06013
G0 X121.15 Y112.086 F6000
G1 F1200
G1 X107.913 Y98.85 E14.62573
G0 X107.263 Y98.85 F6000
G1 F1200
G1 X121.15 Y112.736 E15.21911
G0 X121.15 Y113.387 F6000
G1 F1200
G1 X106.612 Y98.85 E15.84030
G0 X105.96 Y98.85 F6000
G1 F1200
G1 X121.15 Y114.039 E16.48935
G0 X121.15 Y114.689 F6000
G1 F1200
G1 X105.311 Y98.85 E17.16616
G0 X104.661 Y98.85 F6000
G1 F1200
G1 X121.15 Y115.338 E17.87072
G0 X121.15 Y115.99 F6000
G1 F1200
G1 X104.01 Y98.85 E18.60312
G0 X103.359 Y98.85 F6000
G1 F1200
G1 X121.15 Y116.64 E19.36331
G0 X121.15 Y117.291 F6000
G1 F1200
G1 X102.709 Y98.85 E20.15130
G0 X102.059 Y98.85 F6000
G1 F1200
G1 X121.15 Y117.94 E20.96704
G0 X121.15 Y118.592 F6000
G1 F1200
G1 X101.408 Y98.85 E21.81063
G0 X100.757 Y98.85 F6000
G1 F1200
G1 X121.15 Y119.243 E22.68202
G0 X121.15 Y119.892 F6000
G1 F1200
G1 X100.107 Y98.85 E23.58118
G0 X99.456 Y98.85 F6000
G1 F1200
G1 X121.15 Y120.544 E24.50817
G0 X121.107 Y121.15 F6000
G1 F1200
G1 X98.85 Y98.894 E25.45920
G0 X98.85 Y99.545 F6000
G1 F1200
G1 X120.456 Y121.15 E26.38241
G0 X119.804 Y121.15 F6000
G1 F1200
G1 X98.85 Y100.195 E27.27780
G0 X98.85 Y100.846 F6000
G1 F1200
G1 X119.155 Y121.15 E28.14542
G0 X118.504 Y121.15 F6000
G1 F1200
G1 X98.85 Y101.497 E28.98522
G0 X98.85 Y102.147 F6000
G1 F1200
G1 X117.852 Y121.15 E29.79720
G0 X117.203 Y121.15 F6000
G1 F1200
G1 X98.85 Y102.797 E30.58143
G0 X98.85 Y103.448 F6000
G1 F1200
G1 X116.553 Y121.15 E31.33786
G0 X115.9 Y121.15 F6000
G1 F1200
G1 X98.85 Y104.099 E32.06644
G0 X98.85 Y104.749 F6000
G1 F1200
G1 X115.251 Y121.15 E32.76726
G0 X114.601 Y121.15 F6000
G1 F1200
G1 X98.85 Y105.399 E33.44030
G0 X98.85 Y106.051 F6000
G1 F1200
G1 X113.95 Y121.15 E34.08551
G0 X113.299 Y121.15 F6000
G1 F1200
G1 X98.85 Y106.701 E34.70292
G0 X98.85 Y107.351 F6000
G1 F1200
G1 X112.649 Y121.15 E35.29256
G0 X111.998 Y121.15 F6000
G1 F1200
G1 X98.85 Y108.003 E35.85435
G0 X98.85 Y108.653 F6000
G1 F1200
G1 X111.347 Y121.15 E36.38835
G0 X110.697 Y121.15 F6000
G1 F1200
G1 X98.85 Y109.303 E36.89458
G0 X98.85 Y109.953 F6000
G1 F1200
G1 X110.047 Y121.15 E37.37303
G0 X109.396 Y121.15 F6000
G1 F1200
G1 X98.85 Y110.604 E37.82367
G0 X98.85 Y111.255 F6000
G1 F1200
G1 X108.745 Y121.15 E38.24648
G0 X108.096 Y121.15 F6000
G1 F1200
G1 X98.85 Y111.905 E38.64155
G0 X98.85 Y112.555 F6000
G1 F1200
G1 X107.446 Y121.15 E39.00883
G0 X106.794 Y121.15 F6000
G1 F1200
G1 X98.85 Y113.206 E39.34828
G0 X98.85 Y113.857 F6000
G1 F1200
G1 X106.144 Y121.15 E39.65994
G0 X105.494 Y121.15 F6000
G1 F1200
G1 X98.85 Y114.507 E39.94382
G0 X98.85 Y115.158 F6000
G1 F1200
G1 X104.842 Y121.15 E40.19986
G0 X104.193 Y121.15 F6000
G1 F1200
G1 X98.85 Y115.808 E40.42814
G0 X98.85 Y116.459 F6000
G1 F1200
G1 X103.542 Y121.15 E40.62861
G0 X102.891 Y121.15 F6000
G1 F1200
G1 X98.85 Y117.11 E40.80126
G0 X98.85 Y117.76 F6000
G1 F1200
G1 X102.241 Y121.15 E40.94614
G0 X101.59 Y121.15 F6000
G1 F1200
G1 X98.85 Y118.411 E41.06320
G0 X98.85 Y119.062 F6000
G1 F1200
G1 X100.939 Y121.15 E41.15244
G0 X100.289 Y121.15 F6000
G1 F1200
G1 X98.85 Y119.711 E41.21393
G0 X98.85 Y120.362 F6000
G1 F1200
G1 X99.639 Y121.15 E41.24763
G0 X98.987 Y121.15 F6000
G1 F1200
G1 X98.85 Y121.014 E41.25346
G92 E0
G1 Z0.6 F3000
G92 E0
G1 E-5 F2400

;LAYER 2 of 113
G0 X122.3 Y122.3 Z0.58 F6000
G1 F1200
G1 X97.7 Y122.3 E0.74329
G1 X97.7 Y97.7 E1.48657
G1 X122.3 Y97.7 E2.22986
G1 X122.3 Y122.3 E2.97315
G0 X121.84 Y121.84 F6000
G1 F1200
G1 X98.16 Y121.84 E3.68864
G1 X98.16 Y98.16 E4.40412
G1 X121.84 Y98.16 E5.11961
G1 X121.84 Y121.84 E5.83510
G0 X121.38 Y121.38 F6000
G1 F1200
G1 X98.62 Y121.38 E6.52279
G1 X98.62 Y98.62 E7.21048
G1 X121.38 Y98.62 E7.89818
G1 X121.38 Y121.38 E8.58587
G0 X99.076 Y98.85 F6000
G1 F1200
G1 X98.85 Y99.076 E8.59552
G0 X98.85 Y99.727 F6000
G1 F1200
G1 X99.727 Y98.85 E8.63300
G0 X100.377 Y98.85 F6000
G1 F1200
G1 X98.85 Y100.377 E8.69825
G0 X98.85 Y101.027 F6000
G1 F1200
G1 X101.027 Y98.85 E8.79127
G0 X101.678 Y98.85 F6000
G1 F1200
G1 X98.85 Y101.678 E8.91211
G0 X98.85 Y102.329 F6000
G1 F1200
G1 X102.329 Y98.85 E9.06077
G0 X102.979 Y98.85 F6000
G1 F1200
G1 X98.85 Y102.979 E9.23721
G0 X98.85 Y103.63 F6000
G1 F1200
G1 X103.629 Y98.85 E9.44143
G0 X104.28 Y98.85 F6000
G1 F1200
G1 X98.85 Y104.28 E9.67346
G0 X98.85 Y104.931 F6000
G1 F1200
G1 X104.931 Y98.85 E9.93330
G0 X105.581 Y98.85 F6000
G1 F1200
G1 X98.85 Y105.581 E10.22092
G0 X98.85 Y106.232 F6000
G1 F1200
G1 X106.232 Y98.85 E10.53636
G0 X106.883 Y98.85 F6000
G1 F1200
G1 X98.85 Y106.883 E10.87961
G0 X98.85 Y107.533 F6000
G1 F1200
G1 X107.533 Y98.85 E11.25064
G0 X108.183 Y98.85 F6000
G1 F1200
G1 X98.85 Y108.183 E11.64944
G0 X98.85 Y108.834 F6000
G1 F1200
G1 X108.834 Y98.85 E12.07606
G0 X109.485 Y98.85 F6000
G1 F1200
G1 X98.85 Y109.485 E12.53050
G0 X98.85 Y110.135 F6000
G1 F1200
G1 X110.135 Y98.85 E13.01271
G0 X110.785 Y98.85 F6000
G1 F1200
G1 X98.85 Y110.785 E13.52269
G0 X98.85 Y111.436 F6000
G1 F1200
G1 X111.436 Y98.85 E14.06050
G0 X112.087 Y98.85 F6000
G1 F1200
G1 X98.85 Y112.087 E14.62612
G0 X98.85 Y112.737 F6000
G1 F1200
G1 X112.737 Y98.85 E15.21952
G0 X113.388 Y98.85 F6000
G1 F1200
G1 X98.85 Y113.388 E15.84073
G0 X98.85 Y114.039 F6000
G1 F1200
G1 X114.039 Y98.85 E16.48976
G0 X114.689 Y98.85 F6000
G1 F1200
G1 X98.85 Y114.689 E17.16657
G0 X98.85 Y115.339 F6000
G1 F1200
G1 X115.339 Y98.85 E17.87115
G0 X115.99 Y98.85 F6000
G1 F1200
G1 X98.85 Y115.99 E18.60354
G0 X98.85 Y116.641 F6000
G1 F1200
G1 X116.641 Y98.85 E19.36376
G0 X117.291 Y98.85 F6000
G1 F1200
G1 X98.85 Y117.291 E20.15175
G0 X98.85 Y117.941 F6000
G1 F1200
G1 X117.941 Y98.85 E20.96751
G0 X118.592 Y98.85 F6000
G1 F1200
G1 X98.85 Y118.592 E21.81110
G0 X98.85 Y119.243 F6000
G1 F1200
G1 X119.243 Y98.85 E22.68249
G0 X119.893 Y98.85 F6000
G1 F1200
G1 X98.85 Y119.893 E23.58167
G0 X98.85 Y120.544 F6000
G1 F1200
G1 X120.543 Y98.85 E24.50864
G0 X121.15 Y98.894 F6000
G1 F1200
G1 X98.894 Y121.15 E25.45965
G0 X99.545 Y121.15 F6000
G1 F1200
G1 X121.15 Y99.545 E26.38283
G0 X121.15 Y100.195 F6000
G1 F1200
G1 X100.195 Y121.15 E27.27825
G0 X100.846 Y121.15 F6000
G1 F1200
G1 X121.15 Y100.846 E28.14584
G0 X121.15 Y101.497 F6000
G1 F1200
G1 X101.497 Y121.15 E28.98562
G0 X102.147 Y121.15 F6000
G1 F1200
G1 X121.15 Y102.147 E29.79763
G0 X121.15 Y102.797 F6000
G1 F1200
G1 X102.797 Y121.15 E30.58186
G0 X103.448 Y121.15 F6000
G1 F1200
G1 X121.15 Y103.448 E31.33827
G0 X121.15 Y104.099 F6000
G1 F1200
G1 X104.099 Y121.15 E32.06686
G0 X104.749 Y121.15 F6000
G1 F1200
G1 X121.15 Y104.749 E32.76769
G0 X121.15 Y105.399 F6000
G1 F1200
G1 X105.399 Y121.15 E33.44073
G0 X106.05 Y121.15 F6000
G1 F1200
G1 X121.15 Y106.05 E34.08596
G0 X121.15 Y106.701 F6000
G1 F1200
G1 X106.701 Y121.15 E34.70337
G0 X107.351 Y121.15 F6000
G1 F1200
G1 X121.15 Y107.351 E35.29300
G0 X121.15 Y108.002 F6000
G1 F1200
G1 X108.002 Y121.15 E35.85482
G0 X108.653 Y121.15 F6000
G1 F1200
G1 X121.15 Y108.653 E36.38882
G0 X121.15 Y109.303 F6000
G1 F1200
G1 X109.303 Y121.15 E36.89505
G0 X109.953 Y121.15 F6000
G1 F1200
G1 X121.15 Y109.953 E37.37350
G0 X121.15 Y110.604 F6000
G1 F1200
G1 X110.604 Y121.15 E37.82414
G0 X111.255 Y121.15 F6000
G1 F1200
G1 X121.15 Y111.255 E38.24695
G0 X121.15 Y111.905 F6000
G1 F1200
G1 X111.905 Y121.15 E38.64199
G0 X112.555 Y121.15 F6000
G1 F1200
G1 X121.15 Y112.555 E39.00926
G0 X121.15 Y113.206 F6000
G1 F1200
G1 X113.206 Y121.15 E39.34871
G0 X113.857 Y121.15 F6000
G1 F1200
G1 X121.15 Y113.857 E39.66034
G0 X121.15 Y114.507 F6000
G1 F1200
G1 X114.507 Y121.15 E39.94420
G0 X115.158 Y121.15 F6000
G1 F1200
G1 X121.15 Y115.157 E40.20026
G0 X121.15 Y115.808 F6000
G1 F1200
G1 X115.808 Y121.15 E40.42853
G0 X116.459 Y121.15 F6000
G1 F1200
G1 X121.15 Y116.459 E40.62898
G0 X121.15 Y117.109 F6000
G1 F1200
G1 X117.109 Y121.15 E40.80165
G0 X117.76 Y121.15 F6000
G1 F1200
G1 X121.15 Y117.76 E40.94650
G0 X121.15 Y118.411 F6000
G1 F1200
G1 X118.411 Y121.15 E41.06354
G0 X119.061 Y121.15 F6000
G1 F1200
G1 X121.15 Y119.061 E41.15281
G0 X121.15 Y119.711 F6000
G1 F1200
G1 X119.711 Y121.15 E41.21430
G0 X120.362 Y121.15 F6000
G1 F1200
G1 X121.15 Y120.362 E41.24797
G0 X121.15 Y121.013 F6000
G1 F1200
G1 X121.013 Y121.15 E41.25382
G92 E0
G1 Z0.8 F3000
G92 E0
G1 E-5 F2400

;LAYER 3 of 113
G0 X122.3 Y122.3 Z0.78 F6000
G1 F1200
G1 X97.7 Y122.3 E0.74329
G1 X97.7 Y97.7 E1.48657
G1 X122.3 Y97.7 E2.22986
G1 X122.3 Y122.3 E2.97315
G0 X121.84 Y121.84 F6000
G1 F1200
G1 X98.16 Y121.84 E3.68864
G1 X98.16 Y98.16 E4.40412
G1 X121.84 Y98.16 E5.11961
G1 X121.84 Y121.84 E5.83510
G0 X121.38 Y121.38 F6000
G1 F1200
G1 X98.62 Y121.38 E6.52279
G1 X98.62 Y98.62 E7.21048
G1 X121.38 Y98.62 E7.89818
G1 X121.38 Y121.38 E8.58587
G0 X120.743 Y98.85 F6000
G1 F1200
G1 X121.15 Y99.555 E8.61046
G0 X121.15 Y110.756 F6000
G1 F1200
G1 X114.276 Y98.85 E9.02585
G0 X107.81 Y98.85 F6000
G1 F1200
G1 X120.684 Y121.15 E9.80387
G0 X120.684 Y98.85 F6000
G1 F1200
G1 X107.809 Y121.15 E10.58190
G0 X114.276 Y121.15 F6000
G1 F1200
G1 X121.15 Y109.243 E10.99732
G0 X121.15 Y120.445 F6000
G1 F1200
G1 X120.743 Y121.15 E11.02191
G0 X114.219 Y121.15 F6000
G1 F1200
G1 X101.344 Y98.85 E11.79994
