;Generated with Pancakes - © 2019 Lieven Libberecht, William Thenaers

;Setup
M140 S50
M104 S200
M105
M190 S50
M109 S200
M82
G21
M201 X500.0 Y500.0 Z100.0 E5000.0
M203 X500.0 Y500.0 Z10.0 E50.0
M204 P500.0 R1000.0 T500.0
M205 X8.0 Y8.0 Z0.4 E5.0
M220 S100.0
M221 S100.0
G28
G92 E0
G1 Z2.0 F3000
G1 X10.1 Y20.0 Z0.28 F5000
G1 X10.1 Y200.0 Z0.28 E15 F1500
G1 X10.4 Y200.0 Z0.28 F5000
G1 X10.4 Y20.0 Z0.28 E30 F1500
G92 E0
G1 Z2.0 F3000
G92 E0
G1 E-5 F2700
M107
G1 E0 F1500

;Print

;LAYER 0 of 26
M106 S85
G1 E0 F2700
G0 X85.242 Y104.601 Z0.2 F6000
G1 F1500
G1 X89.593 Y100.251 E0.18590
G1 E0 F2700
G0 X90.839 Y99.655 F6000
G1 F1500
G1 X84.654 Y105.841 E0.45021
G1 E0 F2700
G0 X84.311 Y106.834 F6000
G1 F1500
G1 X91.83 Y99.315 E0.77150
G1 E0 F2700
G0 X92.697 Y99.098 F6000
G1 F1500
G1 X84.092 Y107.703 E1.13919
G1 E0 F2700
G0 X83.956 Y108.49 F6000
G1 F1500
G1 X93.485 Y98.961 E1.54637
G1 E0 F2700
G0 X87.118 Y105.979 F6000
G1 F1500
G1 X83.881 Y109.216 E1.68469
G1 E0 F2700
G0 X83.853 Y109.894 F6000
G1 F1500
G1 X86.638 Y107.109 E1.80369
G1 E0 F2700
G0 X86.377 Y108.02 F6000
G1 F1500
G1 X83.864 Y110.533 E1.91107
G1 E0 F2700
G0 X83.906 Y111.142 F6000
G1 F1500
G1 X86.233 Y108.815 E2.01050
G1 E0 F2700
G0 X86.166 Y109.533 F6000
G1 F1500
G1 X83.984 Y111.715 E2.10374
G1 E0 F2700
G0 X84.086 Y112.263 F6000
G1 F1500
G1 X86.154 Y110.195 E2.19211
G1 E0 F2700
G0 X86.184 Y110.816 F6000
G1 F1500
G1 X84.207 Y112.793 E2.27659
G1 E0 F2700
G0 X84.349 Y113.301 F6000
G1 F1500
G1 X86.261 Y111.389 E2.35829
G1 E0 F2700
G0 X86.367 Y111.934 F6000
G1 F1500
G1 X84.516 Y113.785 E2.43738
G1 E0 F2700
G0 X84.697 Y114.254 F6000
G1 F1500
G1 X86.496 Y112.455 E2.51425
G1 E0 F2700
G0 X86.656 Y112.946 F6000
G1 F1500
G1 X84.894 Y114.708 E2.58954
G1 E0 F2700
G0 X85.111 Y115.141 F6000
G1 F1500
G1 X86.839 Y113.413 E2.66338
G1 E0 F2700
G0 X87.036 Y113.867 F6000
G1 F1500
G1 X85.339 Y115.564 E2.73589
G1 E0 F2700
G0 X85.585 Y115.968 F6000
G1 F1500
G1 X87.263 Y114.29 E2.80760
G1 E0 F2700
G0 X87.504 Y114.7 F6000
G1 F1500
G1 X85.846 Y116.358 E2.87844
G1 E0 F2700
G0 X86.115 Y116.74 F6000
G1 F1500
G1 X87.763 Y115.092 E2.94886
G1 E0 F2700
G0 X88.043 Y115.462 F6000
G1 F1500
G1 X86.406 Y117.099 E3.01881
G1 E0 F2700
G0 X86.706 Y117.449 F6000
G1 F1500
G1 X88.331 Y115.824 E3.08825
G1 E0 F2700
G0 X88.65 Y116.156 F6000
G1 F1500
G1 X87.021 Y117.785 E3.15786
G1 E0 F2700
G0 X87.351 Y118.106 F6000
G1 F1500
G1 X88.976 Y116.481 E3.22729
G1 E0 F2700
G0 X89.323 Y116.784 F6000
G1 F1500
G1 X87.688 Y118.419 E3.29716
G1 E0 F2700
G0 X88.046 Y118.711 F6000
G1 F1500
G1 X89.686 Y117.071 E3.36724
G1 E0 F2700
G0 X90.063 Y117.345 F6000
G1 F1500
G1 X88.416 Y118.992 E3.43761
G1 E0 F2700
G0 X88.797 Y119.262 F6000
G1 F1500
G1 X90.466 Y117.593 E3.50893
G1 E0 F2700
G0 X90.878 Y117.831 F6000
G1 F1500
G1 X89.196 Y119.513 E3.58080
G1 E0 F2700
G0 X89.605 Y119.755 F6000
G1 F1500
G1 X91.317 Y118.043 E3.65396
G1 E0 F2700
G0 X91.775 Y118.236 F6000
G1 F1500
G1 X90.033 Y119.978 E3.72839
G1 E0 F2700
G0 X90.477 Y120.184 F6000
G1 F1500
G1 X92.249 Y118.412 E3.80411
G1 E0 F2700
G0 X92.757 Y118.554 F6000
G1 F1500
G1 X90.932 Y120.379 E3.88209
G1 E0 F2700
G0 X91.411 Y120.551 F6000
G1 F1500
G1 X93.286 Y118.676 E3.96221
G1 E0 F2700
G0 X93.839 Y118.774 F6000
G1 F1500
G1 X91.907 Y120.706 E4.04477
G1 E0 F2700
G0 X92.419 Y120.844 F6000
G1 F1500
G1 X94.436 Y118.827 E4.13095
G1 E0 F2700
G0 X95.072 Y118.842 F6000
G1 F1500
G1 X92.957 Y120.957 E4.22133
G1 E0 F2700
G0 X93.52 Y121.044 F6000
G1 F1500
G1 X95.754 Y118.81 E4.31679
G1 E0 F2700
G0 X96.502 Y118.713 F6000
G1 F1500
G1 X94.095 Y121.12 E4.41964
G1 E0 F2700
G0 X94.677 Y121.188 F6000
G1 F1500
G1 X97.34 Y118.525 E4.53343
G1 E0 F2700
G0 X98.319 Y118.197 F6000
G1 F1500
G1 X95.26 Y121.256 E4.66414
G1 E0 F2700
G0 X95.842 Y121.324 F6000
G1 F1500
G1 X99.643 Y117.523 E4.82656
G1 E0 F2700
G0 X106.24 Y111.577 F6000
G1 F1500
G1 X96.421 Y121.396 E5.24613
G1 E0 F2700
G0 X96.992 Y121.475 F6000
G1 F1500
G1 X106.319 Y112.148 E5.64468
G1 E0 F2700
G0 X106.419 Y112.699 F6000
G1 F1500
G1 X97.564 Y121.554 E6.02305
G1 E0 F2700
G0 X98.136 Y121.633 F6000
G1 F1500
G1 X106.531 Y113.238 E6.38177
G1 E0 F2700
G0 X106.67 Y113.749 F6000
G1 F1500
G1 X98.707 Y121.712 E6.72204
G1 E0 F2700
G0 X99.267 Y121.802 F6000
G1 F1500
G1 X106.815 Y114.254 E7.04456
G1 E0 F2700
G0 X106.987 Y114.733 F6000
G1 F1500
G1 X99.828 Y121.892 E7.35047
G1 E0 F2700
G0 X100.389 Y121.982 F6000
G1 F1500
G1 X107.163 Y115.208 E7.63993
G1 E0 F2700
G0 X107.362 Y115.659 F6000
G1 F1500
G1 X100.95 Y122.071 E7.91391
G1 E0 F2700
G0 X101.502 Y122.169 F6000
G1 F1500
G1 X107.568 Y116.104 E8.17309
G1 E0 F2700
G0 X107.791 Y116.531 F6000
G1 F1500
G1 X102.053 Y122.269 E8.41828
G1 E0 F2700
G0 X102.604 Y122.369 F6000
G1 F1500
G1 X108.021 Y116.952 E8.64975
G1 E0 F2700
G0 X108.268 Y117.355 F6000
G1 F1500
G1 X103.154 Y122.469 E8.86827
G1 E0 F2700
G0 X103.7 Y122.574 F6000
G1 F1500
G1 X108.522 Y117.752 E9.07432
G1 E0 F2700
G0 X108.794 Y118.131 F6000
G1 F1500
G1 X104.242 Y122.683 E9.26883
G1 E0 F2700
G0 X104.782 Y122.793 F6000
G1 F1500
G1 X109.069 Y118.506 E9.45201
G1 E0 F2700
G0 X109.363 Y118.862 F6000
G1 F1500
G1 X105.322 Y122.903 E9.62469
G1 E0 F2700
G0 X105.863 Y123.013 F6000
G1 F1500
G1 X109.659 Y119.217 E9.78689
G1 E0 F2700
G0 X109.976 Y119.551 F6000
G1 F1500
G1 X106.395 Y123.132 E9.93991
G1 E0 F2700
G0 X106.925 Y123.252 F6000
G1 F1500
G1 X110.294 Y119.883 E10.08387
G1 E0 F2700
G0 X110.633 Y120.195 F6000
G1 F1500
G1 X107.456 Y123.371 E10.21960
G1 E0 F2700
G0 X107.987 Y123.491 F6000
G1 F1500
G1 X110.972 Y120.506 E10.34715
G1 E0 F2700
G0 X111.333 Y120.796 F6000
G1 F1500
G1 X108.514 Y123.615 E10.46761
G1 E0 F2700
G0 X109.035 Y123.744 F6000
G1 F1500
G1 X111.694 Y121.085 E10.58123
G1 E0 F2700
G0 X112.076 Y121.354 F6000
G1 F1500
G1 X109.557 Y123.873 E10.68886
G1 E0 F2700
G0 X110.079 Y124.002 F6000
G1 F1500
G1 X112.461 Y121.619 E10.79067
G1 E0 F2700
G0 X112.866 Y121.865 F6000
G1 F1500
G1 X110.6 Y124.131 E10.88749
G1 E0 F2700
G0 X111.112 Y124.269 F6000
G1 F1500
G1 X113.274 Y122.107 E10.97988
G1 E0 F2700
G0 X113.703 Y122.329 F6000
G1 F1500
G1 X111.625 Y124.407 E11.06867
G1 E0 F2700
G0 X112.137 Y124.546 F6000
G1 F1500
G1 X114.135 Y122.548 E11.15405
G1 E0 F2700
G0 X114.59 Y122.743 F6000
G1 F1500
G1 X112.649 Y124.684 E11.23699
G1 E0 F2700
G0 X113.158 Y124.825 F6000
G1 F1500
G1 X115.048 Y122.935 E11.31775
G1 E0 F2700
G0 X115.532 Y123.102 F6000
G1 F1500
G1 X113.662 Y124.972 E11.39765
G1 E0 F2700
G0 X114.165 Y125.12 F6000
G1 F1500
G1 X116.02 Y123.265 E11.47692
G1 E0 F2700
G0 X116.533 Y123.402 F6000
G1 F1500
G1 X114.669 Y125.266 E11.55657
G1 E0 F2700
G0 X115.172 Y125.413 F6000
G1 F1500
G1 X117.056 Y123.529 E11.63707
G1 E0 F2700
G0 X117.602 Y123.635 F6000
G1 F1500
G1 X115.682 Y125.554 E11.71909
G1 E0 F2700
G0 X116.194 Y125.693 F6000
G1 F1500
G1 X118.166 Y123.721 E11.80336
G1 E0 F2700
G0 X118.746 Y123.791 F6000
G1 F1500
G1 X116.729 Y125.808 E11.88954
G1 E0 F2700
G0 X117.273 Y125.915 F6000
G1 F1500
G1 X119.361 Y123.827 E11.97876
G1 E0 F2700
G0 X119.996 Y123.843 F6000
G1 F1500
G1 X117.84 Y125.999 E12.07089
G1 E0 F2700
G0 X118.423 Y126.066 F6000
G1 F1500
G1 X120.656 Y123.833 E12.16631
G1 E0 F2700
G0 X121.363 Y123.776 F6000
G1 F1500
G1 X119.021 Y126.118 E12.26638
G1 E0 F2700
G0 X119.652 Y126.138 F6000
G1 F1500
G1 X122.111 Y123.679 E12.37146
G1 E0 F2700
G0 X122.908 Y123.533 F6000
G1 F1500
G1 X120.302 Y126.139 E12.48281
G1 E0 F2700
G0 X120.974 Y126.117 F6000
G1 F1500
G1 X123.771 Y123.32 E12.60233
G1 E0 F2700
G0 X124.735 Y123.006 F6000
G1 F1500
G1 X121.685 Y126.056 E12.73265
G1 E0 F2700
G0 X122.435 Y125.957 F6000
G1 F1500
G1 X125.848 Y122.544 E12.87849
G1 E0 F2700
G0 X127.259 Y121.784 F6000
G1 F1500
G1 X123.227 Y125.816 E13.05078
G1 E0 F2700
G0 X124.072 Y125.621 F6000
G1 F1500
G1 X135.615 Y114.078 E13.54402
G1 E0 F2700
G0 X135.347 Y114.997 F6000
G1 F1500
G1 X124.994 Y125.35 E13.98640
G1 E0 F2700
G0 X126.018 Y124.976 F6000
G1 F1500
G1 X134.973 Y116.022 E14.36903
G1 E0 F2700
G0 X134.455 Y117.19 F6000
G1 F1500
G1 X127.187 Y124.458 E14.67960
G1 E0 F2700
G0 X128.688 Y123.607 F6000
G1 F1500
G1 X133.595 Y118.7 E14.88928
G1 E0 F2700
G0 X135.811 Y113.232 F6000
G1 F1500
G1 X131.797 Y117.246 E15.06079
G1 E0 F2700
G0 X132.543 Y115.849 F6000
G1 F1500
G1 X135.954 Y112.438 E15.20655
G1 E0 F2700
G0 X136.053 Y111.688 F6000
G1 F1500
G1 X133.013 Y114.728 E15.33645
G1 E0 F2700
G0 X133.322 Y113.769 F6000
G1 F1500
G1 X136.115 Y110.976 E15.45579
G1 E0 F2700
G0 X136.136 Y110.305 F6000
G1 F1500
G1 X133.538 Y112.903 E15.56681
G1 E0 F2700
G0 X133.679 Y112.111 F6000
G1 F1500
G1 X136.135 Y109.655 E15.67175
G1 E0 F2700
G0 X136.115 Y109.024 F6000
G1 F1500
G1 X133.77 Y111.369 E15.77196
G1 E0 F2700
G0 X133.824 Y110.665 F6000
G1 F1500
G1 X136.062 Y108.427 E15.86759
G1 E0 F2700
G0 X135.994 Y107.845 F6000
G1 F1500
G1 X133.847 Y109.992 E15.95933
G1 E0 F2700
G0 X133.825 Y109.363 F6000
G1 F1500
G1 X135.91 Y107.278 E16.04842
G1 E0 F2700
G0 X135.803 Y106.734 F6000
G1 F1500
G1 X133.784 Y108.753 E16.13469
G1 E0 F2700
G0 X133.722 Y108.165 F6000
G1 F1500
G1 X135.69 Y106.197 E16.21879
G1 E0 F2700
G0 X135.552 Y105.685 F6000
G1 F1500
G1 X133.63 Y107.607 E16.30091
G1 E0 F2700
G0 X133.527 Y107.059 F6000
G1 F1500
G1 X135.405 Y105.18 E16.38118
G1 E0 F2700
G0 X135.242 Y104.693 F6000
G1 F1500
G1 X133.398 Y106.537 E16.45998
G1 E0 F2700
G0 X133.258 Y106.027 F6000
G1 F1500
G1 X135.068 Y104.217 E16.53732
G1 E0 F2700
G0 X134.882 Y103.752 F6000
G1 F1500
G1 X133.1 Y105.534 E16.61347
G1 E0 F2700
G0 X132.927 Y105.056 F6000
G1 F1500
G1 X134.683 Y103.3 E16.68850
G1 E0 F2700
G0 X134.476 Y102.857 F6000
G1 F1500
G1 X132.741 Y104.592 E16.76264
G1 E0 F2700
G0 X132.539 Y104.144 F6000
G1 F1500
G1 X134.253 Y102.43 E16.83588
G1 E0 F2700
G0 X134.025 Y102.007 F6000
G1 F1500
G1 X132.329 Y103.703 E16.90835
G1 E0 F2700
G0 X132.1 Y103.281 F6000
G1 F1500
G1 X133.781 Y101.6 E16.98018
G1 E0 F2700
G0 X133.532 Y101.199 F6000
G1 F1500
G1 X131.864 Y102.867 E17.05145
G1 E0 F2700
G0 X131.612 Y102.469 F6000
G1 F1500
G1 X133.269 Y100.812 E17.12226
G1 E0 F2700
G0 X133.001 Y100.429 F6000
G1 F1500
G1 X131.352 Y102.078 E17.19272
G1 E0 F2700
G0 X131.077 Y101.702 F6000
G1 F1500
G1 X132.717 Y100.062 E17.26280
G1 E0 F2700
G0 X132.43 Y99.699 F6000
G1 F1500
G1 X130.794 Y101.335 E17.33270
G1 E0 F2700
G0 X130.499 Y100.979 F6000
G1 F1500
G1 X132.129 Y99.349 E17.40235
G1 E0 F2700
G0 X131.821 Y99.006 F6000
G1 F1500
G1 X130.193 Y100.634 E17.47192
G1 E0 F2700
G0 X129.876 Y100.301 F6000
G1 F1500
G1 X131.501 Y98.676 E17.54135
G1 E0 F2700
G0 X131.175 Y98.352 F6000
G1 F1500
G1 X129.548 Y99.979 E17.61088
G1 E0 F2700
G0 X129.209 Y99.667 F6000
G1 F1500
G1 X130.837 Y98.039 E17.68044
G1 E0 F2700
G0 X130.492 Y97.733 F6000
G1 F1500
G1 X128.859 Y99.366 E17.75022
G1 E0 F2700
G0 X128.501 Y99.074 F6000
G1 F1500
G1 X130.137 Y97.438 E17.82013
G1 E0 F2700
G0 X129.773 Y97.152 F6000
G1 F1500
G1 X128.129 Y98.796 E17.89038
G1 E0 F2700
G0 X127.748 Y98.526 F6000
G1 F1500
G1 X129.398 Y96.876 E17.96088
G1 E0 F2700
G0 X129.015 Y96.608 F6000
G1 F1500
G1 X127.351 Y98.272 E18.03198
G1 E0 F2700
G0 X126.948 Y98.025 F6000
G1 F1500
G1 X128.62 Y96.353 E18.10343
G1 E0 F2700
G0 X128.217 Y96.106 F6000
G1 F1500
G1 X126.528 Y97.795 E18.17560
G1 E0 F2700
G0 X126.1 Y97.572 F6000
G1 F1500
G1 X127.802 Y95.869 E18.24835
G1 E0 F2700
G0 X127.379 Y95.642 F6000
G1 F1500
G1 X125.655 Y97.366 E18.32202
G1 E0 F2700
G0 X125.201 Y97.17 F6000
G1 F1500
G1 X126.943 Y95.428 E18.39645
G1 E0 F2700
G0 X126.498 Y95.222 F6000
G1 F1500
G1 X124.729 Y96.991 E18.47204
G1 E0 F2700
G0 X124.245 Y96.824 F6000
G1 F1500
G1 X126.039 Y95.03 E18.54870
G1 E0 F2700
G0 X125.573 Y94.846 F6000
G1 F1500
G1 X123.747 Y96.672 E18.62673
G1 E0 F2700
G0 X123.229 Y96.54 F6000
G1 F1500
G1 X125.089 Y94.68 E18.70620
G1 E0 F2700
G0 X124.598 Y94.52 F6000
G1 F1500
G1 X122.7 Y96.418 E18.78731
G1 E0 F2700
G0 X122.142 Y96.325 F6000
G1 F1500
G1 X124.084 Y94.383 E18.87029
G1 E0 F2700
G0 X123.565 Y94.252 F6000
G1 F1500
G1 X121.575 Y96.242 E18.95532
G1 E0 F2700
G0 X120.977 Y96.19 F6000
G1 F1500
G1 X123.025 Y94.142 E19.04283
G1 E0 F2700
G0 X122.469 Y94.047 F6000
G1 F1500
G1 X120.355 Y96.161 E19.13317
G1 E0 F2700
G0 X119.712 Y96.153 F6000
G1 F1500
G1 X121.899 Y93.966 E19.22662
G1 E0 F2700
G0 X121.305 Y93.91 F6000
G1 F1500
G1 X119.026 Y96.189 E19.32400
G1 E0 F2700
G0 X118.302 Y96.262 F6000
G1 F1500
G1 X120.695 Y93.869 E19.42625
G1 E0 F2700
G0 X120.06 Y93.854 F6000
G1 F1500
G1 X117.536 Y96.377 E19.53408
G1 E0 F2700
G0 X116.714 Y96.549 F6000
G1 F1500
G1 X119.395 Y93.868 E19.64864
G1 E0 F2700
G0 X118.705 Y93.908 F6000
G1 F1500
G1 X115.81 Y96.803 E19.77235
G1 E0 F2700
G0 X114.788 Y97.174 F6000
G1 F1500
G1 X117.983 Y93.979 E19.90887
G1 E0 F2700
G0 X117.216 Y94.095 F6000
G1 F1500
G1 X113.578 Y97.733 E20.06432
G1 E0 F2700
G0 X111.881 Y98.78 F6000
G1 F1500
G1 X116.401 Y94.26 E20.25746
G1 E0 F2700
G0 X115.523 Y94.488 F6000
G1 F1500
G1 X103.235 Y106.776 E20.78254
G1 E0 F2700
G0 X103.04 Y106.32 F6000
G1 F1500
G1 X114.61 Y94.75 E21.27693
G1 E0 F2700
G0 X113.691 Y95.018 F6000
G1 F1500
G1 X102.824 Y105.885 E21.74128
G1 E0 F2700
G0 X102.596 Y105.463 F6000
G1 F1500
G1 X112.779 Y95.28 E22.17640
G1 E0 F2700
G0 X111.888 Y95.521 F6000
G1 F1500
G1 X102.338 Y105.071 E22.58447
G1 E0 F2700
G0 X102.07 Y104.688 F6000
G1 F1500
G1 X110.996 Y95.762 E22.96588
G1 E0 F2700
G0 X110.12 Y95.987 F6000
G1 F1500
G1 X101.781 Y104.326 E23.32221
G1 E0 F2700
G0 X101.476 Y103.981 F6000
G1 F1500
G1 X109.257 Y96.2 E23.65470
G1 E0 F2700
G0 X108.392 Y96.414 F6000
G1 F1500
G1 X101.157 Y103.649 E23.96385
G1 E0 F2700
G0 X100.814 Y103.341 F6000
G1 F1500
G1 X107.548 Y96.607 E24.25160
G1 E0 F2700
G0 X106.709 Y96.796 F6000
G1 F1500
G1 X100.463 Y103.042 E24.51849
G1 E0 F2700
G0 X100.087 Y102.768 F6000
G1 F1500
G1 X105.87 Y96.985 E24.76560
G1 E0 F2700
G0 X105.053 Y97.151 F6000
G1 F1500
G1 X99.696 Y102.508 E24.99451
G1 E0 F2700
G0 X99.289 Y102.264 F6000
G1 F1500
G1 X104.236 Y97.317 E25.20589
G1 E0 F2700
G0 X103.422 Y97.481 F6000
G1 F1500
G1 X98.858 Y102.045 E25.40091
G1 E0 F2700
G0 X98.415 Y101.838 F6000
G1 F1500
G1 X102.627 Y97.625 E25.58092
G1 E0 F2700
G0 X101.832 Y97.77 F6000
G1 F1500
G1 X97.941 Y101.661 E25.74718
G1 E0 F2700
G0 X97.447 Y101.504 F6000
G1 F1500
G1 X101.037 Y97.914 E25.90058
G1 E0 F2700
G0 X100.264 Y98.037 F6000
G1 F1500
G1 X96.936 Y101.365 E26.04279
G1 E0 F2700
G0 X96.385 Y101.265 F6000
G1 F1500
G1 X99.488 Y98.162 E26.17538
G1 E0 F2700
G0 X98.714 Y98.286 F6000
G1 F1500
G1 X95.806 Y101.194 E26.29964
G1 E0 F2700
G0 X95.192 Y101.157 F6000
G1 F1500
G1 X97.958 Y98.391 E26.41783
G1 E0 F2700
G0 X97.204 Y98.495 F6000
G1 F1500
G1 X94.536 Y101.163 E26.53184
G1 E0 F2700
G0 X93.821 Y101.227 F6000
G1 F1500
G1 X96.449 Y98.599 E26.64413
G1 E0 F2700
G0 X95.707 Y98.69 F6000
G1 F1500
G1 X93.026 Y101.371 E26.75869
G1 E0 F2700
G0 X92.108 Y101.639 F6000
G1 F1500
G1 X94.97 Y98.777 E26.88099
G1 E0 F2700
G0 X94.234 Y98.863 F6000
G1 F1500
G1 X90.976 Y102.121 E27.02020
G1 E0 F2700
G0 X107.735 Y103.576 F6000
G1 F1500
G1 X103.554 Y107.757 E27.19886
G1 E0 F2700
G0 X103.675 Y108.287 F6000
G1 F1500
G1 X107.157 Y104.805 E27.34764
G1 E0 F2700
G0 X106.795 Y105.818 F6000
G1 F1500
G1 X103.763 Y108.85 E27.47720
G1 E0 F2700
G0 X103.822 Y109.441 F6000
G1 F1500
G1 X106.542 Y106.721 E27.59343
G1 E0 F2700
G0 X106.365 Y107.548 F6000
G1 F1500
G1 X103.844 Y110.07 E27.70117
G1 E0 F2700
G0 X103.813 Y110.751 F6000
G1 F1500
G1 X106.255 Y108.309 E27.80552
G1 E0 F2700
G0 X106.188 Y109.027 F6000
G1 F1500
G1 X103.716 Y111.499 E27.91115
G1 E0 F2700
G0 X103.534 Y112.331 F6000
G1 F1500
G1 X106.153 Y109.712 E28.02306
G1 E0 F2700
G0 X106.153 Y110.363 F6000
G1 F1500
G1 X103.191 Y113.325 E28.14963
G1 E0 F2700
G0 X102.534 Y114.632 F6000
G1 F1500
G1 X106.188 Y110.978 E28.30576
G1 E0 F2700
G0 X103.403 Y107.258 F6000
G1 F1500
G1 X108.797 Y101.864 E28.53625
G1 E0 F2700
G0 X117.182 Y104.538 F6000
G1 F1500
G1 X114.536 Y107.184 E28.64932
G1 E0 F2700
G0 X114.098 Y108.273 F6000
G1 F1500
G1 X118.265 Y104.106 E28.82737
G1 E0 F2700
G0 X119.102 Y103.919 F6000
G1 F1500
G1 X113.918 Y109.103 E29.04889
G1 E0 F2700
G0 X113.856 Y109.816 F6000
G1 F1500
G1 X119.814 Y103.857 E29.30350
G1 E0 F2700
G0 X120.45 Y103.872 F6000
G1 F1500
G1 X113.868 Y110.455 E29.58477
G1 E0 F2700
G0 X118.529 Y106.444 F6000
